;FLAVOR:Marlin
;TIME:4539
;Filament used: 3.15005m
;Layer height: 0.2
;MINX:88.5
;MINY:88.5
;MINZ:0.2
;MAXX:146.5
;MAXY:146.5
;MAXZ:17.72
;Generated with Cura_SteamEngine 5.0.0
M140 S50
M105
M190 S50
M104 S200
M105
M109 S200
M82 ;absolute extrusion mode
; Ender 3 Custom Start G-code
G92 E0 ; Reset Extruder
G28 ; Home all axes
G1 Z2.0 F3000 ; Move Z Axis up little to prevent scratching of Heat Bed
G1 X0.1 Y20 Z0.3 F5000.0 ; Move to start position
G1 X0.1 Y200.0 Z0.3 F1500.0 E15 ; Draw the first line
G1 X0.4 Y200.0 Z0.3 F5000.0 ; Move to side a little
G1 X0.4 Y20 Z0.3 F1500.0 E30 ; Draw the second line
G92 E0 ; Reset Extruder
G1 Z2.0 F3000 ; Move Z Axis up little to prevent scratching of Heat Bed
G1 X5 Y20 Z0.3 F5000.0 ; Move over to prevent blob squish
G92 E0
G92 E0
G1 F2700 E-5
;LAYER_COUNT:95
;LAYER:0
M107
G0 F6000 X92.257 Y91.805 Z0.2
G0 X88.501 Y101.003
;TYPE:SKIRT
G1 F2700 E0
G1 F1200 X88.511 Y100.351 E0.02169
G1 X88.572 Y99.353 E0.05494
G1 X88.599 Y99.1 E0.06341
G1 X88.738 Y98.172 E0.09462
G1 X88.956 Y97.26 E0.1258
G1 X89.375 Y96.055 E0.16824
G1 X89.472 Y95.821 E0.17666
G1 X89.868 Y94.97 E0.20788
G1 X90.335 Y94.157 E0.23906
G1 X90.839 Y93.427 E0.26857
G1 X91.008 Y93.202 E0.27793
G1 X91.602 Y92.477 E0.3091
G1 X92.257 Y91.805 E0.34031
G1 X92.792 Y91.332 E0.36406
G1 X92.983 Y91.174 E0.37231
G1 X93.73 Y90.608 E0.40348
G1 X94.523 Y90.107 E0.43468
G1 X95.469 Y89.624 E0.47001
G1 X95.664 Y89.536 E0.47712
G1 X96.535 Y89.187 E0.50833
G1 X97.432 Y88.913 E0.53953
G1 X98.265 Y88.731 E0.56789
G1 X98.524 Y88.685 E0.57663
G1 X99.454 Y88.561 E0.60784
G1 X100.255 Y88.518 E0.63452
G1 X101.359 Y88.5 E0.67124
G1 X133.793 Y88.5 E1.75
G1 X134.64 Y88.511 E1.77818
G1 X135.779 Y88.587 E1.81614
G1 X136.048 Y88.619 E1.82515
G1 X136.974 Y88.769 E1.85635
G1 X137.884 Y88.998 E1.88757
G1 X139.054 Y89.42 E1.92893
G1 X139.275 Y89.514 E1.93692
G1 X140.122 Y89.917 E1.96812
G1 X140.931 Y90.391 E1.9993
G1 X141.583 Y90.846 E2.02575
G1 X141.805 Y91.013 E2.03499
G1 X142.529 Y91.608 E2.06616
G1 X143.201 Y92.263 E2.09737
G1 X143.668 Y92.792 E2.12084
G1 X143.826 Y92.983 E2.12908
G1 X144.392 Y93.73 E2.16025
G1 X144.893 Y94.523 E2.19145
G1 X145.369 Y95.454 E2.22623
G1 X145.456 Y95.646 E2.23324
G1 X145.807 Y96.516 E2.26444
G1 X146.082 Y97.413 E2.29565
G1 X146.262 Y98.229 E2.32344
G1 X146.309 Y98.489 E2.33223
G1 X146.436 Y99.418 E2.36342
G1 X146.482 Y100.253 E2.39123
G1 X146.5 Y101.359 E2.42802
G1 X146.499 Y133.92 E3.511
G1 X146.489 Y134.634 E3.53475
G1 X146.435 Y135.583 E3.56637
G1 X146.41 Y135.831 E3.57466
G1 X146.276 Y136.76 E3.60588
G1 X146.063 Y137.673 E3.63706
G1 X145.628 Y138.938 E3.68155
G1 X145.529 Y139.177 E3.69016
G1 X145.133 Y140.027 E3.72134
G1 X144.667 Y140.841 E3.75254
G1 X144.161 Y141.573 E3.78214
G1 X143.992 Y141.798 E3.7915
G1 X143.398 Y142.523 E3.82267
G1 X142.743 Y143.195 E3.85388
G1 X142.208 Y143.668 E3.87763
G1 X142.017 Y143.826 E3.88588
G1 X141.27 Y144.392 E3.91705
G1 X140.477 Y144.893 E3.94825
G1 X139.55 Y145.368 E3.98289
G1 X139.356 Y145.456 E3.98998
G1 X138.486 Y145.806 E4.02117
G1 X137.59 Y146.082 E4.05235
G1 X136.728 Y146.27 E4.08169
G1 X136.468 Y146.316 E4.09048
G1 X135.539 Y146.44 E4.12165
G1 X134.745 Y146.482 E4.14809
G1 X133.642 Y146.5 E4.18479
G1 X101.047 Y146.499 E5.2689
G1 X100.36 Y146.489 E5.29175
G1 X99.221 Y146.413 E5.32972
G1 X98.952 Y146.381 E5.33873
G1 X98.026 Y146.231 E5.36993
G1 X97.116 Y146.002 E5.40114
G1 X95.946 Y145.58 E5.44251
G1 X95.725 Y145.486 E5.4505
G1 X94.878 Y145.083 E5.48169
G1 X94.069 Y144.609 E5.51288
G1 X93.417 Y144.154 E5.53932
G1 X93.195 Y143.987 E5.54856
G1 X92.471 Y143.392 E5.57973
G1 X91.799 Y142.737 E5.61094
G1 X91.314 Y142.187 E5.63533
G1 X91.156 Y141.995 E5.6436
G1 X90.592 Y141.246 E5.67479
G1 X90.093 Y140.451 E5.70601
G1 X89.617 Y139.515 E5.74093
G1 X89.528 Y139.317 E5.74815
G1 X89.18 Y138.446 E5.77935
G1 X88.908 Y137.548 E5.81056
G1 X88.731 Y136.733 E5.8383
G1 X88.686 Y136.48 E5.84684
G1 X88.561 Y135.551 E5.87802
G1 X88.518 Y134.744 E5.9049
G1 X88.5 Y133.627 E5.94206
G1 X88.501 Y101.003 E7.02713
G0 F6000 X88.901 Y101.009
G1 F1200 X88.911 Y100.357 E7.04882
G1 X88.97 Y99.395 E7.08088
G1 X88.997 Y99.142 E7.08934
G1 X89.134 Y98.232 E7.11995
G1 X89.35 Y97.337 E7.15057
G1 X89.745 Y96.208 E7.19035
G1 X89.842 Y95.974 E7.19878
G1 X90.231 Y95.14 E7.22939
G1 X90.691 Y94.342 E7.26002
G1 X91.159 Y93.667 E7.28734
G1 X91.328 Y93.442 E7.2967
G1 X91.912 Y92.731 E7.3273
G1 X92.556 Y92.073 E7.35793
G1 X93.047 Y91.64 E7.3797
G1 X93.238 Y91.482 E7.38794
G1 X93.972 Y90.927 E7.41855
G1 X94.751 Y90.437 E7.44916
G1 X95.634 Y89.988 E7.48211
G1 X95.829 Y89.9 E7.48922
G1 X96.684 Y89.558 E7.51985
G1 X97.565 Y89.292 E7.55046
G1 X98.335 Y89.125 E7.57667
G1 X98.594 Y89.079 E7.58541
G1 X99.507 Y88.958 E7.61605
G1 X100.262 Y88.918 E7.64119
G1 X101.359 Y88.9 E7.67768
G1 X133.793 Y88.9 E8.75644
G1 X134.634 Y88.911 E8.78442
G1 X135.732 Y88.984 E8.82102
G1 X136.001 Y89.016 E8.83003
G1 X136.91 Y89.165 E8.86067
G1 X137.802 Y89.391 E8.89127
G1 X138.898 Y89.788 E8.93004
G1 X139.119 Y89.882 E8.93803
G1 X139.95 Y90.278 E8.96865
G1 X140.743 Y90.746 E8.99927
G1 X141.342 Y91.165 E9.02359
G1 X141.564 Y91.332 E9.03283
G1 X142.275 Y91.917 E9.06345
G1 X142.933 Y92.561 E9.09407
G1 X143.36 Y93.047 E9.11559
G1 X143.518 Y93.238 E9.12383
G1 X144.073 Y93.972 E9.15444
G1 X144.563 Y94.751 E9.18505
G1 X145.005 Y95.619 E9.21745
G1 X145.092 Y95.811 E9.22446
G1 X145.435 Y96.665 E9.25507
G1 X145.703 Y97.546 E9.28569
G1 X145.868 Y98.3 E9.31137
G1 X145.915 Y98.56 E9.32015
G1 X146.039 Y99.473 E9.3508
G1 X146.082 Y100.26 E9.37701
G1 X146.1 Y101.359 E9.41357
G1 X146.099 Y133.914 E10.49636
G1 X146.089 Y134.628 E10.52011
G1 X146.037 Y135.543 E10.55059
G1 X146.012 Y135.791 E10.55888
G1 X145.88 Y136.702 E10.58949
G1 X145.669 Y137.599 E10.62014
G1 X145.258 Y138.785 E10.66189
G1 X145.159 Y139.024 E10.67049
G1 X144.77 Y139.858 E10.7011
G1 X144.31 Y140.656 E10.73174
G1 X143.841 Y141.333 E10.75913
G1 X143.672 Y141.558 E10.76849
G1 X143.088 Y142.269 E10.79909
G1 X142.444 Y142.927 E10.82972
G1 X141.953 Y143.36 E10.85149
G1 X141.762 Y143.518 E10.85973
G1 X141.028 Y144.073 E10.89034
G1 X140.249 Y144.563 E10.92095
G1 X139.385 Y145.003 E10.9532
G1 X139.191 Y145.091 E10.96028
G1 X138.337 Y145.435 E10.99091
G1 X137.456 Y145.703 E11.02153
G1 X136.659 Y145.876 E11.04866
G1 X136.399 Y145.922 E11.05744
G1 X135.486 Y146.043 E11.08807
G1 X134.738 Y146.082 E11.11299
G1 X133.642 Y146.1 E11.14944
G1 X101.053 Y146.099 E12.23336
G1 X100.366 Y146.089 E12.25621
G1 X99.268 Y146.016 E12.29281
G1 X98.999 Y145.984 E12.30182
G1 X98.09 Y145.835 E12.33246
G1 X97.198 Y145.609 E12.36306
G1 X96.102 Y145.212 E12.40183
G1 X95.881 Y145.118 E12.40982
G1 X95.05 Y144.722 E12.44044
G1 X94.257 Y144.254 E12.47106
G1 X93.658 Y143.835 E12.49538
G1 X93.436 Y143.668 E12.50462
G1 X92.725 Y143.083 E12.53524
G1 X92.067 Y142.439 E12.56586
G1 X91.623 Y141.933 E12.58825
G1 X91.465 Y141.741 E12.59652
G1 X90.911 Y141.005 E12.62716
G1 X90.424 Y140.224 E12.65778
G1 X89.982 Y139.351 E12.69032
G1 X89.893 Y139.153 E12.69754
G1 X89.552 Y138.297 E12.72819
G1 X89.287 Y137.416 E12.75879
G1 X89.125 Y136.663 E12.7844
G1 X89.08 Y136.41 E12.79295
G1 X88.958 Y135.498 E12.82356
G1 X88.918 Y134.737 E12.8489
G1 X88.9 Y133.627 E12.88582
G1 X88.901 Y101.009 E13.9707
G0 F6000 X89.301 Y101.016
G1 F1200 X89.311 Y100.364 E13.99239
G1 X89.368 Y99.438 E14.02325
G1 X89.395 Y99.185 E14.03171
G1 X89.53 Y98.292 E14.06175
G1 X89.744 Y97.414 E14.09181
G1 X90.114 Y96.361 E14.12893
G1 X90.211 Y96.127 E14.13735
G1 X90.594 Y95.309 E14.1674
G1 X91.047 Y94.528 E14.19743
G1 X91.478 Y93.907 E14.22257
G1 X91.647 Y93.682 E14.23193
G1 X92.221 Y92.985 E14.26196
G1 X92.854 Y92.341 E14.29199
G1 X93.492 Y91.791 E14.32001
G1 X94.213 Y91.246 E14.35007
G1 X94.979 Y90.768 E14.3801
G1 X95.798 Y90.353 E14.41064
G1 X95.993 Y90.265 E14.41775
G1 X96.832 Y89.93 E14.4478
G1 X97.697 Y89.671 E14.47783
G1 X98.405 Y89.519 E14.50192
G1 X98.664 Y89.473 E14.51067
G1 X99.56 Y89.355 E14.54073
G1 X100.269 Y89.318 E14.56434
G1 X101.359 Y89.3 E14.6006
G1 X133.793 Y89.3 E15.67936
G1 X134.628 Y89.311 E15.70713
G1 X135.685 Y89.381 E15.74236
G1 X135.954 Y89.413 E15.75137
G1 X136.845 Y89.56 E15.78141
G1 X137.72 Y89.784 E15.81145
G1 X138.741 Y90.156 E15.84759
G1 X138.962 Y90.25 E15.85558
G1 X139.777 Y90.64 E15.88563
G1 X140.554 Y91.1 E15.91566
G1 X141.102 Y91.485 E15.93794
G1 X141.324 Y91.652 E15.94718
G1 X142.021 Y92.226 E15.97721
G1 X142.664 Y92.86 E16.00724
G1 X143.209 Y93.492 E16.035
G1 X143.754 Y94.213 E16.06506
G1 X144.232 Y94.979 E16.09509
G1 X144.641 Y95.784 E16.12512
G1 X144.728 Y95.976 E16.13214
G1 X145.064 Y96.814 E16.16216
G1 X145.324 Y97.679 E16.19221
G1 X145.474 Y98.372 E16.21579
G1 X145.521 Y98.632 E16.22458
G1 X145.642 Y99.527 E16.25462
G1 X145.682 Y100.267 E16.27926
G1 X145.7 Y101.359 E16.31559
G1 X145.699 Y133.909 E17.39821
G1 X145.689 Y134.623 E17.42196
G1 X145.639 Y135.503 E17.45127
G1 X145.614 Y135.751 E17.45956
G1 X145.483 Y136.645 E17.48962
G1 X145.274 Y137.523 E17.51963
G1 X144.889 Y138.631 E17.55865
G1 X144.79 Y138.87 E17.56725
G1 X144.407 Y139.689 E17.59732
G1 X143.954 Y140.47 E17.62735
G1 X143.522 Y141.093 E17.65257
G1 X143.353 Y141.318 E17.66193
G1 X142.779 Y142.015 E17.69196
G1 X142.146 Y142.659 E17.72199
G1 X141.508 Y143.209 E17.75001
G1 X140.787 Y143.754 E17.78007
G1 X140.021 Y144.232 E17.8101
G1 X139.22 Y144.639 E17.83998
G1 X139.026 Y144.727 E17.84707
G1 X138.187 Y145.063 E17.87713
G1 X137.323 Y145.324 E17.90715
G1 X136.589 Y145.482 E17.93212
G1 X136.329 Y145.528 E17.9409
G1 X135.434 Y145.646 E17.97093
G1 X134.731 Y145.682 E17.99434
G1 X133.642 Y145.7 E18.03057
G1 X101.059 Y145.699 E19.11428
G1 X100.372 Y145.689 E19.13713
G1 X99.315 Y145.619 E19.17237
G1 X99.046 Y145.587 E19.18138
G1 X98.155 Y145.44 E19.21141
G1 X97.28 Y145.216 E19.24145
G1 X96.259 Y144.844 E19.27759
G1 X96.038 Y144.75 E19.28558
G1 X95.223 Y144.36 E19.31563
G1 X94.446 Y143.9 E19.34567
G1 X93.898 Y143.515 E19.36794
G1 X93.676 Y143.348 E19.37718
G1 X92.979 Y142.774 E19.40721
G1 X92.336 Y142.14 E19.43725
G1 X91.932 Y141.678 E19.45766
G1 X91.774 Y141.486 E19.46593
G1 X91.232 Y140.764 E19.49596
G1 X90.755 Y139.997 E19.526
G1 X90.347 Y139.187 E19.55616
G1 X90.258 Y138.989 E19.56338
G1 X89.924 Y138.15 E19.59342
G1 X89.666 Y137.284 E19.62347
G1 X89.519 Y136.593 E19.64697
G1 X89.474 Y136.34 E19.65552
G1 X89.355 Y135.445 E19.68555
G1 X89.318 Y134.73 E19.70936
G1 X89.3 Y133.627 E19.74605
G1 X89.301 Y101.016 E20.8307
G1 F2700 E15.8307
G0 F6000 X104.3 Y104.364
G0 X104.262 Y104.542
G1 F2700 E20.8307
G1 F1200 X104.3 Y104.364 E20.83675
G1 X104.441 Y104.266 E20.84246
G1 X104.662 Y104.322 E20.85004
G1 X104.74 Y104.479 E20.85587
G1 X104.687 Y104.652 E20.86189
G1 X104.525 Y104.741 E20.86804
G1 X104.353 Y104.691 E20.874
G1 X104.262 Y104.542 E20.8798
G0 F6000 X103.865 Y104.6
G1 F1200 X103.888 Y104.304 E20.88968
G1 X104.037 Y104.055 E20.89933
G1 X104.285 Y103.895 E20.90915
G1 X104.477 Y103.858 E20.91565
G1 X104.762 Y103.913 E20.9253
G1 X104.994 Y104.09 E20.93501
G1 X105.126 Y104.352 E20.94477
G1 X105.126 Y104.648 E20.95461
G1 X104.994 Y104.91 E20.96437
G1 X104.762 Y105.087 E20.97408
G1 X104.477 Y105.142 E20.98373
G1 X104.195 Y105.065 E20.99345
G1 X103.972 Y104.867 E21.00337
G1 X103.865 Y104.6 E21.01294
G0 F6000 X103.469 Y104.337
G1 F1200 X103.566 Y104.033 E21.02355
G1 X103.743 Y103.782 E21.03377
G1 X104.001 Y103.583 E21.0446
G1 X104.295 Y103.477 E21.055
G1 X104.466 Y103.457 E21.06073
G1 X104.78 Y103.494 E21.07124
G1 X105.064 Y103.622 E21.0816
G1 X105.307 Y103.839 E21.09244
G1 X105.467 Y104.108 E21.10285
G1 X105.54 Y104.419 E21.11347
G1 X105.516 Y104.741 E21.12421
G1 X105.399 Y105.03 E21.13458
G1 X105.193 Y105.28 E21.14536
G1 X104.926 Y105.453 E21.15594
G1 X104.616 Y105.537 E21.16662
G1 X104.295 Y105.523 E21.17731
G1 X104.001 Y105.417 E21.1877
G1 X103.743 Y105.218 E21.19854
G1 X103.566 Y104.967 E21.20875
G1 X103.469 Y104.663 E21.21937
G1 X103.469 Y104.337 E21.23021
G0 F6000 X103.072 Y104.28
G1 F1200 X103.205 Y103.86 E21.24486
G1 X103.458 Y103.499 E21.25953
G1 X103.812 Y103.23 E21.27431
G1 X104.223 Y103.082 E21.28884
G1 X104.448 Y103.056 E21.29638
G1 X104.881 Y103.106 E21.31087
G1 X105.286 Y103.288 E21.32564
G1 X105.613 Y103.579 E21.3402
G1 X105.841 Y103.962 E21.35502
G1 X105.94 Y104.392 E21.3697
G1 X105.905 Y104.835 E21.38448
G1 X105.743 Y105.236 E21.39887
G1 X105.461 Y105.579 E21.41363
G1 X105.091 Y105.818 E21.42828
G1 X104.662 Y105.936 E21.44308
G1 X104.223 Y105.918 E21.4577
G1 X103.812 Y105.77 E21.47223
G1 X103.458 Y105.501 E21.48701
G1 X103.205 Y105.14 E21.50168
G1 X103.072 Y104.72 E21.51633
G1 X103.072 Y104.28 E21.53096
G0 F6000 X102.654 Y104.5
G1 F1200 X102.675 Y104.216 E21.54043
G1 X102.74 Y103.942 E21.5498
G1 X102.844 Y103.683 E21.55908
G1 X102.989 Y103.439 E21.56852
G1 X103.17 Y103.22 E21.57797
G1 X103.381 Y103.033 E21.58735
G1 X103.621 Y102.877 E21.59687
G1 X103.878 Y102.761 E21.60625
G1 X104.144 Y102.689 E21.61542
G1 X104.431 Y102.656 E21.62502
G1 X104.715 Y102.666 E21.63448
G1 X104.985 Y102.719 E21.64363
G1 X105.258 Y102.817 E21.65327
G1 X105.499 Y102.948 E21.6624
G1 X105.731 Y103.125 E21.6721
G1 X105.923 Y103.324 E21.6813
G1 X106.088 Y103.558 E21.69082
G1 X106.212 Y103.809 E21.70014
G1 X106.298 Y104.079 E21.70956
G1 X106.34 Y104.357 E21.71891
G1 X106.34 Y104.643 E21.72842
G1 X106.298 Y104.921 E21.73778
G1 X106.212 Y105.191 E21.7472
G1 X106.088 Y105.442 E21.75651
G1 X105.923 Y105.676 E21.76603
G1 X105.731 Y105.875 E21.77523
G1 X105.499 Y106.052 E21.78494
G1 X105.258 Y106.183 E21.79406
G1 X104.985 Y106.281 E21.80371
G1 X104.715 Y106.334 E21.81286
G1 X104.431 Y106.344 E21.82231
G1 X104.144 Y106.311 E21.83192
G1 X103.878 Y106.239 E21.84109
G1 X103.621 Y106.123 E21.85046
G1 X103.381 Y105.967 E21.85998
G1 X103.17 Y105.78 E21.86936
G1 X102.989 Y105.561 E21.87881
G1 X102.844 Y105.317 E21.88825
G1 X102.74 Y105.058 E21.89753
G1 X102.675 Y104.784 E21.9069
G1 X102.654 Y104.5 E21.91637
G0 F6000 X102.253 Y104.5
G1 F1200 X102.278 Y104.159 E21.92774
G1 X102.359 Y103.817 E21.93943
G1 X102.486 Y103.503 E21.9507
G1 X102.661 Y103.207 E21.96214
G1 X102.88 Y102.942 E21.97357
G1 X103.135 Y102.716 E21.9849
G1 X103.432 Y102.523 E21.99668
G1 X103.741 Y102.384 E22.00795
G1 X104.066 Y102.295 E22.01916
G1 X104.42 Y102.255 E22.03101
G1 X104.76 Y102.268 E22.04233
G1 X105.092 Y102.332 E22.05357
G1 X105.417 Y102.449 E22.06506
G1 X105.72 Y102.613 E22.07652
G1 X105.999 Y102.826 E22.0882
G1 X106.233 Y103.069 E22.09942
G1 X106.433 Y103.352 E22.11094
G1 X106.582 Y103.655 E22.12217
G1 X106.688 Y103.986 E22.13373
G1 X106.74 Y104.33 E22.1453
G1 X106.74 Y104.67 E22.15661
G1 X106.688 Y105.014 E22.16818
G1 X106.582 Y105.345 E22.17974
G1 X106.433 Y105.648 E22.19097
G1 X106.233 Y105.931 E22.2025
G1 X105.999 Y106.174 E22.21372
G1 X105.72 Y106.387 E22.22539
G1 X105.417 Y106.551 E22.23685
G1 X105.092 Y106.668 E22.24834
G1 X104.76 Y106.732 E22.25959
G1 X104.42 Y106.745 E22.27091
G1 X104.066 Y106.705 E22.28275
G1 X103.741 Y106.616 E22.29396
G1 X103.432 Y106.477 E22.30523
G1 X103.135 Y106.284 E22.31701
G1 X102.879 Y106.057 E22.32839
G1 X102.661 Y105.793 E22.33978
G1 X102.486 Y105.497 E22.35122
G1 X102.359 Y105.183 E22.36248
G1 X102.278 Y104.841 E22.37417
G1 X102.253 Y104.5 E22.38554
G1 F2700 E17.38554
G0 F6000 X103.072 Y130.28
G1 F2700 E22.38554
G1 F1200 X103.205 Y129.86 E22.4002
G1 X103.458 Y129.499 E22.41486
G1 X103.812 Y129.23 E22.42965
G1 X104.223 Y129.082 E22.44418
G1 X104.448 Y129.056 E22.45171
G1 X104.881 Y129.106 E22.46621
G1 X105.286 Y129.288 E22.48097
G1 X105.613 Y129.579 E22.49553
G1 X105.841 Y129.962 E22.51036
G1 X105.94 Y130.392 E22.52503
G1 X105.905 Y130.835 E22.53981
G1 X105.743 Y131.236 E22.5542
G1 X105.461 Y131.579 E22.56897
G1 X105.091 Y131.818 E22.58362
G1 X104.662 Y131.936 E22.59842
G1 X104.223 Y131.918 E22.61303
G1 X103.812 Y131.77 E22.62756
G1 X103.458 Y131.501 E22.64235
G1 X103.205 Y131.14 E22.65701
G1 X103.072 Y130.72 E22.67166
G1 X103.072 Y130.28 E22.6863
G0 F6000 X103.469 Y130.337
G1 F1200 X103.566 Y130.033 E22.69691
G1 X103.743 Y129.782 E22.70712
G1 X104.001 Y129.583 E22.71796
G1 X104.295 Y129.477 E22.72836
G1 X104.466 Y129.457 E22.73408
G1 X104.78 Y129.494 E22.7446
G1 X105.064 Y129.622 E22.75496
