;FLAVOR:Marlin
;TIME:18425
;Filament used: 13.3078m
;Layer height: 0.2
;MINX:33.7
;MINY:96.7
;MINZ:0.2
;MAXX:201.3
;MAXY:139.085
;MAXZ:24.72
;Generated with Cura_SteamEngine 5.0.0
M140 S50
M105
M190 S50
M104 S200
M105
M109 S200
M82 ;absolute extrusion mode
; Ender 3 Custom Start G-code
G92 E0 ; Reset Extruder
G28 ; Home all axes
G1 Z2.0 F3000 ; Move Z Axis up little to prevent scratching of Heat Bed
G1 X0.1 Y20 Z0.3 F5000.0 ; Move to start position
G1 X0.1 Y200.0 Z0.3 F1500.0 E15 ; Draw the first line
G1 X0.4 Y200.0 Z0.3 F5000.0 ; Move to side a little
G1 X0.4 Y20 Z0.3 F1500.0 E30 ; Draw the second line
G92 E0 ; Reset Extruder
G1 Z2.0 F3000 ; Move Z Axis up little to prevent scratching of Heat Bed
G1 X5 Y20 Z0.3 F5000.0 ; Move over to prevent blob squish
G92 E0
G92 E0
G1 F2700 E-5
;LAYER_COUNT:136
;LAYER:0
M107
;MESH:Divider Box 4x1x3 1-Compartment.stl
G0 F6000 X71.485 Y135.301 Z0.2
;TYPE:WALL-OUTER
G1 F2700 E0
G1 F1200 X71.802 Y135.232 E0.01079
G1 X72.066 Y135.063 E0.02122
G1 X72.231 Y134.804 E0.03143
G1 X72.291 Y134.543 E0.04034
G1 X72.3 Y134.43 E0.04411
G1 X72.3 Y100.571 E1.17026
G1 X72.271 Y100.29 E1.17966
G1 X72.133 Y100.024 E1.18963
G1 X71.897 Y99.807 E1.20029
G1 X71.608 Y99.717 E1.21036
G1 X71.43 Y99.701 E1.2163
G1 X37.515 Y99.7 E2.34432
G1 X37.198 Y99.768 E2.3551
G1 X36.933 Y99.937 E2.36555
G1 X36.77 Y100.194 E2.37568
G1 X36.708 Y100.459 E2.38473
G1 X36.701 Y100.571 E2.38846
G1 X36.7 Y134.487 E3.51651
G1 X36.768 Y134.803 E3.52726
G1 X36.934 Y135.063 E3.53752
G1 X37.196 Y135.231 E3.54787
G1 X37.457 Y135.291 E3.55678
G1 X37.57 Y135.299 E3.56055
G1 X71.485 Y135.301 E4.68857
G0 F6000 X71.459 Y134.901
;TYPE:WALL-INNER
G1 F1200 X71.696 Y134.843 E4.69668
G1 X71.842 Y134.696 E4.70357
G1 X71.9 Y134.43 E4.71263
G1 X71.9 Y100.571 E5.83878
G1 X71.843 Y100.304 E5.84786
G1 X71.696 Y100.157 E5.85478
G1 X71.43 Y100.101 E5.86382
G1 X37.541 Y100.1 E6.99097
G1 X37.305 Y100.157 E6.99905
G1 X37.157 Y100.304 E7.00599
G1 X37.101 Y100.571 E7.01506
G1 X37.1 Y134.46 E8.14221
G1 X37.158 Y134.696 E8.15029
G1 X37.304 Y134.843 E8.15719
G1 X37.57 Y134.899 E8.16623
G1 X71.459 Y134.901 E9.29338
G0 F6000 X71.433 Y134.538
;TYPE:SKIN
G1 F1200 X71.522 Y134.5 E9.2966
G1 X71.538 Y134.412 E9.29957
G1 X71.539 Y100.568 E10.42523
G1 X71.501 Y100.483 E10.42833
G1 X71.402 Y100.462 E10.43169
G1 X37.566 Y100.461 E11.55708
G1 X37.488 Y100.503 E11.56003
G1 X37.465 Y100.588 E11.56296
G1 X37.461 Y134.437 E12.68878
G1 X37.492 Y134.513 E12.69151
G1 X37.576 Y134.535 E12.6944
G1 X71.433 Y134.538 E13.82049
G1 F2700 E8.82049
G0 F6000 X71.427 Y134.799
G0 X38.166 Y134.799
G1 F2700 E13.82049
G0 F6000 X38.167 Y134.334
G1 F1200 X37.661 Y133.827 E13.84431
G0 F6000 X37.661 Y133.262
G1 F1200 X38.733 Y134.334 E13.89473
G0 F6000 X39.298 Y134.334
G1 F1200 X37.661 Y132.696 E13.97176
G0 F6000 X37.661 Y132.13
G1 F1200 X39.864 Y134.334 E14.0754
G0 F6000 X40.43 Y134.334
G1 F1200 X37.661 Y131.564 E14.20567
G0 F6000 X37.661 Y130.999
G1 F1200 X40.995 Y134.334 E14.36252
G0 F6000 X41.561 Y134.334
G1 F1200 X37.661 Y130.433 E14.54598
G0 F6000 X37.661 Y129.867
G1 F1200 X42.127 Y134.334 E14.75607
G0 F6000 X42.692 Y134.334
G1 F1200 X37.661 Y129.302 E14.99274
G0 F6000 X37.661 Y128.736
G1 F1200 X43.258 Y134.334 E15.25603
G0 F6000 X43.825 Y134.334
G1 F1200 X37.661 Y128.171 E15.54594
G0 F6000 X37.661 Y127.605
G1 F1200 X44.39 Y134.334 E15.86245
G0 F6000 X44.956 Y134.334
G1 F1200 X37.661 Y127.04 E16.20556
G0 F6000 X37.661 Y126.474
G1 F1200 X45.522 Y134.334 E16.5753
G0 F6000 X46.087 Y134.334
G1 F1200 X37.661 Y125.908 E16.97163
G0 F6000 X37.661 Y125.343
G1 F1200 X46.653 Y134.334 E17.39456
G0 F6000 X47.219 Y134.334
G1 F1200 X37.661 Y124.777 E17.84412
G0 F6000 X37.661 Y124.211
G1 F1200 X47.784 Y134.334 E18.32027
G0 F6000 X48.35 Y134.334
G1 F1200 X37.661 Y123.646 E18.82303
G0 F6000 X37.662 Y123.081
G1 F1200 X48.916 Y134.335 E19.35238
G0 F6000 X49.482 Y134.335
G1 F1200 X37.662 Y122.515 E19.90836
G0 F6000 X37.662 Y121.949
G1 F1200 X50.048 Y134.335 E20.49096
G0 F6000 X50.613 Y134.335
G1 F1200 X37.662 Y121.384 E21.10013
G0 F6000 X37.662 Y120.818
G1 F1200 X51.179 Y134.335 E21.73593
G0 F6000 X51.745 Y134.335
G1 F1200 X37.662 Y120.252 E22.39835
G0 F6000 X37.662 Y119.687
G1 F1200 X52.311 Y134.335 E23.08737
G0 F6000 X52.876 Y134.335
G1 F1200 X37.662 Y119.121 E23.80299
G0 F6000 X37.662 Y118.555
G1 F1200 X53.442 Y134.335 E24.54524
G0 F6000 X54.008 Y134.335
G1 F1200 X37.662 Y117.989 E25.3141
G0 F6000 X37.663 Y117.424
G1 F1200 X54.574 Y134.336 E26.10957
G0 F6000 X55.14 Y134.336
G1 F1200 X37.663 Y116.859 E26.93163
G0 F6000 X37.663 Y116.293
G1 F1200 X55.705 Y134.336 E27.78029
G0 F6000 X56.271 Y134.336
G1 F1200 X37.663 Y115.727 E28.65558
G0 F6000 X37.663 Y115.162
G1 F1200 X56.837 Y134.336 E29.55747
G0 F6000 X57.402 Y134.336
G1 F1200 X37.663 Y114.596 E30.48595
G0 F6000 X37.663 Y114.03
G1 F1200 X57.968 Y134.336 E31.44106
G0 F6000 X58.534 Y134.336
G1 F1200 X37.663 Y113.465 E32.42277
G0 F6000 X37.663 Y112.899
G1 F1200 X59.099 Y134.336 E33.43108
G0 F6000 X59.665 Y134.336
G1 F1200 X37.663 Y112.333 E34.46601
G0 F6000 X37.664 Y111.768
G1 F1200 X60.232 Y134.336 E35.52754
G0 F6000 X60.797 Y134.336
G1 F1200 X37.664 Y111.203 E36.61564
G0 F6000 X37.664 Y110.637
G1 F1200 X61.363 Y134.336 E37.73037
G0 F6000 X61.929 Y134.336
G1 F1200 X37.664 Y110.071 E38.87172
G0 F6000 X37.664 Y109.506
G1 F1200 X62.494 Y134.336 E40.03965
G0 F6000 X63.06 Y134.336
G1 F1200 X37.664 Y108.94 E41.2342
G0 F6000 X37.664 Y108.374
G1 F1200 X63.626 Y134.336 E42.45537
G0 F6000 X64.191 Y134.336
G1 F1200 X37.664 Y107.809 E43.70312
G0 F6000 X37.664 Y107.243
G1 F1200 X64.757 Y134.336 E44.97749
G0 F6000 X65.323 Y134.336
G1 F1200 X37.664 Y106.677 E46.27849
G0 F6000 X37.664 Y106.112
G1 F1200 X65.889 Y134.337 E47.6061
G0 F6000 X66.455 Y134.337
G1 F1200 X37.664 Y105.547 E48.96032
G0 F6000 X37.664 Y104.981
G1 F1200 X67.02 Y134.337 E50.34114
G0 F6000 X67.586 Y134.337
G1 F1200 X37.664 Y104.415 E51.74858
G0 F6000 X37.664 Y103.849
G1 F1200 X68.152 Y134.337 E53.18264
G0 F6000 X68.718 Y134.337
G1 F1200 X37.664 Y103.284 E54.6433
G0 F6000 X37.664 Y102.718
G1 F1200 X69.283 Y134.337 E56.13056
G0 F6000 X69.849 Y134.337
G1 F1200 X37.664 Y102.152 E57.64444
G0 F6000 X37.664 Y101.587
G1 F1200 X70.415 Y134.337 E59.18493
G0 F6000 X70.98 Y134.337
G1 F1200 X37.664 Y101.021 E60.75201
G0 F6000 X37.869 Y100.66
G1 F1200 X71.338 Y134.129 E62.32629
G0 F6000 X71.338 Y133.563
G1 F1200 X38.435 Y100.66 E63.87395
G0 F6000 X39.001 Y100.66
G1 F1200 X71.338 Y132.998 E65.395
G0 F6000 X71.338 Y132.432
G1 F1200 X39.566 Y100.66 E66.88946
G0 F6000 X40.132 Y100.66
G1 F1200 X71.338 Y131.866 E68.35729
G0 F6000 X71.338 Y131.301
G1 F1200 X40.698 Y100.66 E69.79853
G0 F6000 X41.263 Y100.66
G1 F1200 X71.338 Y130.735 E71.21317
G0 F6000 X71.338 Y130.169
G1 F1200 X41.829 Y100.66 E72.60118
G0 F6000 X42.395 Y100.66
G1 F1200 X71.338 Y129.604 E73.96259
G0 F6000 X71.338 Y129.038
G1 F1200 X42.96 Y100.66 E75.29741
G0 F6000 X43.526 Y100.66
G1 F1200 X71.338 Y128.472 E76.6056
G0 F6000 X71.338 Y127.907
G1 F1200 X44.092 Y100.66 E77.88719
G0 F6000 X44.658 Y100.66
G1 F1200 X71.338 Y127.341 E79.14216
G0 F6000 X71.338 Y126.775
G1 F1200 X45.223 Y100.66 E80.37053
G0 F6000 X45.789 Y100.66
G1 F1200 X71.338 Y126.21 E81.5723
G0 F6000 X71.338 Y125.644
G1 F1200 X46.355 Y100.66 E82.74744
G0 F6000 X46.92 Y100.66
G1 F1200 X71.338 Y125.078 E83.89599
G0 F6000 X71.338 Y124.513
G1 F1200 X47.486 Y100.66 E85.01794
G0 F6000 X48.052 Y100.66
G1 F1200 X71.338 Y123.947 E86.11327
G0 F6000 X71.338 Y123.381
G1 F1200 X48.617 Y100.66 E87.18199
G0 F6000 X49.183 Y100.66
G1 F1200 X71.338 Y122.815 E88.2241
G0 F6000 X71.338 Y122.25
G1 F1200 X49.749 Y100.66 E89.2396
G0 F6000 X50.314 Y100.66
G1 F1200 X71.338 Y121.684 E90.2285
G0 F6000 X71.338 Y121.118
G1 F1200 X50.88 Y100.66 E91.19079
G0 F6000 X51.446 Y100.66
G1 F1200 X71.338 Y120.553 E92.12647
G0 F6000 X71.338 Y119.987
G1 F1200 X52.011 Y100.66 E93.03555
G0 F6000 X52.577 Y100.66
G1 F1200 X71.338 Y119.421 E93.91801
G0 F6000 X71.338 Y118.856
G1 F1200 X53.143 Y100.66 E94.77387
G0 F6000 X53.709 Y100.66
G1 F1200 X71.338 Y118.29 E95.60311
G0 F6000 X71.338 Y117.724
G1 F1200 X54.274 Y100.66 E96.40575
G0 F6000 X54.841 Y100.661
G1 F1200 X71.339 Y117.159 E97.18176
G0 F6000 X71.339 Y116.594
G1 F1200 X55.406 Y100.661 E97.9312
G0 F6000 X55.972 Y100.661
G1 F1200 X71.339 Y116.028 E98.65402
G0 F6000 X71.339 Y115.462
G1 F1200 X56.538 Y100.661 E99.35021
G0 F6000 X57.103 Y100.661
G1 F1200 X71.339 Y114.897 E100.01983
G0 F6000 X71.339 Y114.331
G1 F1200 X57.669 Y100.661 E100.66282
G0 F6000 X58.235 Y100.661
G1 F1200 X71.339 Y113.765 E101.2792
G0 F6000 X71.339 Y113.2
G1 F1200 X58.8 Y100.661 E101.86899
G0 F6000 X59.366 Y100.661
G1 F1200 X71.339 Y112.634 E102.43217
G0 F6000 X71.339 Y112.068
G1 F1200 X59.932 Y100.661 E102.96872
G0 F6000 X60.497 Y100.661
G1 F1200 X71.339 Y111.502 E103.47867
G0 F6000 X71.339 Y110.937
G1 F1200 X61.063 Y100.661 E103.96202
G0 F6000 X61.629 Y100.661
G1 F1200 X71.339 Y110.371 E104.41875
G0 F6000 X71.339 Y109.805
G1 F1200 X62.194 Y100.661 E104.84888
G0 F6000 X62.76 Y100.661
G1 F1200 X71.339 Y109.24 E105.25241
G0 F6000 X71.339 Y108.674
G1 F1200 X63.326 Y100.661 E105.62931
G0 F6000 X63.892 Y100.661
G1 F1200 X71.339 Y108.108 E105.9796
G0 F6000 X71.339 Y107.543
G1 F1200 X64.457 Y100.661 E106.30331
G0 F6000 X65.023 Y100.661
G1 F1200 X71.339 Y106.977 E106.60039
G0 F6000 X71.339 Y106.411
G1 F1200 X65.589 Y100.661 E106.87085
G0 F6000 X66.154 Y100.661
G1 F1200 X71.339 Y105.846 E107.11474
G0 F6000 X71.339 Y105.28
G1 F1200 X66.72 Y100.661 E107.332
G0 F6000 X67.286 Y100.661
G1 F1200 X71.339 Y104.714 E107.52264
G0 F6000 X71.339 Y104.149
G1 F1200 X67.851 Y100.661 E107.68671
G0 F6000 X68.417 Y100.661
G1 F1200 X71.339 Y103.583 E107.82415
G0 F6000 X71.339 Y103.017
G1 F1200 X68.983 Y100.661 E107.93497
G0 F6000 X69.548 Y100.661
G1 F1200 X71.339 Y102.451 E108.01919
G0 F6000 X71.339 Y101.886
G1 F1200 X70.114 Y100.661 E108.07681
G0 F6000 X70.68 Y100.661
G1 F1200 X71.339 Y101.32 E108.10781
G0 F6000 X71.339 Y100.754
G1 F1200 X71.245 Y100.661 E108.11221
G1 F2700 E103.11221
G0 F6000 X71.246 Y100.201
G0 X71.684 Y100.361
G0 X72.071 Y134.471
G0 X73.166 Y134.471
G0 X77.834 Y134.47
G0 X78.929 Y134.47
G0 X79.505 Y134.712
G0 X113.458 Y134.892
G1 F2700 E108.11221
G0 F6000 X113.485 Y135.301
;TYPE:WALL-OUTER
G1 F1200 X113.802 Y135.232 E108.123
G1 X114.066 Y135.063 E108.13342
G1 X114.231 Y134.804 E108.14364
G1 X114.291 Y134.543 E108.15254
G1 X114.3 Y134.43 E108.15631
G1 X114.3 Y100.571 E109.28247
G1 X114.271 Y100.29 E109.29186
G1 X114.133 Y100.024 E109.30183
G1 X113.897 Y99.807 E109.31249
G1 X113.608 Y99.717 E109.32256
G1 X113.43 Y99.701 E109.32851
G1 X79.515 Y99.7 E110.45652
G1 X79.198 Y99.768 E110.46731
G1 X78.933 Y99.937 E110.47776
G1 X78.77 Y100.194 E110.48788
G1 X78.708 Y100.459 E110.49693
G1 X78.701 Y100.571 E110.50067
G1 X78.7 Y134.487 E111.62872
G1 X78.768 Y134.803 E111.63947
G1 X78.934 Y135.063 E111.64973
G1 X79.196 Y135.231 E111.66008
G1 X79.457 Y135.291 E111.66899
G1 X79.57 Y135.299 E111.67275
G1 X113.485 Y135.301 E112.80077
G0 F6000 X113.459 Y134.901
;TYPE:WALL-INNER
G1 F1200 X113.696 Y134.843 E112.80889
G1 X113.842 Y134.696 E112.81578
G1 X113.9 Y134.43 E112.82483
G1 X113.9 Y100.571 E113.95099
G1 X113.843 Y100.304 E113.96007
G1 X113.696 Y100.157 E113.96698
G1 X113.43 Y100.101 E113.97602
G1 X79.541 Y100.1 E115.10318
G1 X79.305 Y100.157 E115.11125
G1 X79.157 Y100.304 E115.11819
G1 X79.101 Y100.571 E115.12726
G1 X79.1 Y134.46 E116.25442
G1 X79.158 Y134.696 E116.2625
G1 X79.304 Y134.843 E116.26939
G1 X79.57 Y134.899 E116.27843
G1 X113.459 Y134.901 E117.40558
G0 F6000 X113.433 Y134.538
;TYPE:SKIN
G1 F1200 X113.522 Y134.5 E117.4088
G1 X113.538 Y134.412 E117.41178
G1 X113.539 Y100.568 E118.53743
G1 X113.501 Y100.483 E118.54053
G1 X113.402 Y100.462 E118.5439
G1 X79.566 Y100.461 E119.66929
G1 X79.488 Y100.503 E119.67223
G1 X79.465 Y100.588 E119.67516
G1 X79.461 Y134.437 E120.80098
G1 X79.492 Y134.513 E120.80371
G1 X79.576 Y134.535 E120.8066
G1 X113.433 Y134.538 E121.93269
G1 F2700 E116.93269
G0 F6000 X113.427 Y134.799
G0 X80.027 Y134.799
G1 F2700 E121.93269
G0 F6000 X80.028 Y134.334
G1 F1200 X79.661 Y133.967 E121.94995
G0 F6000 X79.661 Y133.401
G1 F1200 X80.594 Y134.334 E121.99384
G0 F6000 X81.16 Y134.334
G1 F1200 X79.661 Y132.835 E122.06435
G0 F6000 X79.661 Y132.269
G1 F1200 X81.725 Y134.334 E122.16145
G0 F6000 X82.291 Y134.334
G1 F1200 X79.661 Y131.704 E122.28516
G0 F6000 X79.661 Y131.138
G1 F1200 X82.857 Y134.334 E122.43549
G0 F6000 X83.423 Y134.334
G1 F1200 X79.661 Y130.572 E122.61245
G0 F6000 X79.661 Y130.007
G1 F1200 X83.988 Y134.334 E122.81597
G0 F6000 X84.554 Y134.334
G1 F1200 X79.661 Y129.441 E123.04613
G0 F6000 X79.661 Y128.875
G1 F1200 X85.12 Y134.334 E123.3029
G0 F6000 X85.685 Y134.334
G1 F1200 X79.661 Y128.31 E123.58625
G0 F6000 X79.661 Y127.744
G1 F1200 X86.251 Y134.334 E123.89622
G0 F6000 X86.817 Y134.335
G1 F1200 X79.661 Y127.179 E124.23282
G0 F6000 X79.661 Y126.613
G1 F1200 X87.383 Y134.335 E124.59604
G0 F6000 X87.949 Y134.335
G1 F1200 X79.661 Y126.048 E124.98586
G0 F6000 X79.661 Y125.482
G1 F1200 X88.514 Y134.335 E125.40228
G0 F6000 X89.08 Y134.335
G1 F1200 X79.661 Y124.916 E125.84532
G0 F6000 X79.661 Y124.351
G1 F1200 X89.646 Y134.335 E126.31496
G0 F6000 X90.211 Y134.335
G1 F1200 X79.661 Y123.785 E126.8112
G0 F6000 X79.661 Y123.219
G1 F1200 X90.777 Y134.335 E127.33406
G0 F6000 X91.343 Y134.335
G1 F1200 X79.661 Y122.654 E127.88352
G0 F6000 X79.661 Y122.088
G1 F1200 X91.909 Y134.335 E128.45961
G0 F6000 X92.474 Y134.335
G1 F1200 X79.661 Y121.522 E129.06229
G0 F6000 X79.661 Y120.956
G1 F1200 X93.04 Y134.335 E129.6916
G0 F6000 X93.606 Y134.336
G1 F1200 X79.662 Y120.392 E130.34748
G0 F6000 X79.662 Y119.826
G1 F1200 X94.172 Y134.336 E131.02999
G0 F6000 X94.738 Y134.336
G1 F1200 X79.662 Y119.26 E131.73912
G0 F6000 X79.662 Y118.694
G1 F1200 X95.303 Y134.336 E132.47484
G0 F6000 X95.869 Y134.336
G1 F1200 X79.662 Y118.129 E133.23717
G0 F6000 X79.662 Y117.563
G1 F1200 X96.435 Y134.336 E134.02612
G0 F6000 X97 Y134.336
G1 F1200 X79.662 Y116.997 E134.84167
G0 F6000 X79.662 Y116.432
G1 F1200 X97.566 Y134.336 E135.68382
G0 F6000 X98.132 Y134.336
G1 F1200 X79.662 Y115.866 E136.55259
G0 F6000 X79.662 Y115.3
G1 F1200 X98.697 Y134.336 E137.44796
G0 F6000 X99.263 Y134.336
G1 F1200 X79.662 Y114.735 E138.36994
G0 F6000 X79.662 Y114.169
G1 F1200 X99.829 Y134.336 E139.31853
G0 F6000 X100.395 Y134.336
G1 F1200 X79.663 Y113.604 E140.2937
G0 F6000 X79.663 Y113.038
G1 F1200 X100.961 Y134.336 E141.29549
G0 F6000 X101.527 Y134.336
G1 F1200 X79.663 Y112.473 E142.32388
G0 F6000 X79.663 Y111.907
G1 F1200 X102.092 Y134.336 E143.37888
G0 F6000 X102.658 Y134.336
G1 F1200 X79.663 Y111.341 E144.46049
G0 F6000 X79.663 Y110.776
G1 F1200 X103.224 Y134.336 E145.5687
G0 F6000 X103.789 Y134.336
G1 F1200 X79.663 Y110.21 E146.70352
G0 F6000 X79.663 Y109.644
G1 F1200 X104.355 Y134.336 E147.86495
G0 F6000 X104.921 Y134.336
G1 F1200 X79.663 Y109.078 E149.05301
G0 F6000 X79.663 Y108.513
G1 F1200 X105.486 Y134.336 E150.26765
G0 F6000 X106.052 Y134.336
G1 F1200 X79.663 Y107.947 E151.5089
G0 F6000 X79.664 Y107.382
G1 F1200 X106.618 Y134.337 E152.77676
G0 F6000 X107.184 Y134.337
G1 F1200 X79.664 Y106.816 E154.07124
G0 F6000 X79.664 Y106.251
G1 F1200 X107.75 Y134.337 E155.39232
G0 F6000 X108.316 Y134.337
G1 F1200 X79.664 Y105.685 E156.74002
G0 F6000 X79.664 Y105.119
G1 F1200 X108.881 Y134.337 E158.11432
G0 F6000 X109.447 Y134.337
G1 F1200 X79.664 Y104.554 E159.51522
G0 F6000 X79.664 Y103.988
G1 F1200 X110.013 Y134.337 E160.94275
G0 F6000 X110.578 Y134.337
G1 F1200 X79.664 Y103.422 E162.39687
G0 F6000 X79.664 Y102.857
G1 F1200 X111.144 Y134.337 E163.87759
G0 F6000 X111.71 Y134.337
G1 F1200 X79.664 Y102.291 E165.38494
G0 F6000 X79.664 Y101.725
G1 F1200 X112.275 Y134.337 E166.91889
G0 F6000 X112.841 Y134.337
G1 F1200 X79.664 Y101.16 E168.47943
G0 F6000 X79.73 Y100.66
G1 F1200 X113.338 Y134.268 E170.06025
G0 F6000 X113.338 Y133.703
G1 F1200 X80.296 Y100.66 E171.61446
G0 F6000 X80.861 Y100.66
G1 F1200 X113.338 Y133.137 E173.14208
G0 F6000 X113.338 Y132.571
G1 F1200 X81.427 Y100.66 E174.64308
G0 F6000 X81.993 Y100.66
G1 F1200 X113.338 Y132.006 E176.11747
