;FLAVOR:Marlin
;TIME:6463
;Filament used: 4.17994m
;Layer height: 0.2
;MINX:96.926
;MINY:96.926
;MINZ:0.2
;MAXX:138.905
;MAXY:138.914
;MAXZ:24.68
;Generated with Cura_SteamEngine 5.0.0
M140 S50
M105
M190 S50
M104 S200
M105
M109 S200
M82 ;absolute extrusion mode
; Ender 3 Custom Start G-code
G92 E0 ; Reset Extruder
G28 ; Home all axes
G1 Z2.0 F3000 ; Move Z Axis up little to prevent scratching of Heat Bed
G1 X0.1 Y20 Z0.3 F5000.0 ; Move to start position
G1 X0.1 Y200.0 Z0.3 F1500.0 E15 ; Draw the first line
G1 X0.4 Y200.0 Z0.3 F5000.0 ; Move to side a little
G1 X0.4 Y20 Z0.3 F1500.0 E30 ; Draw the second line
G92 E0 ; Reset Extruder
G1 Z2.0 F3000 ; Move Z Axis up little to prevent scratching of Heat Bed
G1 X5 Y20 Z0.3 F5000.0 ; Move over to prevent blob squish
G92 E0
G92 E0
G1 F2700 E-5
;LAYER_COUNT:142
;LAYER:0
M107
;MESH:Divider Box 1x1x3 1-Compartment.stl
G0 F6000 X105.058 Y107.905 Z0.2
;TYPE:WALL-OUTER
G1 F2700 E0
G1 F1200 X105.026 Y107.91 E0.00108
G1 X104.516 Y107.95 E0.01809
G1 X104.484 Y107.95 E0.01916
G1 X103.974 Y107.91 E0.03617
G1 X103.942 Y107.905 E0.03725
G1 X103.448 Y107.785 E0.05416
G1 X103.42 Y107.776 E0.05513
G1 X102.945 Y107.581 E0.07221
G1 X102.915 Y107.566 E0.07333
G1 X102.484 Y107.299 E0.09019
G1 X102.46 Y107.281 E0.09119
G1 X102.07 Y106.95 E0.1082
G1 X102.047 Y106.927 E0.10928
G1 X101.719 Y106.54 E0.12616
G1 X101.701 Y106.515 E0.12718
G1 X101.436 Y106.084 E0.14401
G1 X101.422 Y106.056 E0.14505
G1 X101.224 Y105.579 E0.16223
G1 X101.214 Y105.55 E0.16325
G1 X101.092 Y105.045 E0.18053
G1 X101.05 Y104.518 E0.19811
G1 X101.05 Y104.486 E0.19918
G1 X101.09 Y103.974 E0.21626
G1 X101.095 Y103.943 E0.2173
G1 X101.214 Y103.45 E0.23417
G1 X101.223 Y103.421 E0.23518
G1 X101.42 Y102.944 E0.25235
G1 X101.434 Y102.915 E0.25342
G1 X101.701 Y102.484 E0.27028
G1 X101.719 Y102.46 E0.27128
G1 X102.058 Y102.061 E0.28869
G1 X102.46 Y101.719 E0.30625
G1 X102.485 Y101.701 E0.30727
G1 X102.916 Y101.436 E0.3241
G1 X102.944 Y101.422 E0.32514
G1 X103.419 Y101.225 E0.34224
G1 X103.448 Y101.215 E0.34326
G1 X103.955 Y101.092 E0.36061
G1 X104.484 Y101.05 E0.37826
G1 X104.516 Y101.05 E0.37933
G1 X105.026 Y101.09 E0.39634
G1 X105.058 Y101.095 E0.39742
G1 X105.552 Y101.215 E0.41433
G1 X105.581 Y101.224 E0.41534
G1 X106.055 Y101.419 E0.43239
G1 X106.085 Y101.434 E0.4335
G1 X106.516 Y101.701 E0.45037
G1 X106.54 Y101.719 E0.45136
G1 X106.93 Y102.05 E0.46838
G1 X106.953 Y102.073 E0.46946
G1 X107.281 Y102.46 E0.48633
G1 X107.299 Y102.485 E0.48736
G1 X107.564 Y102.916 E0.50418
G1 X107.578 Y102.944 E0.50522
G1 X107.775 Y103.418 E0.5223
G1 X107.785 Y103.447 E0.52332
G1 X107.905 Y103.942 E0.54026
G1 X107.91 Y103.974 E0.54134
G1 X107.95 Y104.482 E0.55828
G1 X107.95 Y104.514 E0.55935
G1 X107.91 Y105.026 E0.57643
G1 X107.905 Y105.058 E0.57751
G1 X107.782 Y105.565 E0.59486
G1 X107.572 Y106.074 E0.61317
G1 X107.299 Y106.516 E0.63045
G1 X107.281 Y106.54 E0.63145
G1 X106.942 Y106.939 E0.64886
G1 X106.93 Y106.95 E0.6494
G1 X106.523 Y107.294 E0.66713
G1 X106.074 Y107.57 E0.68466
G1 X105.567 Y107.78 E0.70291
G1 X105.058 Y107.905 E0.72034
G0 F6000 X105.152 Y108.294
;TYPE:WALL-INNER
G1 F1200 X105.057 Y108.309 E0.72354
G1 X104.547 Y108.349 E0.74056
G1 X104.453 Y108.349 E0.74368
G1 X103.943 Y108.309 E0.7607
G1 X103.848 Y108.294 E0.7639
G1 X103.354 Y108.174 E0.78081
G1 X103.268 Y108.146 E0.78381
G1 X102.793 Y107.951 E0.80089
G1 X102.704 Y107.906 E0.80421
G1 X102.273 Y107.639 E0.82107
G1 X102.201 Y107.586 E0.82405
G1 X101.811 Y107.255 E0.84106
G1 X101.742 Y107.185 E0.84433
G1 X101.414 Y106.799 E0.86118
G1 X101.36 Y106.725 E0.86422
G1 X101.095 Y106.294 E0.88105
G1 X101.052 Y106.21 E0.88419
G1 X100.854 Y105.732 E0.9014
G1 X100.825 Y105.644 E0.90448
G1 F1126.8 X100.74 Y105.404 E0.9135
G1 F1000 X100.654 Y105.164 E0.92367
G1 F958.1 X100.643 Y105.061 E0.92799
G1 F977.6 X100.628 Y104.807 E0.93838
G1 F997.9 X100.613 Y104.553 E0.94855
G1 F1008.4 X100.613 Y104.452 E0.95255
G1 F997.9 X100.628 Y104.195 E0.96285
G1 F977.6 X100.643 Y103.938 E0.97336
G1 F958.1 X100.654 Y103.836 E0.97763
G1 F1000 X100.739 Y103.596 E0.98779
G1 F1126.8 X100.825 Y103.356 E0.99682
G1 F1200 X100.853 Y103.269 E0.99986
G1 X101.05 Y102.792 E1.01703
G1 X101.094 Y102.704 E1.0203
G1 X101.361 Y102.274 E1.03713
G1 X101.414 Y102.201 E1.04014
G1 X101.776 Y101.777 E1.05868
G1 X101.811 Y101.745 E1.06026
G1 X102.201 Y101.414 E1.07727
G1 X102.275 Y101.36 E1.08032
G1 X102.706 Y101.095 E1.09714
G1 X102.79 Y101.052 E1.10028
G1 X103.266 Y100.855 E1.11742
G1 X103.354 Y100.826 E1.1205
G1 F1126.8 X103.594 Y100.74 E1.12953
G1 F1000 X103.835 Y100.654 E1.13974
G1 F958.1 X103.939 Y100.643 E1.1441
G1 F977.6 X104.194 Y100.628 E1.15453
G1 F997.9 X104.449 Y100.613 E1.16474
G1 F1008.4 X104.551 Y100.613 E1.16878
G1 F997.9 X104.806 Y100.628 E1.179
G1 F977.6 X105.061 Y100.643 E1.18943
G1 F958.1 X105.165 Y100.654 E1.19378
G1 F1000 X105.405 Y100.74 E1.20396
G1 F1126.8 X105.646 Y100.826 E1.21302
G1 F1200 X105.733 Y100.854 E1.21606
G1 X106.207 Y101.049 E1.23311
G1 X106.296 Y101.094 E1.23643
G1 X106.726 Y101.361 E1.25326
G1 X106.799 Y101.414 E1.25626
G1 X107.189 Y101.745 E1.27327
G1 X107.258 Y101.815 E1.27654
G1 X107.586 Y102.202 E1.29342
G1 X107.64 Y102.275 E1.29644
G1 X107.905 Y102.706 E1.31326
G1 X107.948 Y102.79 E1.3164
G1 X108.145 Y103.264 E1.33348
G1 X108.174 Y103.353 E1.33659
G1 X108.294 Y103.848 E1.35353
G1 X108.309 Y103.942 E1.3567
G1 X108.349 Y104.45 E1.37364
G1 X108.349 Y104.545 E1.3768
G1 X108.309 Y105.057 E1.39389
G1 X108.294 Y105.152 E1.39708
G1 X108.175 Y105.644 E1.41392
G1 X108.147 Y105.731 E1.41696
G1 X107.941 Y106.23 E1.43492
G1 X107.662 Y106.691 E1.45284
G1 X107.586 Y106.798 E1.4572
G1 X107.225 Y107.222 E1.47572
G1 X107.189 Y107.255 E1.47735
G1 X106.783 Y107.599 E1.49505
G1 X106.328 Y107.884 E1.5129
G1 X106.209 Y107.948 E1.5174
G1 X105.734 Y108.145 E1.5345
G1 X105.646 Y108.174 E1.53758
G1 X105.152 Y108.294 E1.55449
G1 F2700 E-3.44551
G0 F6000 X105.153 Y108.302
G0 X106.903 Y107.708
G0 X108.331 Y105.681
G0 X108.292 Y103.2
G0 X106.81 Y101.224
G0 X105.185 Y100.404
G0 X105.881 Y100.26
G0 X129.271 Y100.262
G0 X129.815 Y100.404
G0 X127.224 Y102.19
G0 X126.491 Y104.564
G0 X127.291 Y106.903
G0 X127.723 Y107.259
G0 X129.275 Y108.159
G1 F2700 E1.55449
G0 F6000 X129.433 Y107.78
;TYPE:WALL-OUTER
G1 F1200 X128.945 Y107.581 E1.57202
G1 X128.52 Y107.322 E1.58857
G1 X128.46 Y107.281 E1.59099
G1 X128.058 Y106.939 E1.60855
G1 X127.71 Y106.529 E1.62643
G1 X127.43 Y106.074 E1.6442
G1 X127.219 Y105.565 E1.66253
G1 X127.095 Y105.058 E1.67989
G1 X127.09 Y105.026 E1.68097
G1 X127.05 Y104.518 E1.69791
G1 X127.05 Y104.486 E1.69898
G1 X127.09 Y103.974 E1.71606
G1 X127.095 Y103.942 E1.71714
G1 X127.214 Y103.45 E1.73397
G1 X127.223 Y103.421 E1.73498
G1 X127.419 Y102.944 E1.75213
G1 X127.434 Y102.915 E1.75322
G1 X127.701 Y102.484 E1.77008
G1 X127.719 Y102.46 E1.77108
G1 X128.047 Y102.073 E1.78795
G1 X128.07 Y102.05 E1.78904
G1 X128.46 Y101.719 E1.80605
G1 X128.485 Y101.701 E1.80707
G1 X128.916 Y101.436 E1.8239
G1 X128.944 Y101.422 E1.82494
G1 X129.419 Y101.225 E1.84205
G1 X129.448 Y101.215 E1.84307
G1 X129.955 Y101.092 E1.86042
G1 X130.484 Y101.05 E1.87807
G1 X130.516 Y101.05 E1.87913
G1 X131.026 Y101.09 E1.89615
G1 X131.058 Y101.095 E1.89722
G1 X131.552 Y101.215 E1.91413
G1 X131.581 Y101.224 E1.91514
G1 X132.055 Y101.419 E1.93219
G1 X132.085 Y101.434 E1.93331
G1 X132.516 Y101.701 E1.95017
G1 X132.54 Y101.719 E1.95117
G1 X132.942 Y102.061 E1.96872
G1 X133.281 Y102.46 E1.98614
G1 X133.299 Y102.485 E1.98716
G1 X133.564 Y102.916 E2.00399
G1 X133.578 Y102.944 E2.00503
G1 X133.775 Y103.418 E2.0221
G1 X133.785 Y103.447 E2.02312
G1 X133.905 Y103.942 E2.04006
G1 X133.91 Y103.974 E2.04114
G1 X133.95 Y104.498 E2.05862
G1 X133.91 Y105.026 E2.07623
G1 X133.786 Y105.55 E2.09414
G1 X133.776 Y105.579 E2.09516
G1 X133.58 Y106.056 E2.11231
G1 X133.565 Y106.085 E2.1134
G1 X133.299 Y106.516 E2.13024
G1 X133.281 Y106.54 E2.13124
G1 X132.953 Y106.927 E2.14811
G1 X132.93 Y106.95 E2.1492
G1 X132.54 Y107.281 E2.16621
G1 X132.515 Y107.299 E2.16723
G1 X132.084 Y107.564 E2.18406
G1 X132.056 Y107.578 E2.1851
G1 X131.581 Y107.775 E2.20221
G1 X131.552 Y107.785 E2.20323
G1 X131.058 Y107.905 E2.22014
G1 X131.026 Y107.91 E2.22121
G1 X130.516 Y107.95 E2.23823
G1 X130.484 Y107.95 E2.23929
G1 X129.974 Y107.91 E2.25631
G1 X129.942 Y107.905 E2.25738
G1 X129.433 Y107.78 E2.27482
G0 F6000 X129.354 Y108.174
;TYPE:WALL-INNER
G1 F1200 X129.268 Y108.146 E2.27782
G1 X128.77 Y107.941 E2.29574
G1 X128.309 Y107.662 E2.31366
G1 X128.201 Y107.586 E2.31805
G1 X127.792 Y107.238 E2.33591
G1 X127.742 Y107.185 E2.33834
G1 X127.401 Y106.783 E2.35587
G1 X127.116 Y106.328 E2.37373
G1 X127.052 Y106.21 E2.37819
G1 X126.854 Y105.733 E2.39537
G1 X126.825 Y105.644 E2.39848
G1 X126.706 Y105.152 E2.41532
G1 X126.691 Y105.058 E2.41848
G1 X126.651 Y104.55 E2.43543
G1 X126.651 Y104.455 E2.43859
G1 X126.691 Y103.943 E2.45567
G1 X126.706 Y103.848 E2.45887
G1 X126.825 Y103.356 E2.47571
G1 X126.853 Y103.269 E2.47875
G1 X127.049 Y102.792 E2.4959
G1 X127.094 Y102.704 E2.49919
G1 X127.361 Y102.273 E2.51605
G1 X127.414 Y102.202 E2.519
G1 X127.742 Y101.815 E2.53587
G1 X127.811 Y101.745 E2.53914
G1 X128.201 Y101.414 E2.55615
G1 X128.275 Y101.36 E2.5592
G1 X128.706 Y101.095 E2.57603
G1 X128.79 Y101.052 E2.57917
G1 X129.266 Y100.855 E2.5963
G1 X129.354 Y100.826 E2.59938
G1 F1126.8 X129.594 Y100.74 E2.60841
G1 F1000 X129.835 Y100.654 E2.61863
G1 F958.1 X129.939 Y100.643 E2.62298
G1 F977.6 X130.194 Y100.628 E2.63341
G1 F997.9 X130.449 Y100.613 E2.64363
G1 F1008.4 X130.551 Y100.613 E2.64766
G1 F997.9 X130.806 Y100.628 E2.65788
G1 F977.6 X131.061 Y100.643 E2.66831
G1 F958.1 X131.165 Y100.654 E2.67267
G1 F1000 X131.405 Y100.74 E2.68284
G1 F1126.8 X131.646 Y100.826 E2.69191
G1 F1200 X131.733 Y100.854 E2.69495
G1 X132.207 Y101.049 E2.71199
G1 X132.296 Y101.094 E2.71531
G1 X132.726 Y101.361 E2.73214
G1 X132.799 Y101.414 E2.73514
G1 X133.189 Y101.745 E2.75216
G1 X133.258 Y101.815 E2.75543
G1 X133.586 Y102.202 E2.7723
G1 X133.64 Y102.275 E2.77532
G1 X133.904 Y102.706 E2.79213
G1 X133.948 Y102.79 E2.79528
G1 X134.145 Y103.264 E2.81236
G1 X134.173 Y103.353 E2.81546
G1 F1124.1 X134.259 Y103.594 E2.82455
G1 F997.9 X134.346 Y103.835 E2.83479
G1 F956.2 X134.357 Y103.939 E2.83916
G1 F977.6 X134.372 Y104.193 E2.84955
G1 F997.9 X134.387 Y104.447 E2.85972
G1 F1010.5 X134.387 Y104.498 E2.86174
G1 X134.387 Y104.548 E2.86371
G1 F995.9 X134.37 Y104.835 E2.87524
G1 F971.7 X134.353 Y105.122 E2.88704
G1 F975.6 X134.334 Y105.161 E2.88882
G1 F1036.7 X134.255 Y105.402 E2.89858
G1 F1140.1 X134.175 Y105.644 E2.90751
G1 F1200 X134.146 Y105.731 E2.91056
G1 X133.95 Y106.208 E2.92771
G1 X133.905 Y106.295 E2.93097
G1 X133.639 Y106.726 E2.94781
G1 X133.586 Y106.798 E2.95078
G1 X133.258 Y107.185 E2.96766
G1 X133.189 Y107.255 E2.97093
G1 X132.799 Y107.586 E2.98794
G1 X132.725 Y107.639 E2.99097
G1 X132.294 Y107.904 E3.0078
G1 X132.209 Y107.948 E3.01098
G1 X131.734 Y108.145 E3.02808
G1 X131.646 Y108.174 E3.03116
G1 X131.152 Y108.293 E3.04806
G1 X131.057 Y108.309 E3.05127
G1 X130.547 Y108.349 E3.06828
G1 X130.453 Y108.349 E3.07141
G1 X129.943 Y108.309 E3.08843
G1 X129.848 Y108.294 E3.09162
G1 X129.354 Y108.174 E3.10853
G1 F2700 E-1.89147
G0 F6000 X129.351 Y108.183
G0 X131.192 Y108.449
G0 X133.381 Y107.288
G0 X134.605 Y105.125
G0 X134.739 Y105.727
G0 X134.739 Y129.271
G0 X134.596 Y129.815
G0 X132.81 Y127.224
G0 X130.438 Y126.491
G0 X128.775 Y127.113
G0 X128.266 Y127.425
G0 X127.812 Y127.812
G0 X127.425 Y128.266
G0 X127.113 Y128.775
G0 X126.884 Y129.326
G0 X126.746 Y129.906
G0 X126.698 Y130.5
G0 X126.746 Y131.094
G0 X126.884 Y131.674
G0 X127.113 Y132.225
G0 X127.425 Y132.734
G0 X127.812 Y133.188
G0 X128.179 Y133.501
G0 X129.352 Y134.184
G1 F2700 E3.10853
G0 F6000 X129.448 Y133.785
;TYPE:WALL-OUTER
G1 F1200 X129.419 Y133.776 E3.10954
G1 X128.945 Y133.581 E3.12659
G1 X128.915 Y133.566 E3.12771
G1 X128.484 Y133.299 E3.14457
G1 X128.46 Y133.281 E3.14557
G1 X128.07 Y132.95 E3.16258
G1 X128.047 Y132.927 E3.16366
G1 X127.719 Y132.54 E3.18053
G1 X127.701 Y132.515 E3.18156
G1 X127.436 Y132.084 E3.19839
G1 X127.422 Y132.056 E3.19943
G1 X127.224 Y131.579 E3.21661
G1 X127.214 Y131.55 E3.21763
G1 X127.095 Y131.058 E3.23446
G1 X127.09 Y131.026 E3.23554
G1 X127.05 Y130.518 E3.25249
G1 X127.05 Y130.486 E3.25355
G1 X127.09 Y129.974 E3.27063
G1 X127.095 Y129.942 E3.27171
G1 X127.218 Y129.435 E3.28906
G1 X127.428 Y128.926 E3.30738
G1 X127.701 Y128.484 E3.32465
G1 X127.719 Y128.46 E3.32565
G1 X128.058 Y128.061 E3.34307
G1 X128.465 Y127.715 E3.36083
G1 X128.916 Y127.436 E3.37847
G1 X128.944 Y127.422 E3.37951
G1 X129.433 Y127.22 E3.39711
G1 X129.942 Y127.095 E3.41454
G1 X129.974 Y127.09 E3.41562
G1 X130.484 Y127.05 E3.43264
G1 X130.516 Y127.05 E3.4337
G1 X131.026 Y127.09 E3.45071
G1 X131.058 Y127.095 E3.45179
G1 X131.552 Y127.215 E3.4687
G1 X131.58 Y127.224 E3.46968
G1 X132.055 Y127.419 E3.48676
G1 X132.085 Y127.434 E3.48787
G1 X132.516 Y127.701 E3.50473
G1 X132.54 Y127.719 E3.50573
G1 X132.93 Y128.05 E3.52275
G1 X132.953 Y128.073 E3.52383
G1 X133.281 Y128.46 E3.5407
G1 X133.299 Y128.485 E3.54173
G1 X133.564 Y128.916 E3.55855
G1 X133.578 Y128.944 E3.55959
G1 X133.775 Y129.418 E3.57667
G1 X133.785 Y129.447 E3.57769
G1 X133.905 Y129.942 E3.59463
G1 X133.91 Y129.974 E3.59571
G1 X133.95 Y130.498 E3.61318
G1 X133.91 Y131.026 E3.6308
G1 X133.786 Y131.55 E3.64871
G1 X133.776 Y131.579 E3.64973
G1 X133.58 Y132.056 E3.66688
G1 X133.565 Y132.085 E3.66796
G1 X133.299 Y132.516 E3.68481
G1 X133.281 Y132.54 E3.68581
G1 X132.942 Y132.939 E3.70322
G1 X132.54 Y133.281 E3.72078
G1 X132.515 Y133.299 E3.7218
G1 X132.084 Y133.564 E3.73863
G1 X132.056 Y133.578 E3.73967
G1 X131.581 Y133.775 E3.75677
G1 X131.552 Y133.785 E3.75779
G1 X131.045 Y133.908 E3.77515
G1 X130.516 Y133.95 E3.7928
G1 X130.484 Y133.95 E3.79386
G1 X129.974 Y133.91 E3.81087
G1 X129.942 Y133.905 E3.81195
G1 X129.448 Y133.785 E3.82886
G0 F6000 X129.354 Y134.174
;TYPE:WALL-INNER
G1 F1200 X129.267 Y134.146 E3.8319
G1 X128.793 Y133.951 E3.84895
G1 X128.704 Y133.906 E3.85226
G1 X128.273 Y133.639 E3.86913
G1 X128.201 Y133.586 E3.8721
G1 X127.811 Y133.255 E3.88911
G1 X127.742 Y133.185 E3.89238
G1 X127.414 Y132.798 E3.90926
G1 X127.36 Y132.725 E3.91228
G1 X127.095 Y132.294 E3.9291
G1 X127.052 Y132.21 E3.93224
G1 X126.854 Y131.733 E3.94942
G1 X126.825 Y131.644 E3.95253
G1 X126.706 Y131.152 E3.96937
G1 X126.691 Y131.058 E3.97254
G1 X126.651 Y130.55 E3.98948
G1 X126.651 Y130.455 E3.99264
G1 X126.691 Y129.943 E4.00972
G1 X126.706 Y129.848 E4.01292
G1 X126.825 Y129.356 E4.02976
G1 X126.853 Y129.269 E4.0328
G1 X127.059 Y128.77 E4.05075
G1 X127.338 Y128.309 E4.06868
G1 X127.414 Y128.202 E4.07304
G1 X127.775 Y127.778 E4.09156
G1 X127.811 Y127.745 E4.09319
G1 X128.217 Y127.401 E4.11089
G1 X128.672 Y127.116 E4.12874
G1 X128.791 Y127.052 E4.13324
G1 X129.266 Y126.855 E4.15034
G1 X129.354 Y126.826 E4.15342
G1 X129.848 Y126.706 E4.17033
G1 X129.943 Y126.691 E4.17353
G1 X130.453 Y126.651 E4.19054
G1 X130.547 Y126.651 E4.19367
G1 X131.057 Y126.691 E4.21069
G1 X131.152 Y126.707 E4.21389
G1 X131.646 Y126.826 E4.23079
G1 X131.732 Y126.854 E4.2338
G1 X132.207 Y127.049 E4.25088
G1 X132.296 Y127.094 E4.25419
G1 X132.727 Y127.361 E4.27106
G1 X132.799 Y127.414 E4.27403
G1 X133.189 Y127.745 E4.29104
G1 X133.258 Y127.815 E4.29431
G1 X133.586 Y128.202 E4.31119
G1 X133.64 Y128.275 E4.31421
G1 X133.904 Y128.706 E4.33102
G1 X133.948 Y128.79 E4.33417
G1 X134.145 Y129.264 E4.35124
G1 X134.173 Y129.353 E4.35435
G1 F1124.1 X134.259 Y129.594 E4.36343
G1 F997.9 X134.346 Y129.835 E4.37368
G1 F956.2 X134.357 Y129.939 E4.37804
G1 F977.6 X134.372 Y130.193 E4.38843
G1 F997.9 X134.387 Y130.447 E4.39861
G1 F1008.4 X134.387 Y130.548 E4.40261
G1 F995.9 X134.37 Y130.835 E4.41413
G1 F971.7 X134.353 Y131.122 E4.42594
G1 F975.6 X134.334 Y131.161 E4.42771
G1 F1036.7 X134.255 Y131.402 E4.43748
G1 F1140.1 X134.175 Y131.644 E4.4464
G1 F1200 X134.146 Y131.731 E4.44945
G1 X133.95 Y132.208 E4.4666
G1 X133.905 Y132.295 E4.46986
G1 X133.639 Y132.726 E4.48671
G1 X133.586 Y132.798 E4.48968
G1 X133.258 Y133.185 E4.50655
G1 X133.189 Y133.255 E4.50982
G1 X132.799 Y133.586 E4.52683
