;FLAVOR:Marlin
;TIME:10109
;Filament used: 6.10602m
;Layer height: 0.2
;MINX:33.623
;MINY:33.501
;MINZ:0.2
;MAXX:201.378
;MAXY:201.5
;MAXZ:4.88
;Generated with Cura_SteamEngine 5.0.0
M140 S50
M105
M190 S50
M104 S200
M105
M109 S200
M82 ;absolute extrusion mode
; Ender 3 Custom Start G-code
G92 E0 ; Reset Extruder
G28 ; Home all axes
G1 Z2.0 F3000 ; Move Z Axis up little to prevent scratching of Heat Bed
G1 X0.1 Y20 Z0.3 F5000.0 ; Move to start position
G1 X0.1 Y200.0 Z0.3 F1500.0 E15 ; Draw the first line
G1 X0.4 Y200.0 Z0.3 F5000.0 ; Move to side a little
G1 X0.4 Y20 Z0.3 F1500.0 E30 ; Draw the second line
G92 E0 ; Reset Extruder
G1 Z2.0 F3000 ; Move Z Axis up little to prevent scratching of Heat Bed
G1 X5 Y20 Z0.3 F5000.0 ; Move over to prevent blob squish
G92 E0
G92 E0
G1 F2700 E-5
;LAYER_COUNT:27
;LAYER:0
M107
;MESH:Frame 4x4.stl
G0 F6000 X71.499 Y73.055 Z0.2
;TYPE:WALL-OUTER
G1 F2700 E0
G1 F1200 X37.483 Y73.055 E1.13138
G1 X37.119 Y73.007 E1.14359
G1 X36.743 Y72.86 E1.15702
G1 X36.418 Y72.618 E1.17049
G1 X36.167 Y72.303 E1.18389
G1 X36.007 Y71.931 E1.19736
G1 X35.947 Y71.528 E1.21091
G1 X35.946 Y37.474 E2.34355
G1 X35.993 Y37.119 E2.35546
G1 X36.14 Y36.743 E2.36889
G1 X36.382 Y36.418 E2.38237
G1 X36.697 Y36.167 E2.39576
G1 X37.069 Y36.006 E2.40924
G1 X37.475 Y35.947 E2.42289
G1 X71.499 Y35.945 E3.55453
G1 X71.881 Y35.993 E3.56734
G1 X72.257 Y36.14 E3.58076
G1 X72.582 Y36.382 E3.59424
G1 X72.833 Y36.697 E3.60764
G1 X72.994 Y37.069 E3.62112
G1 X73.053 Y37.472 E3.63467
G1 X73.055 Y37.501 E3.63563
G1 X73.054 Y71.526 E4.76731
G1 X73.007 Y71.881 E4.77922
G1 X72.86 Y72.257 E4.79265
G1 X72.618 Y72.582 E4.80612
G1 X72.303 Y72.833 E4.81952
G1 X71.931 Y72.994 E4.833
G1 X71.531 Y73.052 E4.84645
G1 X71.499 Y73.055 E4.84751
G0 F6000 X71.499 Y73.455
;TYPE:WALL-INNER
G1 F1200 X37.501 Y73.456 E5.97829
G1 X37.075 Y73.405 E5.99256
G1 X37.067 Y73.404 E5.99283
G1 X36.591 Y73.23 E6.00969
G1 X36.174 Y72.935 E6.02668
G1 X35.85 Y72.547 E6.04349
G1 X35.637 Y72.083 E6.06047
G1 X35.55 Y71.58 E6.07745
G1 X35.546 Y71.502 E6.08005
G1 X35.545 Y37.501 E7.21092
G1 X35.597 Y37.067 E7.22546
G1 X35.77 Y36.591 E7.24231
G1 X36.065 Y36.174 E7.2593
G1 X36.453 Y35.85 E7.27611
G1 X36.917 Y35.636 E7.2931
G1 X37.423 Y35.55 E7.31018
G1 X37.588 Y35.546 E7.31566
G1 X71.499 Y35.545 E8.44355
G1 X71.933 Y35.596 E8.45808
G1 X72.409 Y35.77 E8.47494
G1 X72.826 Y36.065 E8.49193
G1 X73.15 Y36.453 E8.50874
G1 X73.364 Y36.917 E8.52574
G1 X73.45 Y37.42 E8.54271
G1 X73.455 Y37.501 E8.54541
G1 X73.455 Y71.5 E9.67622
G1 X73.404 Y71.929 E9.69059
G1 X73.23 Y72.409 E9.70757
G1 X72.935 Y72.826 E9.72456
G1 X72.547 Y73.15 E9.74137
G1 X72.083 Y73.364 E9.75837
G1 X71.583 Y73.449 E9.77524
G1 X71.499 Y73.455 E9.77804
G1 F2700 E4.77804
G0 F6000 X71.498 Y73.465
G0 X71.498 Y77.365
G0 X72.454 Y77.847
G0 X72.85 Y78.15
G0 X73.153 Y78.546
G0 X73.343 Y79.006
G0 X73.403 Y79.465
G0 X73.404 Y113.536
G0 X73.343 Y113.994
G0 X73.153 Y114.454
G0 X72.85 Y114.85
G0 X72.454 Y115.153
G0 X71.499 Y115.465
G1 F2700 E9.77804
G0 F6000 X71.499 Y115.055
;TYPE:WALL-OUTER
G1 F1200 X37.483 Y115.055 E10.90941
G1 X37.119 Y115.007 E10.92162
G1 X36.743 Y114.86 E10.93505
G1 X36.418 Y114.618 E10.94853
G1 X36.167 Y114.303 E10.96193
G1 X36.007 Y113.931 E10.97539
G1 X35.947 Y113.528 E10.98895
G1 X35.945 Y79.501 E12.12069
G1 X35.993 Y79.119 E12.13349
G1 X36.14 Y78.743 E12.14692
G1 X36.382 Y78.418 E12.1604
G1 X36.697 Y78.167 E12.17379
G1 X37.069 Y78.006 E12.18728
G1 X37.469 Y77.948 E12.20072
G1 X37.501 Y77.946 E12.20179
G1 X71.526 Y77.946 E13.33346
G1 X71.881 Y77.993 E13.34537
G1 X72.257 Y78.14 E13.3588
G1 X72.582 Y78.382 E13.37228
G1 X72.833 Y78.697 E13.38567
G1 X72.994 Y79.069 E13.39916
G1 X73.053 Y79.472 E13.4127
G1 X73.055 Y79.501 E13.41367
G1 X73.054 Y113.526 E14.54535
G1 X73.007 Y113.881 E14.55726
G1 X72.86 Y114.257 E14.57068
G1 X72.618 Y114.582 E14.58416
G1 X72.303 Y114.833 E14.59756
G1 X71.931 Y114.994 E14.61104
G1 X71.531 Y115.052 E14.62448
G1 X71.499 Y115.055 E14.62555
G0 F6000 X71.499 Y115.455
;TYPE:WALL-INNER
G1 F1200 X37.501 Y115.456 E15.75633
G1 X37.075 Y115.405 E15.7706
G1 X36.591 Y115.23 E15.78772
G1 X36.174 Y114.935 E15.80471
G1 X35.85 Y114.547 E15.82152
G1 X35.637 Y114.083 E15.8385
G1 X35.55 Y113.58 E15.85548
G1 X35.546 Y113.502 E15.85808
G1 X35.545 Y79.501 E16.98895
G1 X35.596 Y79.067 E17.00349
G1 X35.77 Y78.591 E17.02034
G1 X36.065 Y78.174 E17.03733
G1 X36.453 Y77.85 E17.05415
G1 X36.917 Y77.636 E17.07114
G1 X37.417 Y77.551 E17.08801
G1 X37.501 Y77.546 E17.09081
G1 X71.499 Y77.545 E18.22159
G1 X71.925 Y77.595 E18.23585
G1 X72.409 Y77.77 E18.25297
G1 X72.826 Y78.065 E18.26996
G1 X73.15 Y78.453 E18.28677
G1 X73.364 Y78.917 E18.30377
G1 X73.45 Y79.42 E18.32074
G1 X73.455 Y79.501 E18.32344
G1 X73.455 Y113.5 E19.45425
G1 X73.404 Y113.929 E19.46862
G1 X73.23 Y114.409 E19.4856
G1 X72.935 Y114.826 E19.50259
G1 X72.547 Y115.15 E19.5194
G1 X72.083 Y115.364 E19.5364
G1 X71.583 Y115.449 E19.55327
G1 X71.499 Y115.455 E19.55607
G1 F2700 E14.55607
G0 F6000 X71.498 Y115.465
G0 X71.6 Y119.37
G0 X72.454 Y119.847
G0 X72.85 Y120.15
G0 X73.153 Y120.546
G0 X73.343 Y121.006
G0 X73.403 Y121.465
G0 X73.404 Y155.536
G0 X73.343 Y155.994
G0 X73.153 Y156.454
G0 X72.881 Y156.81
G0 X72.086 Y157.371
G1 F2700 E19.55607
G0 F6000 X71.931 Y156.994
;TYPE:WALL-OUTER
G1 F1200 X71.531 Y157.052 E19.56951
G1 X71.499 Y157.055 E19.57058
G1 X37.483 Y157.055 E20.70196
G1 X37.119 Y157.007 E20.71417
G1 X36.743 Y156.86 E20.7276
G1 X36.418 Y156.618 E20.74107
G1 X36.167 Y156.303 E20.75447
G1 X36.007 Y155.931 E20.76794
G1 X35.947 Y155.528 E20.78149
G1 X35.945 Y121.501 E21.91323
G1 X35.993 Y121.119 E21.92604
G1 X36.14 Y120.743 E21.93946
G1 X36.382 Y120.418 E21.95294
G1 X36.697 Y120.167 E21.96634
G1 X37.069 Y120.006 E21.97982
G1 X37.469 Y119.948 E21.99326
G1 X37.501 Y119.946 E21.99433
G1 X71.526 Y119.946 E23.12601
G1 X71.881 Y119.993 E23.13792
G1 X72.257 Y120.14 E23.15134
G1 X72.582 Y120.382 E23.16482
G1 X72.833 Y120.697 E23.17822
G1 X72.994 Y121.069 E23.1917
G1 X73.053 Y121.472 E23.20525
G1 X73.055 Y121.501 E23.20621
G1 X73.054 Y155.526 E24.33789
G1 X73.007 Y155.881 E24.3498
G1 X72.86 Y156.257 E24.36323
G1 X72.618 Y156.582 E24.3767
G1 X72.303 Y156.833 E24.3901
G1 X71.931 Y156.994 E24.40358
G0 F6000 X72.547 Y157.15
;TYPE:WALL-INNER
G1 F1200 X72.083 Y157.364 E24.42058
G1 X71.583 Y157.449 E24.43744
G1 X71.499 Y157.455 E24.44025
G1 X37.501 Y157.456 E25.57102
G1 X37.075 Y157.405 E25.58529
G1 X36.591 Y157.23 E25.60241
G1 X36.174 Y156.935 E25.6194
G1 X35.85 Y156.547 E25.63621
G1 X35.637 Y156.083 E25.65319
G1 X35.55 Y155.58 E25.67017
G1 X35.546 Y155.502 E25.67277
G1 X35.545 Y121.501 E26.80365
G1 X35.596 Y121.067 E26.81818
G1 X35.77 Y120.591 E26.83504
G1 X36.065 Y120.174 E26.85203
G1 X36.453 Y119.85 E26.86884
G1 X36.917 Y119.636 E26.88584
G1 X37.417 Y119.551 E26.9027
G1 X37.501 Y119.546 E26.9055
G1 X71.499 Y119.545 E28.03628
G1 X71.578 Y119.55 E28.03891
G1 X71.933 Y119.597 E28.05082
G1 X72.409 Y119.77 E28.06767
G1 X72.826 Y120.065 E28.08466
G1 X73.15 Y120.453 E28.10147
G1 X73.364 Y120.917 E28.11847
G1 X73.45 Y121.42 E28.13544
G1 X73.455 Y121.501 E28.13814
G1 X73.455 Y155.5 E29.26895
G1 X73.404 Y155.929 E29.28332
G1 X73.23 Y156.409 E29.3003
G1 X72.935 Y156.826 E29.31729
G1 X72.547 Y157.15 E29.3341
G1 F2700 E24.3341
G0 F6000 X72.55 Y157.156
G0 X73.292 Y156.658
G0 X77.708 Y156.656
G0 X78.546 Y157.153
G0 X79.006 Y157.343
G0 X79.265 Y157.376
G0 X113.499 Y157.465
G1 F2700 E29.3341
G0 F6000 X113.499 Y157.055
;TYPE:WALL-OUTER
G1 F1200 X79.483 Y157.055 E30.46548
G1 X79.119 Y157.007 E30.47769
G1 X78.743 Y156.86 E30.49112
G1 X78.418 Y156.618 E30.50459
G1 X78.167 Y156.303 E30.51799
G1 X78.006 Y155.931 E30.53147
G1 X77.947 Y155.529 E30.54499
G1 X77.945 Y121.501 E31.67676
G1 X77.992 Y121.124 E31.6894
G1 X78.14 Y120.743 E31.70299
G1 X78.382 Y120.418 E31.71647
G1 X78.697 Y120.167 E31.72987
G1 X79.069 Y120.006 E31.74335
G1 X79.469 Y119.948 E31.75679
G1 X79.501 Y119.946 E31.75786
G1 X113.526 Y119.946 E32.88953
G1 X113.881 Y119.993 E32.90144
G1 X114.257 Y120.14 E32.91487
G1 X114.582 Y120.382 E32.92835
G1 X114.833 Y120.697 E32.94175
G1 X114.994 Y121.069 E32.95523
G1 X115.053 Y121.472 E32.96877
G1 X115.055 Y121.501 E32.96974
G1 X115.054 Y155.526 E34.10142
G1 X115.007 Y155.881 E34.11333
G1 X114.86 Y156.257 E34.12676
G1 X114.618 Y156.582 E34.14023
G1 X114.303 Y156.833 E34.15363
G1 X113.931 Y156.994 E34.16711
G1 X113.531 Y157.052 E34.18055
G1 X113.499 Y157.055 E34.18162
G0 F6000 X113.499 Y157.455
;TYPE:WALL-INNER
G1 F1200 X79.501 Y157.456 E35.3124
G1 X79.075 Y157.405 E35.32667
G1 X78.591 Y157.23 E35.34379
G1 X78.174 Y156.935 E35.36078
G1 X77.85 Y156.547 E35.37759
G1 X77.636 Y156.083 E35.39459
G1 X77.55 Y155.581 E35.41153
G1 X77.546 Y155.5 E35.41422
G1 X77.545 Y121.501 E36.54503
G1 X77.596 Y121.072 E36.5594
G1 X77.77 Y120.591 E36.57642
G1 X78.065 Y120.174 E36.5934
G1 X78.453 Y119.85 E36.61022
G1 X78.917 Y119.636 E36.62721
G1 X79.417 Y119.551 E36.64408
G1 X79.501 Y119.546 E36.64688
G1 X113.499 Y119.545 E37.77766
G1 X113.925 Y119.595 E37.79192
G1 X114.409 Y119.77 E37.80904
G1 X114.826 Y120.065 E37.82603
G1 X115.15 Y120.453 E37.84284
G1 X115.364 Y120.917 E37.85984
G1 X115.45 Y121.42 E37.87681
G1 X115.455 Y121.501 E37.87951
G1 X115.455 Y155.5 E39.01032
G1 X115.404 Y155.929 E39.02469
G1 X115.403 Y155.933 E39.02483
G1 X115.23 Y156.409 E39.04167
G1 X114.935 Y156.826 E39.05866
G1 X114.547 Y157.15 E39.07548
G1 X114.083 Y157.364 E39.09247
G1 X113.583 Y157.449 E39.10934
G1 X113.499 Y157.455 E39.11214
G1 F2700 E34.11214
G0 F6000 X113.498 Y157.465
G0 X114.272 Y157.213
G0 X115.292 Y156.658
G0 X119.708 Y156.658
G0 X120.462 Y157.103
G0 X121.429 Y157.46
G1 F2700 E39.11214
G0 F6000 X121.483 Y157.055
;TYPE:WALL-OUTER
G1 F1200 X121.119 Y157.007 E39.12435
G1 X120.743 Y156.86 E39.13778
G1 X120.418 Y156.618 E39.15126
G1 X120.167 Y156.303 E39.16465
G1 X120.006 Y155.931 E39.17813
G1 X119.947 Y155.529 E39.19165
G1 X119.945 Y121.501 E40.32342
G1 X119.992 Y121.124 E40.33606
G1 X120.14 Y120.743 E40.34965
G1 X120.382 Y120.418 E40.36313
G1 X120.391 Y120.408 E40.36358
G1 X120.697 Y120.167 E40.37653
G1 X121.069 Y120.006 E40.39002
G1 X121.469 Y119.948 E40.40346
G1 X121.501 Y119.946 E40.40453
G1 X155.526 Y119.946 E41.5362
G1 X155.881 Y119.993 E41.54811
G1 X156.257 Y120.14 E41.56154
G1 X156.582 Y120.382 E41.57502
G1 X156.833 Y120.697 E41.58841
G1 X156.994 Y121.069 E41.60189
G1 X157.053 Y121.472 E41.61544
G1 X157.055 Y121.501 E41.61641
G1 X157.054 Y155.526 E42.74808
G1 X157.007 Y155.881 E42.75999
G1 X156.86 Y156.257 E42.77342
G1 X156.618 Y156.582 E42.7869
G1 X156.303 Y156.833 E42.8003
G1 X155.931 Y156.994 E42.81378
G1 X155.531 Y157.052 E42.82722
G1 X155.499 Y157.055 E42.82829
G1 X121.483 Y157.055 E43.95967
G0 F6000 X121.501 Y157.456
;TYPE:WALL-INNER
G1 F1200 X121.075 Y157.405 E43.97394
G1 X120.591 Y157.23 E43.99105
G1 X120.174 Y156.935 E44.00804
G1 X119.85 Y156.547 E44.02486
G1 X119.636 Y156.083 E44.04185
G1 X119.55 Y155.581 E44.05879
G1 X119.546 Y155.5 E44.06149
G1 X119.545 Y121.501 E45.1923
G1 X119.596 Y121.072 E45.20667
G1 X119.77 Y120.591 E45.22368
G1 X120.065 Y120.174 E45.24067
G1 X120.091 Y120.143 E45.24202
G1 X120.453 Y119.85 E45.25751
G1 X120.917 Y119.636 E45.2745
G1 X121.417 Y119.551 E45.29137
G1 X121.501 Y119.546 E45.29417
G1 X155.499 Y119.545 E46.42495
G1 X155.925 Y119.595 E46.43921
G1 X156.409 Y119.77 E46.45633
G1 X156.826 Y120.065 E46.47332
G1 X157.15 Y120.453 E46.49013
G1 X157.364 Y120.917 E46.50713
G1 X157.45 Y121.42 E46.5241
G1 X157.455 Y121.501 E46.5268
G1 X157.455 Y155.5 E47.65761
G1 X157.404 Y155.929 E47.67198
G1 X157.23 Y156.409 E47.68896
G1 X156.935 Y156.826 E47.70595
G1 X156.547 Y157.15 E47.72276
G1 X156.083 Y157.364 E47.73976
G1 X155.583 Y157.449 E47.75663
G1 X155.499 Y157.455 E47.75943
G1 X121.501 Y157.456 E48.89021
G1 F2700 E43.89021
G0 F6000 X121.5 Y157.465
G0 X155.535 Y157.403
G0 X155.794 Y157.37
G0 X157.077 Y156.936
G0 X161.708 Y156.658
G0 X162.17 Y156.941
G1 F2700 E48.89021
G0 F6000 X162.418 Y156.618
;TYPE:WALL-OUTER
G1 F1200 X162.167 Y156.303 E48.9036
G1 X162.006 Y155.931 E48.91708
G1 X161.947 Y155.529 E48.9306
G1 X161.945 Y121.501 E50.06237
G1 X161.992 Y121.124 E50.07501
G1 X162.14 Y120.743 E50.0886
G1 X162.382 Y120.418 E50.10208
G1 X162.697 Y120.167 E50.11548
G1 X163.069 Y120.006 E50.12896
G1 X163.469 Y119.948 E50.1424
G1 X163.501 Y119.946 E50.14347
G1 X197.526 Y119.946 E51.27515
G1 X197.881 Y119.993 E51.28706
G1 X198.257 Y120.14 E51.30048
G1 X198.582 Y120.382 E51.31396
G1 X198.833 Y120.697 E51.32736
G1 X198.993 Y121.069 E51.34083
G1 X199.053 Y121.472 E51.35438
G1 X199.055 Y155.499 E52.48612
G1 X199.007 Y155.881 E52.49892
G1 X198.86 Y156.257 E52.51235
G1 X198.618 Y156.582 E52.52583
G1 X198.303 Y156.833 E52.53923
G1 X197.931 Y156.993 E52.55269
G1 X197.531 Y157.052 E52.56614
G1 X197.499 Y157.055 E52.56721
G1 X163.483 Y157.055 E53.69859
G1 X163.119 Y157.007 E53.7108
G1 X162.743 Y156.86 E53.72423
G1 X162.418 Y156.618 E53.7377
G0 F6000 X162.591 Y157.23
;TYPE:WALL-INNER
G1 F1200 X162.174 Y156.935 E53.75469
G1 X161.85 Y156.547 E53.77151
G1 X161.636 Y156.083 E53.7885
G1 X161.55 Y155.581 E53.80544
G1 X161.546 Y155.5 E53.80814
G1 X161.545 Y121.501 E54.93895
G1 X161.596 Y121.072 E54.95332
G1 X161.77 Y120.591 E54.97033
G1 X162.065 Y120.174 E54.98732
G1 X162.453 Y119.85 E55.00413
G1 X162.917 Y119.636 E55.02113
G1 X163.417 Y119.551 E55.038
G1 X163.501 Y119.546 E55.0408
G1 X197.499 Y119.545 E56.17157
G1 X197.925 Y119.595 E56.18584
G1 X198.409 Y119.77 E56.20296
G1 X198.826 Y120.065 E56.21995
G1 X199.15 Y120.453 E56.23676
G1 X199.363 Y120.917 E56.25374
G1 X199.449 Y121.42 E56.27071
G1 X199.454 Y121.498 E56.27331
G1 X199.455 Y155.499 E57.40419
G1 X199.403 Y155.933 E57.41873
G1 X199.23 Y156.409 E57.43557
G1 X198.935 Y156.826 E57.45256
G1 X198.547 Y157.15 E57.46938
G1 X198.083 Y157.363 E57.48636
G1 X197.583 Y157.449 E57.50323
G1 X197.499 Y157.455 E57.50603
G1 X163.501 Y157.456 E58.63681
G1 X163.075 Y157.405 E58.65108
G1 X162.591 Y157.23 E58.6682
G1 F2700 E53.6682
G0 F6000 X162.588 Y157.236
G0 X163.397 Y157.63
G0 X163.394 Y161.373
G0 X162.546 Y161.847
G0 X162.15 Y162.15
G0 X161.847 Y162.546
G0 X161.657 Y163.006
G0 X161.624 Y163.265
G0 X161.629 Y198.086
G1 F2700 E58.6682
G0 F6000 X162.006 Y197.931
;TYPE:WALL-OUTER
G1 F1200 X161.947 Y197.529 E58.68171
G1 X161.945 Y163.501 E59.81349
G1 X161.992 Y163.124 E59.82612
G1 X162.14 Y162.743 E59.83972
G1 X162.382 Y162.418 E59.8532
G1 X162.697 Y162.167 E59.86659
G1 X163.069 Y162.006 E59.88007
G1 X163.469 Y161.948 E59.89352
G1 X163.501 Y161.946 E59.89458
G1 X197.526 Y161.946 E61.02626
G1 X197.881 Y161.993 E61.03817
G1 X198.257 Y162.14 E61.0516
G1 X198.582 Y162.382 E61.06507
G1 X198.833 Y162.697 E61.07847
G1 X198.993 Y163.069 E61.09194
G1 X199.053 Y163.472 E61.10549
G1 X199.056 Y197.499 E62.23723
G1 X199.007 Y197.881 E62.25004
G1 X198.86 Y198.257 E62.26347
G1 X198.618 Y198.582 E62.27695
G1 X198.303 Y198.834 E62.29036
G1 X197.93 Y198.993 E62.30385
G1 X197.525 Y199.053 E62.31747
G1 X163.501 Y199.055 E63.44911
G1 X163.119 Y199.007 E63.46192
G1 X162.743 Y198.86 E63.47534
G1 X162.418 Y198.618 E63.48882
G1 X162.167 Y198.303 E63.50222
G1 X162.006 Y197.931 E63.5157
G0 F6000 X161.85 Y198.547
;TYPE:WALL-INNER
G1 F1200 X161.636 Y198.083 E63.53269
G1 X161.55 Y197.581 E63.54963
G1 X161.546 Y197.5 E63.55233
G1 X161.545 Y163.501 E64.68314
G1 X161.596 Y163.072 E64.69751
G1 X161.77 Y162.591 E64.71452
G1 X162.065 Y162.174 E64.73151
G1 X162.453 Y161.85 E64.74833
G1 X162.917 Y161.636 E64.76532
G1 X163.417 Y161.551 E64.78219
G1 X163.501 Y161.546 E64.78499
G1 X197.499 Y161.545 E65.91577
G1 X197.925 Y161.595 E65.93003
G1 X198.409 Y161.77 E65.94715
G1 X198.826 Y162.065 E65.96414
G1 X199.15 Y162.453 E65.98095
G1 X199.363 Y162.917 E65.99793
G1 X199.449 Y163.42 E66.01491
G1 X199.454 Y163.498 E66.01751
G1 X199.454 Y197.412 E67.14549
G1 X199.456 Y197.499 E67.14838
G1 X199.404 Y197.933 E67.16292
G1 X199.23 Y198.411 E67.17984
G1 X198.935 Y198.826 E67.19678
G1 X198.547 Y199.152 E67.21363
G1 X198.082 Y199.363 E67.23062
G1 X197.577 Y199.449 E67.24765
G1 X197.412 Y199.454 E67.25314
G1 X163.501 Y199.455 E68.38103
G1 X163.067 Y199.404 E68.39556
G1 X162.591 Y199.23 E68.41242
