;FLAVOR:Marlin
;TIME:12976
;Filament used: 8.22996m
;Layer height: 0.2
;MINX:75.949
;MINY:96.95
;MINZ:0.2
;MAXX:159.051
;MAXY:138.05
;MAXZ:24.72
;Generated with Cura_SteamEngine 5.0.0
M140 S50
M105
M190 S50
M104 S200
M105
M109 S200
M82 ;absolute extrusion mode
; Ender 3 Custom Start G-code
G92 E0 ; Reset Extruder
G28 ; Home all axes
G1 Z2.0 F3000 ; Move Z Axis up little to prevent scratching of Heat Bed
G1 X0.1 Y20 Z0.3 F5000.0 ; Move to start position
G1 X0.1 Y200.0 Z0.3 F1500.0 E15 ; Draw the first line
G1 X0.4 Y200.0 Z0.3 F5000.0 ; Move to side a little
G1 X0.4 Y20 Z0.3 F1500.0 E30 ; Draw the second line
G92 E0 ; Reset Extruder
G1 Z2.0 F3000 ; Move Z Axis up little to prevent scratching of Heat Bed
G1 X5 Y20 Z0.3 F5000.0 ; Move over to prevent blob squish
G92 E0
G92 E0
G1 F2700 E-5
;LAYER_COUNT:143
;LAYER:0
M107
;MESH:Divider Box 2x1x3 3-Compartment.stl
G0 F6000 X84.014 Y107.912 Z0.2
;TYPE:WALL-OUTER
G1 F2700 E0
G1 F1200 X83.976 Y107.917 E0.00127
G1 X83.355 Y107.946 E0.02195
G1 X83.316 Y107.944 E0.02325
G1 X82.704 Y107.857 E0.04381
G1 X82.667 Y107.847 E0.04509
G1 X82.082 Y107.645 E0.06567
G1 X82.047 Y107.629 E0.06695
G1 X81.515 Y107.321 E0.0874
G1 X81.485 Y107.299 E0.08863
G1 X81.017 Y106.896 E0.10917
G1 X80.99 Y106.868 E0.11047
G1 X80.61 Y106.382 E0.13099
G1 X80.59 Y106.35 E0.13224
G1 X80.305 Y105.798 E0.1529
G1 X80.291 Y105.763 E0.15416
G1 X80.111 Y105.151 E0.17538
G1 X80.05 Y104.522 E0.19639
G1 X80.05 Y104.483 E0.19769
G1 X80.109 Y103.864 E0.21837
G1 F1203 X80.117 Y103.826 E0.21966
G1 X80.291 Y103.237 E0.24004
G1 F1200 X80.305 Y103.202 E0.24129
G1 X80.59 Y102.649 E0.26198
G1 X80.61 Y102.617 E0.26324
G1 X80.991 Y102.131 E0.28378
G1 X81.018 Y102.103 E0.28507
G1 X81.486 Y101.7 E0.30561
G1 X81.516 Y101.678 E0.30685
G1 X82.047 Y101.371 E0.32725
G1 X82.082 Y101.356 E0.32852
G1 F1203 X82.667 Y101.153 E0.34906
G1 X82.704 Y101.143 E0.35033
G1 F1200 X83.316 Y101.056 E0.37089
G1 X83.355 Y101.054 E0.37219
G1 X83.976 Y101.083 E0.39287
G1 X84.014 Y101.088 E0.39414
G1 X84.61 Y101.234 E0.41455
G1 X84.645 Y101.246 E0.41578
G1 X85.207 Y101.5 E0.4363
G1 X85.241 Y101.52 E0.43761
G1 X85.746 Y101.883 E0.45829
G1 X85.774 Y101.907 E0.45952
G1 X86.199 Y102.35 E0.47994
G1 X86.223 Y102.381 E0.48124
G1 X86.559 Y102.905 E0.50195
G1 X86.576 Y102.938 E0.50318
G1 X86.804 Y103.507 E0.52357
G1 X86.815 Y103.544 E0.52485
G1 X86.932 Y104.155 E0.54554
G1 X86.935 Y104.193 E0.54681
G1 X86.935 Y104.807 E0.56723
G1 X86.932 Y104.845 E0.5685
G1 X86.81 Y105.476 E0.58988
G1 X86.571 Y106.074 E0.6113
G1 X86.219 Y106.625 E0.63304
G1 X86.199 Y106.65 E0.63411
G1 X85.761 Y107.105 E0.65511
G1 X85.235 Y107.484 E0.67668
G1 X85.127 Y107.536 E0.68066
G1 X84.629 Y107.76 E0.69882
G1 X84.014 Y107.912 E0.7199
G0 F6000 X84.109 Y108.3
;TYPE:WALL-INNER
G1 F1200 X83.994 Y108.317 E0.72376
G1 X83.373 Y108.346 E0.74444
G1 X83.259 Y108.34 E0.74824
G1 X82.647 Y108.253 E0.7688
G1 X82.536 Y108.225 E0.7726
G1 X81.951 Y108.023 E0.79319
G1 X81.847 Y107.975 E0.797
G1 X81.315 Y107.667 E0.81744
G1 X81.224 Y107.602 E0.82116
G1 X80.756 Y107.199 E0.8417
G1 X80.675 Y107.114 E0.84561
G1 X80.295 Y106.628 E0.86613
G1 X80.234 Y106.534 E0.86986
G1 X79.949 Y105.982 E0.89052
G1 X79.907 Y105.876 E0.89431
G1 F1142.9 X79.8 Y105.587 E0.90507
G1 F1041.2 X79.693 Y105.298 E0.91689
G1 F971.7 X79.658 Y105.179 E0.92198
G1 F963.9 X79.636 Y104.872 E0.93473
G1 F991.7 X79.614 Y104.564 E0.94715
G1 F1008.4 X79.614 Y104.441 E0.95202
G1 F993.8 X79.636 Y104.131 E0.9645
G1 F961.9 X79.658 Y103.821 E0.9774
G1 F993.8 X79.705 Y103.704 E0.98246
G1 F1081.1 X79.806 Y103.414 E0.9938
G1 F1159.4 X79.907 Y103.123 E1.0044
G1 F1200 X79.949 Y103.018 E1.00816
G1 X80.234 Y102.466 E1.02883
G1 X80.295 Y102.37 E1.03261
G1 X80.676 Y101.884 E1.05315
G1 X80.757 Y101.8 E1.05703
G1 X81.225 Y101.397 E1.07757
G1 X81.316 Y101.332 E1.08129
G1 X81.847 Y101.025 E1.10169
G1 X81.951 Y100.978 E1.10549
G1 F1151.1 X82.237 Y100.86 E1.11621
G1 F1064.3 X82.524 Y100.742 E1.12785
G1 F965.8 X82.638 Y100.685 E1.13312
G1 F932 X82.945 Y100.652 E1.14634
G1 F973.6 X83.253 Y100.619 E1.15904
G1 F1002.1 X83.375 Y100.616 E1.1639
G1 F1000 X83.686 Y100.627 E1.17632
G1 F985.6 X83.997 Y100.638 E1.18892
G1 F965.8 X84.122 Y100.649 E1.19411
G1 F1004.2 X84.413 Y100.747 E1.20631
G1 F1126.8 X84.705 Y100.846 E1.21723
G1 F1200 X84.81 Y100.881 E1.22091
G1 X85.372 Y101.136 E1.24144
G1 X85.475 Y101.195 E1.24539
G1 X85.98 Y101.558 E1.26607
G1 X86.062 Y101.63 E1.2697
G1 X86.488 Y102.073 E1.29014
G1 X86.56 Y102.165 E1.29403
G1 X86.896 Y102.689 E1.31473
G1 X86.948 Y102.789 E1.31848
G1 X87.176 Y103.358 E1.33887
G1 X87.208 Y103.469 E1.34271
G1 X87.325 Y104.08 E1.3634
G1 X87.335 Y104.193 E1.36718
G1 X87.335 Y104.807 E1.3876
G1 X87.325 Y104.92 E1.39137
G1 X87.208 Y105.531 E1.41206
G1 X87.175 Y105.642 E1.41591
G1 X86.931 Y106.248 E1.43764
G1 X86.896 Y106.311 E1.44004
G1 X86.548 Y106.853 E1.46146
G1 X86.487 Y106.927 E1.46465
G1 X86.043 Y107.389 E1.48596
G1 X85.98 Y107.442 E1.4887
G1 X85.453 Y107.819 E1.51025
G1 X85.292 Y107.9 E1.51625
G1 X84.81 Y108.118 E1.53384
G1 X84.705 Y108.154 E1.53753
G1 X84.109 Y108.3 E1.55794
G1 F2700 E-3.44206
G0 F6000 X84.11 Y108.309
G0 X86.177 Y107.483
G0 X87.365 Y105.561
G0 X87.324 Y103.297
G0 X86.072 Y101.427
G0 X84.142 Y100.4
G0 X84.792 Y100.261
G0 X107.805 Y100.261
G0 X108.587 Y100.376
G0 X106.17 Y102.27
G0 X105.492 Y104.578
G0 X106.168 Y106.727
G0 X107.923 Y108.043
G0 X109.373 Y108.356
G1 F2700 E1.55794
G0 F6000 X109.355 Y107.946
;TYPE:WALL-OUTER
G1 F1200 X109.316 Y107.944 E1.55924
G1 X108.684 Y107.853 E1.58048
G1 X108.062 Y107.636 E1.60239
G1 X107.522 Y107.326 E1.6231
G1 X107.485 Y107.299 E1.62462
G1 X107 Y106.88 E1.64594
G1 X106.602 Y106.371 E1.66743
G1 X106.303 Y105.795 E1.68902
G1 X106.291 Y105.763 E1.69015
G1 X106.112 Y105.156 E1.7112
G1 X106.05 Y104.522 E1.73239
G1 X106.05 Y104.482 E1.73372
G1 X106.109 Y103.864 E1.75437
G1 X106.117 Y103.826 E1.75566
G1 X106.291 Y103.237 E1.77609
G1 X106.305 Y103.202 E1.77734
G1 X106.59 Y102.649 E1.79803
G1 X106.61 Y102.617 E1.79929
G1 X106.991 Y102.131 E1.81983
G1 X107.018 Y102.103 E1.82112
G1 X107.486 Y101.7 E1.84166
G1 X107.516 Y101.678 E1.8429
G1 X108.047 Y101.371 E1.8633
G1 X108.082 Y101.356 E1.86457
G1 F1203 X108.667 Y101.153 E1.88511
G1 X108.704 Y101.143 E1.88638
G1 F1200 X109.316 Y101.055 E1.90695
G1 X109.355 Y101.054 E1.90824
G1 X109.976 Y101.083 E1.92892
G1 X110.014 Y101.088 E1.9302
G1 X110.61 Y101.234 E1.9506
G1 X110.645 Y101.246 E1.95184
G1 X111.207 Y101.5 E1.97235
G1 X111.241 Y101.52 E1.97366
G1 X111.746 Y101.883 E1.99435
G1 X112.199 Y102.35 E2.01598
G1 X112.223 Y102.381 E2.01729
G1 X112.559 Y102.904 E2.03796
G1 X112.576 Y102.938 E2.03923
G1 X112.804 Y103.507 E2.05962
G1 X112.815 Y103.544 E2.0609
G1 X112.932 Y104.155 E2.08159
G1 X112.936 Y104.193 E2.08286
G1 X112.936 Y104.807 E2.10328
G1 X112.933 Y104.842 E2.10445
G1 X112.815 Y105.456 E2.12525
G1 X112.804 Y105.493 E2.12653
G1 X112.576 Y106.062 E2.14692
G1 X112.559 Y106.096 E2.14818
G1 X112.223 Y106.619 E2.16886
G1 X112.199 Y106.65 E2.17016
G1 X111.774 Y107.093 E2.19058
G1 X111.746 Y107.117 E2.19181
G1 X111.242 Y107.479 E2.21245
G1 X111.208 Y107.499 E2.21376
G1 X110.645 Y107.754 E2.23432
G1 X110.61 Y107.766 E2.23555
G1 X110.014 Y107.912 E2.25596
G1 X109.976 Y107.917 E2.25723
G1 X109.355 Y107.946 E2.27791
G0 F6000 X109.374 Y108.346
;TYPE:WALL-INNER
G1 F1200 X109.259 Y108.34 E2.28174
G1 X108.647 Y108.252 E2.3023
G1 X108.536 Y108.225 E2.3061
G1 X107.951 Y108.022 E2.3267
G1 X107.847 Y107.975 E2.33049
G1 X107.315 Y107.667 E2.35094
G1 X107.224 Y107.602 E2.35466
G1 X106.725 Y107.171 E2.37659
G1 X106.675 Y107.114 E2.37911
G1 X106.27 Y106.595 E2.40101
G1 X106.234 Y106.534 E2.40336
G1 X105.944 Y105.972 E2.4244
G1 X105.907 Y105.876 E2.42782
G1 X105.733 Y105.286 E2.44828
G1 X105.711 Y105.174 E2.45207
G1 X105.652 Y104.56 E2.47259
G1 X105.652 Y104.444 E2.47645
G1 X105.711 Y103.826 E2.4971
G1 X105.733 Y103.712 E2.50096
G1 X105.907 Y103.123 E2.52138
G1 X105.949 Y103.019 E2.52512
G1 X106.234 Y102.466 E2.54581
G1 X106.295 Y102.37 E2.54959
G1 X106.676 Y101.884 E2.57013
G1 X106.757 Y101.8 E2.57401
G1 X107.225 Y101.397 E2.59455
G1 X107.316 Y101.332 E2.59827
G1 X107.847 Y101.025 E2.61867
G1 X107.951 Y100.978 E2.62247
G1 F1151.1 X108.237 Y100.86 E2.6332
G1 F1064.3 X108.524 Y100.742 E2.64483
G1 F967.7 X108.638 Y100.686 E2.65007
G1 F933.9 X108.946 Y100.653 E2.66331
G1 F975.6 X109.254 Y100.619 E2.67599
G1 F1002.1 X109.375 Y100.616 E2.68081
G1 F1000 X109.686 Y100.627 E2.69323
G1 F985.6 X109.997 Y100.638 E2.70583
G1 F965.8 X110.122 Y100.649 E2.71102
G1 F1004.2 X110.413 Y100.747 E2.72322
G1 F1126.8 X110.705 Y100.846 E2.73414
G1 F1200 X110.81 Y100.881 E2.73782
G1 X111.371 Y101.136 E2.75832
G1 X111.475 Y101.195 E2.7623
G1 X111.98 Y101.558 E2.78298
G1 X112.199 Y101.772 E2.79317
G1 X112.488 Y102.073 E2.80704
G1 X112.56 Y102.165 E2.81093
G1 X112.896 Y102.688 E2.8316
G1 X112.948 Y102.789 E2.83538
G1 X113.175 Y103.358 E2.85576
G1 X113.208 Y103.468 E2.85958
G1 F1137.4 X113.289 Y103.769 E2.87052
G1 F1027.8 X113.37 Y104.071 E2.88266
G1 F987.7 X113.377 Y104.193 E2.8876
G1 F995.9 X113.377 Y104.807 E2.9122
G1 F989.7 X113.372 Y104.918 E2.91668
G1 F987.7 X113.367 Y104.929 E2.91717
G1 F1036.7 X113.288 Y105.23 E2.92915
G1 F1140.1 X113.208 Y105.532 E2.94009
G1 F1200 X113.175 Y105.642 E2.94391
G1 X112.948 Y106.211 E2.96429
G1 X112.896 Y106.312 E2.96806
G1 X112.56 Y106.835 E2.98874
G1 X112.488 Y106.927 E2.99263
G1 X112.063 Y107.37 E3.01304
G1 X111.98 Y107.442 E3.0167
G1 X111.476 Y107.804 E3.03734
G1 X111.373 Y107.863 E3.04128
G1 X110.81 Y108.118 E3.06184
G1 X110.705 Y108.154 E3.06553
G1 X110.109 Y108.3 E3.08594
G1 X109.994 Y108.317 E3.08981
G1 X109.374 Y108.346 E3.11045
G1 F2700 E-1.88955
G0 F6000 X109.373 Y108.356
G0 X111.572 Y107.934
G0 X113.097 Y106.269
G0 X113.615 Y104.921
G0 X113.739 Y105.595
G0 X113.739 Y129.405
G0 X113.613 Y130.065
G0 X113.148 Y131.571
G0 X112.879 Y132.242
G0 X112.489 Y132.85
G0 X111.989 Y133.373
G0 X111.401 Y133.793
G0 X110.096 Y134.312
G1 F2700 E3.11045
G0 F6000 X110.001 Y133.915
;TYPE:WALL-OUTER
G1 F1200 X109.345 Y133.946 E3.1323
G1 X109.316 Y133.944 E3.13326
G1 X108.704 Y133.857 E3.15382
G1 F1203 X108.667 Y133.847 E3.15509
G1 X108.082 Y133.644 E3.17564
G1 F1200 X108.047 Y133.629 E3.1769
G1 X107.515 Y133.321 E3.19735
G1 X107.485 Y133.299 E3.19859
G1 X107.017 Y132.896 E3.21913
G1 X106.99 Y132.868 E3.22042
G1 X106.61 Y132.382 E3.24094
G1 X106.59 Y132.35 E3.2422
G1 X106.305 Y131.798 E3.26286
G1 X106.291 Y131.763 E3.26411
G1 X106.117 Y131.173 E3.28457
G1 X106.109 Y131.136 E3.28583
G1 X106.05 Y130.522 E3.30635
G1 X106.05 Y130.483 E3.30764
G1 X106.112 Y129.843 E3.32903
G1 X106.297 Y129.22 E3.35065
G1 X106.596 Y128.637 E3.37244
G1 X106.991 Y128.131 E3.39379
G1 X107.018 Y128.103 E3.39508
G1 X107.5 Y127.689 E3.41622
G1 X107.516 Y127.678 E3.41686
G1 X108.054 Y127.368 E3.43751
G1 X108.082 Y127.356 E3.43853
G1 X108.684 Y127.147 E3.45972
G1 X109.316 Y127.056 E3.48096
G1 X109.355 Y127.054 E3.48226
G1 X109.976 Y127.083 E3.50293
G1 X110.014 Y127.088 E3.50421
G1 X110.61 Y127.234 E3.52462
G1 X110.645 Y127.246 E3.52585
G1 X111.207 Y127.5 E3.54636
G1 X111.241 Y127.52 E3.54767
G1 X111.746 Y127.883 E3.56836
G1 X111.774 Y127.907 E3.56959
G1 X112.199 Y128.35 E3.59
G1 X112.223 Y128.381 E3.59131
G1 X112.559 Y128.905 E3.61201
G1 X112.576 Y128.938 E3.61325
G1 X112.804 Y129.507 E3.63363
G1 X112.815 Y129.544 E3.63492
G1 X112.932 Y130.155 E3.65561
G1 X112.936 Y130.193 E3.65688
G1 X112.936 Y130.807 E3.6773
G1 X112.933 Y130.842 E3.67847
G1 X112.815 Y131.456 E3.69927
G1 X112.804 Y131.493 E3.70055
G1 X112.576 Y132.062 E3.72094
G1 X112.559 Y132.095 E3.72217
G1 X112.223 Y132.619 E3.74287
G1 X111.91 Y132.952 E3.75808
G1 X111.746 Y133.117 E3.76581
G1 X111.242 Y133.479 E3.78645
G1 X111.208 Y133.499 E3.78776
G1 X110.645 Y133.754 E3.80832
G1 X110.61 Y133.766 E3.80955
G1 X110.001 Y133.915 E3.8304
G0 F6000 X109.345 Y134.385
;TYPE:WALL-INNER
G1 F1000 X109.253 Y134.381 E3.83408
G1 F973.6 X108.946 Y134.348 E3.84674
G1 F932 X108.638 Y134.315 E3.86
G1 F965.8 X108.524 Y134.258 E3.86527
G1 F1064.3 X108.238 Y134.14 E3.87687
G1 F1151.1 X107.951 Y134.022 E3.88763
G1 F1200 X107.847 Y133.975 E3.89143
G1 X107.315 Y133.667 E3.91187
G1 X107.224 Y133.602 E3.91559
G1 X106.756 Y133.199 E3.93613
G1 X106.675 Y133.114 E3.94004
G1 X106.295 Y132.628 E3.96056
G1 X106.234 Y132.534 E3.96428
G1 X105.949 Y131.982 E3.98495
G1 X105.907 Y131.876 E3.98874
G1 X105.733 Y131.286 E4.0092
G1 X105.711 Y131.174 E4.01299
G1 X105.652 Y130.56 E4.03351
G1 X105.652 Y130.445 E4.03734
G1 X105.711 Y129.826 E4.05802
G1 X105.733 Y129.712 E4.06188
G1 X105.907 Y129.124 E4.08227
G1 X105.949 Y129.019 E4.08603
G1 X106.254 Y128.43 E4.1081
G1 X106.295 Y128.37 E4.11051
G1 X106.676 Y127.884 E4.13105
G1 X106.757 Y127.8 E4.13493
G1 X107.244 Y127.381 E4.1563
G1 X107.316 Y127.332 E4.1592
G1 X107.868 Y127.014 E4.18039
G1 X107.951 Y126.978 E4.18339
G1 X108.536 Y126.775 E4.20399
G1 X108.647 Y126.748 E4.20779
G1 X109.259 Y126.66 E4.22835
G1 X109.374 Y126.654 E4.23218
G1 X109.994 Y126.683 E4.25283
G1 X110.109 Y126.7 E4.25669
G1 X110.705 Y126.846 E4.2771
G1 X110.81 Y126.882 E4.2808
G1 X111.372 Y127.136 E4.30131
G1 X111.475 Y127.195 E4.30526
G1 X111.98 Y127.558 E4.32594
G1 X112.062 Y127.63 E4.32957
G1 X112.487 Y128.073 E4.34999
G1 X112.56 Y128.165 E4.3539
G1 X112.895 Y128.689 E4.37458
G1 X112.948 Y128.789 E4.37835
G1 X113.175 Y129.358 E4.39872
G1 X113.208 Y129.468 E4.40254
G1 F1137.4 X113.289 Y129.769 E4.41348
G1 F1027.8 X113.37 Y130.071 E4.42562
G1 F987.7 X113.377 Y130.193 E4.43056
G1 F995.9 X113.377 Y130.807 E4.45517
G1 F989.7 X113.372 Y130.918 E4.45965
G1 F987.7 X113.367 Y130.928 E4.4601
G1 F1036.7 X113.288 Y131.23 E4.47212
G1 F1140.1 X113.208 Y131.532 E4.48305
G1 F1200 X113.175 Y131.642 E4.48687
G1 X112.948 Y132.211 E4.50725
G1 X112.895 Y132.311 E4.51101
G1 X112.56 Y132.835 E4.5317
G1 X112.198 Y133.228 E4.54947
G1 X111.98 Y133.442 E4.55963
G1 X111.476 Y133.804 E4.58027
G1 X111.373 Y133.863 E4.58422
G1 X110.81 Y134.118 E4.60477
G1 X110.705 Y134.154 E4.60847
G1 F1126.8 X110.414 Y134.252 E4.61934
G1 F1004.2 X110.122 Y134.351 E4.6316
G1 F965.8 X109.997 Y134.362 E4.63678
G1 F989.7 X109.345 Y134.385 E4.66309
G1 F2700 E-0.33691
G0 F6000 X110.142 Y134.6
G0 X110.668 Y134.712
G0 X113.458 Y134.892
G1 F2700 E4.66309
G0 F6000 X113.485 Y135.301
;TYPE:WALL-OUTER
G1 F1200 X113.802 Y135.232 E4.67388
G1 X114.066 Y135.063 E4.68431
G1 X114.231 Y134.804 E4.69452
G1 X114.291 Y134.543 E4.70343
G1 X114.3 Y134.43 E4.7072
G1 X114.3 Y100.571 E5.83336
G1 X114.271 Y100.29 E5.84275
G1 X114.133 Y100.024 E5.85272
G1 X113.897 Y99.807 E5.86338
G1 X113.608 Y99.717 E5.87345
G1 X113.43 Y99.701 E5.87939
G1 X84.181 Y99.7 E6.85222
G1 X82.601 Y99.7 E6.90477
G1 X79.515 Y99.7 E7.00741
G1 X79.198 Y99.768 E7.01819
G1 X78.933 Y99.937 E7.02865
G1 X78.77 Y100.194 E7.03877
G1 X78.708 Y100.459 E7.04782
G1 X78.701 Y100.571 E7.05155
G1 X78.7 Y106.188 E7.23838
G1 X78.7 Y134.487 E8.17961
G1 X78.768 Y134.803 E8.19036
G1 X78.934 Y135.063 E8.20062
G1 X79.196 Y135.231 E8.21097
G1 X79.457 Y135.291 E8.21987
G1 X79.57 Y135.299 E8.22364
G1 F1203 X82.422 Y135.301 E8.31826
G1 X82.601 Y135.299 E8.3242
G1 F1200 X88.311 Y135.3 E8.51412
G1 X113.485 Y135.301 E9.35141
G0 F6000 X113.459 Y134.901
;TYPE:WALL-INNER
G1 F1200 X113.696 Y134.843 E9.35952
G1 X113.842 Y134.696 E9.36641
G1 X113.9 Y134.43 E9.37547
G1 X113.9 Y131.597 E9.4697
G1 F1137.4 X113.878 Y131.279 E9.48088
G1 F1030 X113.856 Y130.96 E9.49327
G1 F989.7 X113.859 Y130.807 E9.49944
G1 F995.9 X113.859 Y130.193 E9.52405
G1 F987.7 X113.855 Y130.026 E9.5308
G1 F1027.8 X113.877 Y129.715 E9.54291
G1 F1137.4 X113.9 Y129.403 E9.55389
G1 F1200 X113.9 Y105.597 E10.34568
G1 F1137.4 X113.878 Y105.279 E10.35686
G1 F1030 X113.856 Y104.96 E10.36925
G1 F989.7 X113.859 Y104.807 E10.37542
G1 F995.9 X113.859 Y104.193 E10.40003
G1 F987.7 X113.855 Y104.025 E10.40682
G1 F1027.8 X113.877 Y103.714 E10.41893
G1 F1137.4 X113.9 Y103.403 E10.42987
G1 F1200 X113.9 Y100.571 E10.52406
G1 X113.843 Y100.304 E10.53314
G1 X113.696 Y100.157 E10.54006
G1 X113.43 Y100.101 E10.5491
G1 X110.795 Y100.101 E10.63674
G1 F1126.8 X110.488 Y100.126 E10.64765
G1 F1004.2 X110.181 Y100.152 E10.6599
