;FLAVOR:Marlin
;TIME:3868
;Filament used: 2.40031m
;Layer height: 0.2
;MINX:53.835
;MINY:75.623
;MINZ:0.2
;MAXX:180.377
;MAXY:160.165
;MAXZ:4.88
;Generated with Cura_SteamEngine 5.0.0
M140 S50
M105
M190 S50
M104 S200
M105
M109 S200
M82 ;absolute extrusion mode
; Ender 3 Custom Start G-code
G92 E0 ; Reset Extruder
G28 ; Home all axes
G1 Z2.0 F3000 ; Move Z Axis up little to prevent scratching of Heat Bed
G1 X0.1 Y20 Z0.3 F5000.0 ; Move to start position
G1 X0.1 Y200.0 Z0.3 F1500.0 E15 ; Draw the first line
G1 X0.4 Y200.0 Z0.3 F5000.0 ; Move to side a little
G1 X0.4 Y20 Z0.3 F1500.0 E30 ; Draw the second line
G92 E0 ; Reset Extruder
G1 Z2.0 F3000 ; Move Z Axis up little to prevent scratching of Heat Bed
G1 X5 Y20 Z0.3 F5000.0 ; Move over to prevent blob squish
G92 E0
G92 E0
G1 F2700 E-5
;LAYER_COUNT:27
;LAYER:0
M107
;MESH:Frame 2x3.stl
G0 F6000 X92.499 Y115.055 Z0.2
;TYPE:WALL-OUTER
G1 F2700 E0
G1 F1200 X58.483 Y115.055 E1.13138
G1 X58.119 Y115.007 E1.14359
G1 X57.743 Y114.86 E1.15702
G1 X57.418 Y114.618 E1.17049
G1 X57.167 Y114.303 E1.18389
G1 X57.006 Y113.931 E1.19737
G1 X56.947 Y113.528 E1.21092
G1 X56.946 Y79.474 E2.34356
G1 X56.993 Y79.119 E2.35547
G1 X57.14 Y78.743 E2.3689
G1 X57.382 Y78.418 E2.38237
G1 X57.697 Y78.167 E2.39577
G1 X57.725 Y78.149 E2.39688
G1 X58.069 Y78.006 E2.40927
G1 X58.475 Y77.947 E2.42291
G1 X92.499 Y77.945 E3.55456
G1 X92.881 Y77.993 E3.56736
G1 X93.257 Y78.14 E3.58079
G1 X93.582 Y78.382 E3.59427
G1 X93.833 Y78.697 E3.60766
G1 X93.994 Y79.069 E3.62114
G1 X94.053 Y79.472 E3.63469
G1 X94.055 Y79.501 E3.63566
G1 X94.054 Y113.526 E4.76733
G1 X94.007 Y113.881 E4.77924
G1 X93.86 Y114.257 E4.79267
G1 X93.618 Y114.582 E4.80615
G1 X93.303 Y114.833 E4.81954
G1 X92.931 Y114.994 E4.83303
G1 X92.531 Y115.052 E4.84647
G1 X92.499 Y115.055 E4.84754
G0 F6000 X92.499 Y115.455
;TYPE:WALL-INNER
G1 F1200 X58.501 Y115.456 E5.97832
G1 X58.075 Y115.405 E5.99259
G1 X57.591 Y115.23 E6.0097
G1 X57.174 Y114.935 E6.02669
G1 X56.85 Y114.547 E6.04351
G1 X56.636 Y114.083 E6.0605
G1 X56.55 Y113.58 E6.07747
G1 X56.546 Y113.502 E6.08007
G1 X56.547 Y79.441 E7.21295
G1 X56.596 Y79.067 E7.22549
G1 X56.702 Y78.755 E7.23645
G1 X56.85 Y78.454 E7.24761
G1 X57.076 Y78.16 E7.25994
G1 X57.453 Y77.85 E7.27617
G1 X57.536 Y77.796 E7.27947
G1 X57.917 Y77.636 E7.29321
G1 X58.423 Y77.55 E7.31028
G1 X58.566 Y77.546 E7.31504
G1 X92.499 Y77.545 E8.44366
G1 X92.933 Y77.596 E8.45819
G1 X93.409 Y77.77 E8.47505
G1 X93.826 Y78.065 E8.49204
G1 X94.15 Y78.453 E8.50885
G1 X94.364 Y78.917 E8.52584
G1 X94.45 Y79.42 E8.54282
G1 X94.455 Y79.501 E8.54552
G1 X94.455 Y113.5 E9.67633
G1 X94.404 Y113.929 E9.6907
G1 X94.23 Y114.409 E9.70768
G1 X93.935 Y114.826 E9.72467
G1 X93.547 Y115.15 E9.74148
G1 X93.083 Y115.364 E9.75848
G1 X92.583 Y115.449 E9.77534
G1 X92.499 Y115.455 E9.77814
G1 F2700 E4.77814
G0 F6000 X92.498 Y115.465
G0 X93.936 Y115.078
G0 X99.064 Y115.078
G0 X100.429 Y115.46
G1 F2700 E9.77814
G0 F6000 X100.483 Y115.055
;TYPE:WALL-OUTER
G1 F1200 X100.119 Y115.007 E9.79036
G1 X99.743 Y114.86 E9.80378
G1 X99.418 Y114.618 E9.81726
G1 X99.167 Y114.303 E9.83066
G1 X99.006 Y113.931 E9.84414
G1 X98.947 Y113.529 E9.85765
G1 X98.945 Y79.501 E10.98943
G1 X98.992 Y79.124 E11.00206
G1 X99.14 Y78.743 E11.01566
G1 X99.382 Y78.418 E11.02914
G1 X99.697 Y78.167 E11.04253
G1 X100.069 Y78.006 E11.05601
G1 X100.475 Y77.947 E11.06966
G1 X134.499 Y77.945 E12.2013
G1 X134.881 Y77.993 E12.21411
G1 X135.257 Y78.14 E12.22754
G1 X135.582 Y78.382 E12.24101
G1 X135.833 Y78.697 E12.25441
G1 X135.993 Y79.069 E12.26788
G1 X136.053 Y79.472 E12.28143
G1 X136.055 Y79.501 E12.2824
G1 X136.054 Y113.526 E13.41407
G1 X136.007 Y113.881 E13.42598
G1 X135.86 Y114.257 E13.43941
G1 X135.618 Y114.582 E13.45289
G1 X135.303 Y114.833 E13.46628
G1 X134.931 Y114.994 E13.47977
G1 X134.531 Y115.052 E13.49321
G1 X134.525 Y115.053 E13.49341
G1 X134.499 Y115.055 E13.49428
G1 X100.483 Y115.055 E14.62566
G0 F6000 X100.501 Y115.456
;TYPE:WALL-INNER
G1 F1200 X100.075 Y115.405 E14.63993
G1 X99.591 Y115.23 E14.65704
G1 X99.174 Y114.935 E14.67403
G1 X98.85 Y114.547 E14.69084
G1 X98.636 Y114.083 E14.70784
G1 X98.55 Y113.581 E14.72478
G1 X98.546 Y113.5 E14.72748
G1 X98.545 Y79.501 E15.85829
G1 X98.596 Y79.072 E15.87266
G1 X98.77 Y78.591 E15.88967
G1 X99.065 Y78.174 E15.90666
G1 X99.453 Y77.85 E15.92347
G1 X99.917 Y77.636 E15.94047
G1 X100.423 Y77.55 E15.95754
G1 X100.501 Y77.546 E15.96014
G1 X134.499 Y77.545 E17.09091
G1 X134.933 Y77.596 E17.10545
G1 X135.409 Y77.77 E17.1223
G1 X135.826 Y78.065 E17.13929
G1 X136.15 Y78.453 E17.15611
G1 X136.363 Y78.917 E17.17309
G1 X136.45 Y79.42 E17.19007
G1 X136.455 Y79.501 E17.19276
G1 X136.455 Y113.5 E18.32358
G1 X136.404 Y113.929 E18.33795
G1 X136.23 Y114.409 E18.35493
G1 X135.935 Y114.826 E18.37192
G1 X135.547 Y115.15 E18.38873
G1 X135.083 Y115.364 E18.40572
G1 X134.583 Y115.449 E18.42259
G1 X134.577 Y115.45 E18.42279
G1 X134.499 Y115.455 E18.42539
G1 X100.501 Y115.456 E19.55617
G1 F2700 E14.55617
G0 F6000 X100.5 Y115.465
G0 X100.502 Y119.366
G0 X99.546 Y119.847
G0 X99.15 Y120.15
G0 X98.847 Y120.546
G0 X98.657 Y121.006
G0 X98.596 Y121.464
G0 X98.597 Y155.535
G0 X98.657 Y155.994
G0 X98.847 Y156.454
G0 X99.15 Y156.85
G0 X99.546 Y157.153
G0 X100.501 Y157.465
G1 F2700 E19.55617
G0 F6000 X100.501 Y157.055
;TYPE:WALL-OUTER
G1 F1200 X100.119 Y157.007 E19.56898
G1 X99.743 Y156.86 E19.5824
G1 X99.418 Y156.618 E19.59588
G1 X99.167 Y156.303 E19.60928
G1 X99.007 Y155.931 E19.62275
G1 X98.947 Y155.529 E19.63627
G1 X98.945 Y121.501 E20.76804
G1 X98.992 Y121.124 E20.78068
G1 X99.14 Y120.743 E20.79427
G1 X99.153 Y120.718 E20.79521
G1 X99.382 Y120.418 E20.80776
G1 X99.697 Y120.167 E20.82116
G1 X100.069 Y120.006 E20.83464
G1 X100.469 Y119.948 E20.84808
G1 X100.501 Y119.946 E20.84915
G1 X134.526 Y119.946 E21.98083
G1 X134.881 Y119.993 E21.99274
G1 X135.257 Y120.14 E22.00616
G1 X135.582 Y120.382 E22.01964
G1 X135.833 Y120.697 E22.03304
G1 X135.994 Y121.069 E22.04652
G1 X136.053 Y121.472 E22.06007
G1 X136.055 Y121.501 E22.06103
G1 X136.054 Y155.526 E23.19271
G1 X136.004 Y155.897 E23.20516
G1 X135.86 Y156.257 E23.21806
G1 X135.618 Y156.582 E23.23153
G1 X135.303 Y156.833 E23.24493
G1 X134.931 Y156.994 E23.25841
G1 X134.525 Y157.053 E23.27206
G1 X100.501 Y157.055 E24.4037
G0 F6000 X100.501 Y157.455
;TYPE:WALL-INNER
G1 F1200 X100.067 Y157.404 E24.41823
G1 X99.591 Y157.23 E24.43509
G1 X99.174 Y156.935 E24.45208
G1 X98.85 Y156.547 E24.46889
G1 X98.637 Y156.083 E24.48587
G1 X98.55 Y155.581 E24.50282
G1 X98.546 Y155.5 E24.50552
G1 X98.545 Y121.501 E25.63633
G1 X98.596 Y121.072 E25.6507
G1 X98.77 Y120.591 E25.66771
G1 X98.809 Y120.514 E25.67058
G1 X99.065 Y120.174 E25.68474
G1 X99.453 Y119.85 E25.70155
G1 X99.917 Y119.636 E25.71854
G1 X100.417 Y119.551 E25.73541
G1 X100.501 Y119.546 E25.73821
G1 X134.499 Y119.545 E26.86899
G1 X134.925 Y119.595 E26.88325
G1 X135.409 Y119.77 E26.90037
G1 X135.826 Y120.065 E26.91736
G1 X136.15 Y120.453 E26.93417
G1 X136.364 Y120.917 E26.95117
G1 X136.45 Y121.42 E26.96814
G1 X136.455 Y121.501 E26.97084
G1 X136.455 Y155.5 E28.10165
G1 X136.404 Y155.929 E28.11602
G1 X136.23 Y156.409 E28.133
G1 X135.935 Y156.826 E28.14999
G1 X135.547 Y157.15 E28.1668
G1 X135.083 Y157.364 E28.1838
G1 X134.577 Y157.45 E28.20087
G1 X134.499 Y157.454 E28.20347
G1 X100.501 Y157.455 E29.33425
G1 F2700 E24.33425
G0 F6000 X100.5 Y157.465
G0 X99.728 Y157.213
G0 X98.708 Y156.658
G0 X94.292 Y156.658
G0 X93.538 Y157.103
G0 X92.577 Y157.459
G1 F2700 E29.33425
G0 F6000 X92.525 Y157.053
;TYPE:WALL-OUTER
G1 F1200 X58.474 Y157.054 E30.46679
G1 X58.119 Y157.007 E30.4787
G1 X57.743 Y156.86 E30.49213
G1 X57.418 Y156.618 E30.5056
G1 X57.167 Y156.303 E30.519
G1 X57.006 Y155.931 E30.53248
G1 X56.947 Y155.528 E30.54603
G1 X56.945 Y121.501 E31.67777
G1 X56.993 Y121.119 E31.69058
G1 X57.14 Y120.743 E31.704
G1 X57.382 Y120.418 E31.71748
G1 X57.697 Y120.167 E31.73088
G1 X58.069 Y120.007 E31.74434
G1 X58.469 Y119.948 E31.75779
G1 X58.501 Y119.946 E31.75886
G1 X92.526 Y119.946 E32.89054
G1 X92.881 Y119.993 E32.90245
G1 X93.257 Y120.14 E32.91587
G1 X93.582 Y120.382 E32.92935
G1 X93.833 Y120.697 E32.94275
G1 X93.994 Y121.069 E32.95623
G1 X94.053 Y121.472 E32.96978
G1 X94.055 Y121.501 E32.97074
G1 X94.054 Y155.526 E34.10242
G1 X94.004 Y155.897 E34.11487
G1 X94 Y155.913 E34.11542
G1 X93.86 Y156.257 E34.12777
G1 X93.618 Y156.582 E34.14125
G1 X93.303 Y156.833 E34.15464
G1 X92.931 Y156.994 E34.16813
G1 X92.525 Y157.053 E34.18177
G0 F6000 X92.499 Y157.454
;TYPE:WALL-INNER
G1 F1200 X58.441 Y157.453 E35.31454
G1 X58.067 Y157.404 E35.32709
G1 X57.752 Y157.296 E35.33817
G1 X57.454 Y157.15 E35.3492
G1 X57.16 Y156.924 E35.36154
G1 X56.85 Y156.547 E35.37777
G1 X56.703 Y156.245 E35.38894
G1 X56.596 Y155.932 E35.39994
G1 X56.548 Y155.562 E35.41235
G1 X56.546 Y155.436 E35.41654
G1 X56.545 Y121.501 E36.54523
G1 X56.596 Y121.067 E36.55976
G1 X56.77 Y120.591 E36.57662
G1 X57.065 Y120.174 E36.59361
G1 X57.453 Y119.85 E36.61042
G1 X57.917 Y119.637 E36.6274
G1 X58.417 Y119.551 E36.64428
G1 X58.501 Y119.546 E36.64707
G1 X92.499 Y119.545 E37.77785
G1 X92.925 Y119.595 E37.79212
G1 X93.409 Y119.77 E37.80924
G1 X93.826 Y120.065 E37.82623
G1 X94.15 Y120.453 E37.84304
G1 X94.364 Y120.917 E37.86003
G1 X94.45 Y121.42 E37.87701
G1 X94.455 Y121.501 E37.8797
G1 X94.455 Y155.5 E39.01052
G1 X94.404 Y155.929 E39.02489
G1 X94.382 Y156.031 E39.02836
G1 X94.23 Y156.409 E39.04191
G1 X93.935 Y156.826 E39.0589
G1 X93.547 Y157.15 E39.07571
G1 X93.083 Y157.364 E39.0927
G1 X92.577 Y157.45 E39.10977
G1 X92.499 Y157.454 E39.11237
G1 F2700 E34.11237
G0 F6000 X92.498 Y157.465
G0 X58.533 Y157.635
G0 X58.442 Y158.709
G1 F2700 E39.11237
G0 F6000 X58.478 Y159.297
;TYPE:WALL-OUTER
G1 F1200 X176.489 Y159.3 E43.03743
G1 X177.238 Y159.225 E43.06247
G1 X177.955 Y159.008 E43.08739
G1 X178.61 Y158.657 E43.1121
G1 X179.187 Y158.184 E43.13692
G1 X179.657 Y157.61 E43.16159
G1 X180.01 Y156.952 E43.18643
G1 X180.225 Y156.238 E43.21123
G1 X180.291 Y155.577 E43.23332
G1 X180.297 Y155.467 E43.23699
G1 X180.299 Y79.509 E45.76336
G1 X180.225 Y78.762 E45.78833
G1 X180.008 Y78.045 E45.81324
G1 X179.657 Y77.39 E45.83796
G1 X179.184 Y76.813 E45.86277
G1 X178.61 Y76.343 E45.88745
G1 X177.955 Y75.992 E45.91217
G1 X177.238 Y75.775 E45.93708
G1 X176.522 Y75.704 E45.96101
G1 X142.501 Y75.703 E47.09256
G1 X58.511 Y75.7 E49.88607
G1 X57.762 Y75.775 E49.91111
G1 X57.044 Y75.992 E49.93606
G1 X56.39 Y76.343 E49.96075
G1 X55.813 Y76.816 E49.98556
G1 X55.343 Y77.39 E50.01024
G1 X54.99 Y78.048 E50.03507
G1 X54.775 Y78.762 E50.05987
G1 X54.703 Y79.478 E50.08381
G1 X54.7 Y155.491 E52.61201
G1 X54.775 Y156.238 E52.63698
G1 X54.99 Y156.952 E52.66178
G1 X55.343 Y157.61 E52.68662
G1 X55.813 Y158.184 E52.71129
G1 X56.39 Y158.657 E52.73611
G1 X57.045 Y159.008 E52.76082
G1 X57.762 Y159.225 E52.78574
G1 X58.218 Y159.27 E52.80098
G1 X58.478 Y159.297 E52.80967
G0 F6000 X58.533 Y158.897
;TYPE:WALL-INNER
G1 F1200 X176.469 Y158.9 E56.73224
G1 X177.16 Y158.831 E56.75534
G1 X177.801 Y158.637 E56.77761
G1 X178.387 Y158.323 E56.79972
G1 X178.903 Y157.9 E56.82192
G1 X179.323 Y157.387 E56.84397
G1 X179.457 Y157.134 E56.85349
G1 X179.638 Y156.798 E56.86618
G1 X179.831 Y156.16 E56.88835
G1 X179.889 Y155.569 E56.9081
G1 X179.897 Y155.467 E56.91151
G1 X179.899 Y79.529 E59.43721
G1 X179.831 Y78.841 E59.46021
G1 X179.637 Y78.199 E59.48252
G1 X179.323 Y77.613 E59.50463
G1 X178.9 Y77.097 E59.52682
G1 X178.387 Y76.677 E59.54887
G1 X177.801 Y76.364 E59.57097
G1 X177.159 Y76.169 E59.59328
G1 X176.502 Y76.104 E59.61524
G1 X142.501 Y76.103 E60.74612
G1 X58.531 Y76.1 E63.53897
G1 X57.84 Y76.169 E63.56207
G1 X57.558 Y76.253 E63.57186
G1 X57.198 Y76.363 E63.58438
G1 X56.613 Y76.678 E63.60648
G1 X56.097 Y77.1 E63.62865
G1 X55.677 Y77.613 E63.6507
G1 X55.362 Y78.202 E63.67291
G1 X55.169 Y78.84 E63.69508
G1 X55.128 Y79.258 E63.70905
G1 X55.103 Y79.533 E63.71824
G1 X55.1 Y155.471 E66.24395
G1 X55.169 Y156.16 E66.26698
G1 X55.252 Y156.44 E66.27669
G1 X55.362 Y156.798 E66.28915
G1 X55.644 Y157.325 E66.30903
G1 X55.945 Y157.714 E66.32539
G1 X56.152 Y157.945 E66.3357
G1 X56.613 Y158.323 E66.35553
G1 X57.199 Y158.637 E66.37764
G1 X57.439 Y158.709 E66.38598
G1 X57.765 Y158.808 E66.39731
G1 X58.258 Y158.872 E66.41384
G1 X58.533 Y158.897 E66.42303
G1 F2700 E61.42303
G0 F6000 X58.533 Y158.888
G0 X141.171 Y159.07
G0 X141.807 Y157.513
G0 X141.17 Y156.941
G1 F2700 E66.42303
G0 F6000 X141.418 Y156.618
;TYPE:WALL-OUTER
G1 F1200 X141.167 Y156.303 E66.43642
G1 X141.006 Y155.931 E66.44991
G1 X140.947 Y155.529 E66.46342
G1 X140.945 Y121.501 E67.5952
G1 X140.992 Y121.124 E67.60783
G1 X141.14 Y120.743 E67.62143
G1 X141.382 Y120.418 E67.6349
G1 X141.697 Y120.167 E67.6483
G1 X142.069 Y120.006 E67.66178
G1 X142.469 Y119.948 E67.67522
G1 X142.501 Y119.946 E67.67629
G1 X176.526 Y119.946 E68.80797
G1 X176.881 Y119.993 E68.81988
G1 X177.257 Y120.14 E68.83331
G1 X177.582 Y120.382 E68.84678
G1 X177.833 Y120.697 E68.86018
G1 X177.994 Y121.069 E68.87366
G1 X178.053 Y121.472 E68.88721
G1 X178.055 Y155.519 E70.01961
G1 X178.007 Y155.881 E70.03176
G1 X177.86 Y156.257 E70.04519
G1 X177.618 Y156.582 E70.05867
G1 X177.302 Y156.833 E70.07209
G1 X176.931 Y156.994 E70.08554
G1 X176.525 Y157.053 E70.09918
G1 X142.501 Y157.055 E71.23083
G1 X142.119 Y157.007 E71.24363
G1 X141.743 Y156.86 E71.25706
G1 X141.418 Y156.618 E71.27054
G0 F6000 X141.591 Y157.23
;TYPE:WALL-INNER
G1 F1200 X141.174 Y156.935 E71.28753
G1 X140.85 Y156.547 E71.30434
G1 X140.636 Y156.083 E71.32133
G1 X140.55 Y155.581 E71.33827
G1 X140.546 Y155.5 E71.34097
G1 X140.545 Y121.501 E72.47178
G1 X140.596 Y121.072 E72.48615
G1 X140.77 Y120.591 E72.50316
G1 X141.065 Y120.174 E72.52015
G1 X141.453 Y119.85 E72.53697
G1 X141.917 Y119.636 E72.55396
G1 X142.417 Y119.551 E72.57083
G1 X142.501 Y119.546 E72.57363
G1 X176.499 Y119.545 E73.70441
G1 X176.925 Y119.595 E73.71867
G1 X176.933 Y119.597 E73.71895
G1 X177.409 Y119.77 E73.73579
G1 X177.826 Y120.065 E73.75278
G1 X178.15 Y120.453 E73.76959
G1 X178.364 Y120.917 E73.78659
G1 X178.45 Y121.42 E73.80356
G1 X178.454 Y121.498 E73.80616
G1 X178.454 Y155.559 E74.93903
G1 X178.404 Y155.933 E74.95158
G1 X178.298 Y156.245 E74.96254
G1 X178.15 Y156.547 E74.97373
G1 X177.925 Y156.841 E74.98604
G1 X177.546 Y157.15 E75.00231
G1 X177.248 Y157.295 E75.01333
G1 X176.932 Y157.404 E75.02445
G1 X176.559 Y157.452 E75.03695
G1 X176.434 Y157.454 E75.04111
G1 X142.501 Y157.455 E76.16973
G1 X142.067 Y157.404 E76.18426
G1 X141.591 Y157.23 E76.20112
G1 F2700 E71.20112
G0 F6000 X141.588 Y157.236
G0 X141.15 Y156.85
G0 X140.847 Y156.454
G0 X140.657 Y155.994
G0 X140.597 Y155.535
G0 X140.596 Y121.464
G0 X140.657 Y121.006
G0 X140.847 Y120.546
G0 X141.15 Y120.15
G0 X142.394 Y119.373
G0 X142.501 Y115.637
G1 F2700 E76.20112
G0 F6000 X142.483 Y115.055
;TYPE:WALL-OUTER
G1 F1200 X142.119 Y115.007 E76.21333
G1 X141.743 Y114.86 E76.22676
G1 X141.418 Y114.618 E76.24024
G1 X141.167 Y114.303 E76.25363
G1 X141.006 Y113.931 E76.26711
G1 X140.947 Y113.529 E76.28063
G1 X140.945 Y79.501 E77.4124
G1 X140.992 Y79.124 E77.42504
G1 X141.14 Y78.743 E77.43863
G1 X141.382 Y78.418 E77.45211
G1 X141.697 Y78.167 E77.46551
G1 X142.069 Y78.006 E77.47899
G1 X142.475 Y77.947 E77.49263
G1 X176.519 Y77.945 E78.62494
G1 X176.881 Y77.993 E78.63709
G1 X177.257 Y78.14 E78.65052
G1 X177.582 Y78.382 E78.66399
G1 X177.833 Y78.698 E78.67742
G1 X177.851 Y78.725 E78.67849
G1 X177.994 Y79.069 E78.69089
G1 X178.053 Y79.472 E78.70443
G1 X178.055 Y79.564 E78.70749
G1 X178.056 Y113.499 E79.83618
G1 X178.006 Y113.889 E79.84925
G1 X177.86 Y114.257 E79.86242
G1 X177.618 Y114.582 E79.8759
G1 X177.303 Y114.833 E79.88929
G1 X176.931 Y114.993 E79.90276
G1 X176.531 Y115.052 E79.91621
G1 X176.499 Y115.055 E79.91728
G1 X142.483 Y115.055 E81.04866
G0 F6000 X141.591 Y115.23
;TYPE:WALL-INNER
G1 F1200 X141.174 Y114.935 E81.06565
G1 X140.85 Y114.547 E81.08246
G1 X140.636 Y114.083 E81.09945
G1 X140.55 Y113.581 E81.11639
G1 X140.546 Y113.5 E81.11909
G1 X140.545 Y79.501 E82.2499
G1 X140.596 Y79.072 E82.26427
G1 X140.77 Y78.591 E82.28128
G1 X141.065 Y78.174 E82.29827
G1 X141.453 Y77.85 E82.31509
G1 X141.917 Y77.636 E82.33208
G1 X142.423 Y77.55 E82.34915
