;FLAVOR:Marlin
;TIME:8769
;Filament used: 6.01373m
;Layer height: 0.2
;MINX:67.499
;MINY:88.499
;MINZ:0.2
;MAXX:167.501
;MAXY:146.501
;MAXZ:17.72
;Generated with Cura_SteamEngine 5.0.0
M140 S50
M105
M190 S50
M104 S200
M105
M109 S200
M82 ;absolute extrusion mode
; Ender 3 Custom Start G-code
G92 E0 ; Reset Extruder
G28 ; Home all axes
G1 Z2.0 F3000 ; Move Z Axis up little to prevent scratching of Heat Bed
G1 X0.1 Y20 Z0.3 F5000.0 ; Move to start position
G1 X0.1 Y200.0 Z0.3 F1500.0 E15 ; Draw the first line
G1 X0.4 Y200.0 Z0.3 F5000.0 ; Move to side a little
G1 X0.4 Y20 Z0.3 F1500.0 E30 ; Draw the second line
G92 E0 ; Reset Extruder
G1 Z2.0 F3000 ; Move Z Axis up little to prevent scratching of Heat Bed
G1 X5 Y20 Z0.3 F5000.0 ; Move over to prevent blob squish
G92 E0
G92 E0
G1 F2700 E-5
;LAYER_COUNT:95
;LAYER:0
M107
G0 F6000 X71.972 Y91.18 Z0.2
G0 X67.501 Y101.023
;TYPE:SKIRT
G1 F2700 E0
G1 F1200 X67.509 Y100.476 E0.0182
G1 X67.567 Y99.497 E0.05081
G1 X67.607 Y99.113 E0.06366
G1 X67.744 Y98.186 E0.09482
G1 X67.959 Y97.273 E0.12602
G1 X68.299 Y96.258 E0.16162
G1 X68.391 Y96.022 E0.17005
G1 X68.769 Y95.163 E0.20126
G1 X69.218 Y94.34 E0.23244
G1 X69.799 Y93.472 E0.26718
G1 X69.953 Y93.264 E0.27579
G1 X70.543 Y92.534 E0.30701
G1 X71.193 Y91.858 E0.3382
G1 X71.972 Y91.18 E0.37255
G1 X72.163 Y91.029 E0.38065
G1 X72.923 Y90.479 E0.41185
G1 X73.727 Y89.996 E0.44305
G1 X74.567 Y89.584 E0.47416
G1 X74.811 Y89.477 E0.48303
G1 X75.686 Y89.137 E0.51425
G1 X76.585 Y88.873 E0.54541
G1 X77.616 Y88.67 E0.58036
G1 X77.906 Y88.627 E0.59011
G1 X79.258 Y88.511 E0.63524
G1 X79.898 Y88.499 E0.65653
G1 X112.955 Y88.501 E1.75602
G1 X114.136 Y88.519 E1.7953
G1 X116.2 Y88.577 E1.86398
G1 X118.745 Y88.577 E1.94862
G1 X121.898 Y88.499 E2.05352
G1 X154.95 Y88.501 E3.15284
G1 X155.518 Y88.509 E3.17173
G1 X156.525 Y88.57 E3.20529
G1 X156.911 Y88.611 E3.2182
G1 X157.838 Y88.749 E3.24937
G1 X158.751 Y88.966 E3.28058
G1 X159.736 Y89.297 E3.31514
G1 X159.97 Y89.388 E3.32349
G1 X160.829 Y89.765 E3.35469
G1 X161.652 Y90.213 E3.38586
G1 X162.528 Y90.799 E3.42091
G1 X162.736 Y90.953 E3.42952
G1 X163.466 Y91.543 E3.46074
G1 X164.142 Y92.193 E3.49193
G1 X164.816 Y92.966 E3.52604
G1 X164.968 Y93.158 E3.53419
G1 X165.518 Y93.918 E3.56539
G1 X166.001 Y94.721 E3.59656
G1 X166.425 Y95.588 E3.62866
G1 X166.531 Y95.831 E3.63748
G1 X166.869 Y96.706 E3.66867
G1 X167.132 Y97.606 E3.69986
G1 X167.328 Y98.605 E3.73372
G1 X167.371 Y98.893 E3.74341
G1 X167.488 Y100.214 E3.78751
G1 X167.501 Y100.844 E3.80847
G1 X167.499 Y133.921 E4.90862
G1 X167.491 Y134.512 E4.92828
G1 X167.432 Y135.506 E4.96139
G1 X167.392 Y135.889 E4.9742
G1 X167.255 Y136.816 E5.00537
G1 X167.04 Y137.729 E5.03657
G1 X166.706 Y138.727 E5.07157
G1 X166.614 Y138.964 E5.08003
G1 X166.238 Y139.823 E5.11121
G1 X165.79 Y140.647 E5.14241
G1 X165.201 Y141.528 E5.17766
G1 X165.047 Y141.736 E5.18626
G1 X164.457 Y142.466 E5.21748
G1 X163.807 Y143.142 E5.24867
G1 X163.028 Y143.82 E5.28302
G1 X162.837 Y143.971 E5.29112
G1 X162.077 Y144.521 E5.32232
G1 X161.273 Y145.004 E5.35352
G1 X160.433 Y145.416 E5.38464
G1 X160.189 Y145.523 E5.3935
G1 X159.314 Y145.863 E5.42472
G1 X158.415 Y146.127 E5.45588
G1 X157.384 Y146.33 E5.49083
G1 X157.094 Y146.373 E5.50058
G1 X155.742 Y146.489 E5.54572
G1 X155.102 Y146.501 E5.56701
G1 X122.045 Y146.499 E6.66649
G1 X120.864 Y146.481 E6.70577
G1 X118.8 Y146.423 E6.77445
G1 X116.255 Y146.423 E6.8591
G1 X113.102 Y146.501 E6.964
G1 X80.05 Y146.499 E8.06331
G1 X79.482 Y146.491 E8.08221
G1 X78.475 Y146.43 E8.11576
G1 X78.089 Y146.389 E8.12867
G1 X77.162 Y146.251 E8.15984
G1 X76.249 Y146.034 E8.19105
G1 X75.264 Y145.703 E8.22562
G1 X75.03 Y145.612 E8.23397
G1 X74.171 Y145.235 E8.26517
G1 X73.348 Y144.787 E8.29633
G1 X72.472 Y144.201 E8.33139
G1 X72.264 Y144.047 E8.34
G1 X71.534 Y143.457 E8.37121
G1 X70.858 Y142.807 E8.40241
G1 X70.184 Y142.034 E8.43652
G1 X70.032 Y141.842 E8.44466
G1 X69.482 Y141.082 E8.47586
G1 X68.999 Y140.279 E8.50703
G1 X68.561 Y139.382 E8.54023
G1 X68.455 Y139.137 E8.54911
G1 X68.12 Y138.261 E8.5803
G1 X67.86 Y137.36 E8.61149
G1 X67.672 Y136.393 E8.64426
G1 X67.629 Y136.105 E8.65394
G1 X67.511 Y134.737 E8.69961
G1 X67.499 Y134.095 E8.72097
G1 X67.501 Y101.023 E9.82095
G0 F6000 X67.901 Y101.029
G1 F1200 X67.909 Y100.482 E9.83914
G1 X67.965 Y99.539 E9.87056
G1 X68.005 Y99.155 E9.8834
G1 X68.14 Y98.244 E9.91404
G1 X68.354 Y97.349 E9.94464
G1 X68.672 Y96.403 E9.97784
G1 X68.764 Y96.167 E9.98626
G1 X69.135 Y95.325 E10.01686
G1 X69.578 Y94.517 E10.04751
G1 X70.121 Y93.71 E10.07986
G1 X70.275 Y93.502 E10.08847
G1 X70.854 Y92.786 E10.1191
G1 X71.494 Y92.124 E10.14972
G1 X72.22 Y91.494 E10.18169
G1 X72.411 Y91.343 E10.18979
G1 X73.157 Y90.804 E10.2204
G1 X73.948 Y90.331 E10.25106
G1 X74.728 Y89.95 E10.27993
G1 X74.972 Y89.843 E10.28879
G1 X75.83 Y89.511 E10.31939
G1 X76.714 Y89.254 E10.35001
G1 X77.674 Y89.066 E10.38255
G1 X77.964 Y89.023 E10.3923
G1 X79.267 Y88.911 E10.43579
G1 X79.898 Y88.899 E10.45679
G1 X112.949 Y88.901 E11.55607
G1 X114.125 Y88.919 E11.59518
G1 X116.189 Y88.977 E11.66386
G1 X118.754 Y88.977 E11.74917
G1 X120.316 Y88.942 E11.80114
G1 X121.898 Y88.899 E11.85378
G1 X154.944 Y88.901 E12.95289
G1 X155.512 Y88.909 E12.97178
G1 X156.483 Y88.967 E13.00414
G1 X156.869 Y89.008 E13.01705
G1 X157.779 Y89.145 E13.04765
G1 X158.674 Y89.361 E13.07828
G1 X159.591 Y89.67 E13.11046
G1 X159.825 Y89.761 E13.11881
G1 X160.668 Y90.131 E13.14943
G1 X161.475 Y90.574 E13.18005
G1 X162.29 Y91.121 E13.2127
G1 X162.498 Y91.275 E13.22131
G1 X163.214 Y91.854 E13.25193
G1 X163.876 Y92.494 E13.28256
G1 X164.502 Y93.215 E13.31432
G1 X164.654 Y93.407 E13.32246
G1 X165.193 Y94.153 E13.35307
G1 X165.666 Y94.942 E13.38367
G1 X166.059 Y95.748 E13.41349
G1 X166.165 Y95.991 E13.42231
G1 X166.496 Y96.85 E13.45293
G1 X166.751 Y97.734 E13.48353
G1 X166.933 Y98.664 E13.51505
G1 X166.976 Y98.952 E13.52473
G1 X167.088 Y100.225 E13.56724
G1 X167.101 Y100.844 E13.58783
G1 X167.099 Y133.915 E14.68778
G1 X167.091 Y134.506 E14.70743
G1 X167.035 Y135.464 E14.73935
G1 X166.995 Y135.847 E14.75216
G1 X166.859 Y136.758 E14.7828
G1 X166.646 Y137.653 E14.81339
G1 X166.334 Y138.582 E14.84599
G1 X166.242 Y138.819 E14.85444
G1 X165.871 Y139.662 E14.88508
G1 X165.43 Y140.47 E14.91569
G1 X164.879 Y141.29 E14.94855
G1 X164.725 Y141.498 E14.95716
G1 X164.146 Y142.214 E14.98779
G1 X163.506 Y142.876 E15.01841
G1 X162.78 Y143.506 E15.05038
G1 X162.589 Y143.657 E15.05848
G1 X161.843 Y144.196 E15.08909
G1 X161.052 Y144.669 E15.11975
G1 X160.272 Y145.05 E15.14862
G1 X160.028 Y145.157 E15.15748
G1 X159.17 Y145.489 E15.18808
G1 X158.286 Y145.746 E15.2187
G1 X157.326 Y145.934 E15.25124
G1 X157.036 Y145.977 E15.26099
G1 X155.733 Y146.089 E15.30448
G1 X155.102 Y146.101 E15.32547
G1 X122.051 Y146.099 E16.42476
G1 X120.875 Y146.081 E16.46387
G1 X118.811 Y146.023 E16.53255
G1 X116.246 Y146.023 E16.61786
G1 X114.684 Y146.058 E16.66983
G1 X113.102 Y146.101 E16.72246
G1 X80.056 Y146.099 E17.82158
G1 X79.488 Y146.091 E17.84047
G1 X78.517 Y146.033 E17.87283
G1 X78.131 Y145.992 E17.88574
G1 X77.221 Y145.855 E17.91634
G1 X76.326 Y145.639 E17.94697
G1 X75.409 Y145.33 E17.97915
G1 X75.175 Y145.239 E17.9875
G1 X74.332 Y144.869 E18.01812
G1 X73.525 Y144.426 E18.04874
G1 X72.71 Y143.879 E18.08139
G1 X72.502 Y143.725 E18.09
G1 X71.786 Y143.146 E18.12062
G1 X71.124 Y142.506 E18.15125
G1 X70.498 Y141.785 E18.18301
G1 X70.346 Y141.593 E18.19115
G1 X69.807 Y140.847 E18.22176
G1 X69.334 Y140.058 E18.25236
G1 X68.928 Y139.223 E18.28324
G1 X68.822 Y138.978 E18.29212
G1 X68.494 Y138.118 E18.32273
G1 X68.241 Y137.233 E18.35335
G1 X68.067 Y136.334 E18.3838
G1 X68.024 Y136.046 E18.39349
G1 X67.911 Y134.728 E18.43748
G1 X67.899 Y134.095 E18.45854
G1 X67.901 Y101.029 E19.55832
G0 F6000 X68.301 Y101.035
G1 F1200 X68.309 Y100.488 E19.57652
G1 X68.363 Y99.58 E19.60677
G1 X68.403 Y99.196 E19.61961
G1 X68.536 Y98.303 E19.64964
G1 X68.748 Y97.425 E19.67968
G1 X69.045 Y96.548 E19.71048
G1 X69.137 Y96.312 E19.7189
G1 X69.502 Y95.486 E19.74894
G1 X69.938 Y94.696 E19.77895
G1 X70.442 Y93.948 E19.80895
G1 X70.596 Y93.74 E19.81756
G1 X71.165 Y93.038 E19.84761
G1 X71.794 Y92.39 E19.87765
G1 X72.468 Y91.807 E19.90729
G1 X72.659 Y91.656 E19.91539
G1 X73.392 Y91.128 E19.94543
G1 X74.168 Y90.667 E19.97545
G1 X74.889 Y90.317 E20.00211
G1 X75.133 Y90.21 E20.01097
G1 X75.975 Y89.884 E20.041
G1 X76.843 Y89.634 E20.07105
G1 X77.733 Y89.461 E20.1012
G1 X78.023 Y89.418 E20.11095
G1 X79.277 Y89.311 E20.15281
G1 X79.898 Y89.299 E20.17347
G1 X112.943 Y89.301 E21.27255
G1 X114.114 Y89.319 E21.3115
G1 X116.178 Y89.377 E21.38018
G1 X118.763 Y89.377 E21.46616
G1 X120.281 Y89.342 E21.51666
G1 X121.898 Y89.299 E21.57046
G1 X154.939 Y89.301 E22.66941
G1 X155.507 Y89.309 E22.6883
G1 X156.44 Y89.365 E22.71939
G1 X156.826 Y89.406 E22.7323
G1 X157.719 Y89.541 E22.76234
G1 X158.597 Y89.755 E22.7924
G1 X159.446 Y90.043 E22.82221
G1 X159.68 Y90.134 E22.83057
G1 X160.506 Y90.498 E22.86059
G1 X161.297 Y90.934 E22.89063
G1 X162.052 Y91.442 E22.92089
G1 X162.26 Y91.596 E22.9295
G1 X162.962 Y92.165 E22.95956
G1 X163.61 Y92.794 E22.98959
G1 X164.188 Y93.463 E23.019
G1 X164.34 Y93.655 E23.02714
G1 X164.869 Y94.387 E23.05718
G1 X165.331 Y95.163 E23.08722
G1 X165.692 Y95.908 E23.11476
G1 X165.798 Y96.151 E23.12357
G1 X166.122 Y96.994 E23.15361
G1 X166.371 Y97.862 E23.18365
G1 X166.537 Y98.723 E23.21281
G1 X166.58 Y99.011 E23.22249
G1 X166.688 Y100.236 E23.2634
G1 X166.701 Y100.844 E23.28362
G1 X166.699 Y133.91 E24.3834
G1 X166.691 Y134.501 E24.40306
G1 X166.637 Y135.423 E24.43378
G1 X166.597 Y135.806 E24.44659
G1 X166.463 Y136.699 E24.47662
G1 X166.251 Y137.577 E24.50666
G1 X165.961 Y138.437 E24.53685
G1 X165.869 Y138.674 E24.5453
G1 X165.505 Y139.501 E24.57536
G1 X165.069 Y140.292 E24.6054
G1 X164.558 Y141.052 E24.63586
G1 X164.404 Y141.26 E24.64447
G1 X163.835 Y141.962 E24.67452
G1 X163.206 Y142.61 E24.70456
G1 X162.532 Y143.193 E24.7342
G1 X162.341 Y143.344 E24.7423
G1 X161.608 Y143.872 E24.77234
G1 X160.832 Y144.333 E24.80236
G1 X160.111 Y144.683 E24.82902
G1 X159.867 Y144.79 E24.83788
G1 X159.025 Y145.116 E24.86791
G1 X158.157 Y145.366 E24.89796
G1 X157.267 Y145.539 E24.92811
G1 X156.977 Y145.582 E24.93786
G1 X155.723 Y145.689 E24.97972
G1 X155.102 Y145.701 E25.00038
G1 X122.057 Y145.699 E26.09946
G1 X120.886 Y145.681 E26.13841
G1 X118.822 Y145.623 E26.20709
G1 X116.237 Y145.623 E26.29307
G1 X114.719 Y145.658 E26.34357
G1 X113.102 Y145.701 E26.39737
G1 X80.061 Y145.699 E27.49632
G1 X79.493 Y145.691 E27.51521
G1 X78.56 Y145.635 E27.5463
G1 X78.174 Y145.594 E27.55921
G1 X77.281 Y145.459 E27.58925
G1 X76.403 Y145.245 E27.61931
G1 X75.554 Y144.957 E27.64912
G1 X75.32 Y144.866 E27.65747
G1 X74.494 Y144.502 E27.6875
G1 X73.703 Y144.066 E27.71754
G1 X72.948 Y143.558 E27.7478
G1 X72.74 Y143.404 E27.75641
G1 X72.038 Y142.835 E27.78647
G1 X71.39 Y142.206 E27.8165
G1 X70.812 Y141.537 E27.84591
G1 X70.66 Y141.345 E27.85405
G1 X70.131 Y140.613 E27.88409
G1 X69.669 Y139.837 E27.91413
G1 X69.296 Y139.064 E27.94268
G1 X69.19 Y138.819 E27.95156
G1 X68.868 Y137.975 E27.9816
G1 X68.622 Y137.106 E28.01164
G1 X68.463 Y136.275 E28.03978
G1 X68.42 Y135.987 E28.04947
G1 X68.311 Y134.719 E28.0918
G1 X68.299 Y134.095 E28.11255
G1 X68.301 Y101.035 E29.21213
G1 F2700 E24.21213
;MESH:Divider Box 2x1x2 3-Compartment.stl
G0 F6000 X77.834 Y101.037
G0 X78.929 Y101.037
G0 X79.32 Y103.628
G0 X80.064 Y105.875
G0 X80.386 Y106.501
G0 X80.822 Y107.054
G0 X81.353 Y107.515
G0 X81.963 Y107.867
G0 X82.628 Y108.096
G0 X83.191 Y108.177
G0 X84.798 Y108.134
G1 F2700 E29.21213
G0 F6000 X84.629 Y107.76
;TYPE:WALL-OUTER
G1 F1200 X84.014 Y107.912 E29.2332
G1 X83.976 Y107.917 E29.23448
G1 X83.355 Y107.946 E29.25516
G1 X83.316 Y107.944 E29.25645
G1 X82.704 Y107.857 E29.27701
G1 X82.667 Y107.847 E29.27829
G1 X82.082 Y107.645 E29.29887
G1 X82.047 Y107.629 E29.30015
G1 X81.515 Y107.321 E29.3206
G1 X81.485 Y107.299 E29.32184
G1 X81.017 Y106.896 E29.34238
G1 X80.99 Y106.868 E29.34367
G1 X80.61 Y106.382 E29.36419
G1 X80.59 Y106.35 E29.36545
G1 X80.305 Y105.798 E29.38611
G1 X80.291 Y105.763 E29.38736
G1 X80.111 Y105.151 E29.40858
G1 X80.05 Y104.522 E29.4296
G1 X80.05 Y104.483 E29.4309
G1 X80.109 Y103.864 E29.45158
G1 F1203 X80.117 Y103.826 E29.45287
G1 X80.291 Y103.237 E29.47324
G1 F1200 X80.305 Y103.202 E29.47449
G1 X80.59 Y102.649 E29.49519
G1 X80.61 Y102.617 E29.49644
G1 X80.991 Y102.131 E29.51698
G1 X81.018 Y102.103 E29.51828
G1 X81.486 Y101.7 E29.53882
G1 X81.516 Y101.678 E29.54005
G1 X82.047 Y101.371 E29.56045
G1 X82.082 Y101.356 E29.56172
G1 F1203 X82.667 Y101.153 E29.58226
G1 X82.698 Y101.145 E29.58333
G1 X83.316 Y101.056 E29.60404
G1 F1200 X83.355 Y101.054 E29.60534
G1 X83.976 Y101.083 E29.62602
G1 X84.014 Y101.088 E29.62729
G1 X84.61 Y101.234 E29.6477
G1 X84.645 Y101.246 E29.64893
G1 X85.207 Y101.5 E29.66945
G1 X85.241 Y101.52 E29.67076
G1 X85.746 Y101.883 E29.69144
G1 X85.774 Y101.907 E29.69267
G1 X86.199 Y102.35 E29.71309
G1 X86.223 Y102.381 E29.71439
G1 X86.559 Y102.905 E29.73509
G1 X86.576 Y102.938 E29.73633
G1 X86.804 Y103.507 E29.75672
G1 X86.815 Y103.544 E29.758
G1 X86.932 Y104.155 E29.77869
G1 X86.935 Y104.193 E29.77996
G1 X86.935 Y104.807 E29.80038
G1 X86.932 Y104.845 E29.80165
G1 X86.81 Y105.476 E29.82303
G1 X86.571 Y106.074 E29.84444
G1 X86.219 Y106.625 E29.86619
G1 X86.199 Y106.65 E29.86726
G1 X85.761 Y107.105 E29.88826
G1 X85.235 Y107.484 E29.90983
G1 X85.127 Y107.536 E29.91381
G1 X84.629 Y107.76 E29.93197
G0 F6000 X84.109 Y108.3
;TYPE:WALL-INNER
G1 F1200 X83.994 Y108.317 E29.93584
G1 X83.373 Y108.346 E29.95652
G1 X83.259 Y108.34 E29.96031
G1 X82.647 Y108.253 E29.98087
G1 X82.536 Y108.225 E29.98468
G1 X81.951 Y108.023 E30.00527
G1 X81.847 Y107.975 E30.00908
G1 X81.315 Y107.667 E30.02952
G1 X81.224 Y107.602 E30.03324
G1 X80.756 Y107.199 E30.05378
G1 X80.675 Y107.114 E30.05769
G1 X80.295 Y106.628 E30.07821
G1 X80.234 Y106.534 E30.08193
G1 X79.949 Y105.982 E30.1026
G1 X79.907 Y105.876 E30.10639
G1 F1142.9 X79.8 Y105.587 E30.11715
G1 F1041.2 X79.693 Y105.298 E30.12896
G1 F971.7 X79.658 Y105.179 E30.13406
G1 F963.9 X79.636 Y104.872 E30.1468
G1 F991.7 X79.614 Y104.564 E30.15923
G1 F1008.4 X79.614 Y104.441 E30.1641
G1 F993.8 X79.636 Y104.131 E30.17658
G1 F961.9 X79.658 Y103.821 E30.18948
G1 F993.8 X79.705 Y103.704 E30.19454
G1 F1081.1 X79.806 Y103.414 E30.20588
G1 F1159.4 X79.907 Y103.123 E30.21648
G1 F1200 X79.949 Y103.018 E30.22024
G1 X80.234 Y102.466 E30.2409
G1 X80.295 Y102.37 E30.24469
G1 X80.676 Y101.884 E30.26523
G1 X80.757 Y101.8 E30.26911
G1 X81.225 Y101.397 E30.28965
G1 X81.316 Y101.332 E30.29337
G1 X81.847 Y101.025 E30.31377
G1 X81.951 Y100.978 E30.31757
G1 F1151.1 X82.237 Y100.86 E30.32829
G1 F1064.3 X82.524 Y100.742 E30.33993
G1 F973.6 X82.619 Y100.693 E30.34431
G1 F921.3 X82.638 Y100.685 E30.3452
G1 F932 X82.945 Y100.652 E30.35843
G1 F973.6 X83.253 Y100.619 E30.37112
G1 F1002.1 X83.375 Y100.616 E30.37599
G1 F1000 X83.686 Y100.627 E30.38841
G1 F985.6 X83.997 Y100.638 E30.40101
G1 F965.8 X84.122 Y100.649 E30.40619
G1 F1004.2 X84.413 Y100.747 E30.4184
G1 F1126.8 X84.705 Y100.846 E30.42932
G1 F1200 X84.81 Y100.881 E30.433
G1 X85.372 Y101.136 E30.45353
G1 X85.475 Y101.195 E30.45747
G1 X85.98 Y101.558 E30.47816
G1 X86.062 Y101.63 E30.48179
G1 X86.488 Y102.073 E30.50223
G1 X86.56 Y102.165 E30.50612
G1 X86.896 Y102.689 E30.52682
G1 X86.948 Y102.789 E30.53057
G1 X87.176 Y103.358 E30.55096
G1 X87.208 Y103.469 E30.5548
G1 X87.325 Y104.08 E30.57549
G1 X87.335 Y104.193 E30.57926
G1 X87.335 Y104.807 E30.59969
G1 X87.325 Y104.92 E30.60346
G1 X87.208 Y105.531 E30.62415
G1 X87.175 Y105.642 E30.628
G1 X86.931 Y106.248 E30.64973
G1 X86.896 Y106.311 E30.65213
G1 X86.548 Y106.853 E30.67355
G1 X86.487 Y106.927 E30.67674
G1 X86.043 Y107.389 E30.69805
G1 X85.98 Y107.442 E30.70079
G1 X85.453 Y107.819 E30.72234
G1 X85.292 Y107.9 E30.72833
G1 X84.81 Y108.118 E30.74593
G1 X84.705 Y108.154 E30.74962
G1 X84.109 Y108.3 E30.77003
G1 F2700 E25.77003
G0 F6000 X84.11 Y108.309
G0 X81.899 Y108.175
G0 X80.09 Y106.606
G0 X79.406 Y105.234
G0 X79.261 Y105.99
G0 X79.261 Y129.008
G0 X79.32 Y129.628
G0 X81.118 Y127.276
G0 X83.383 Y126.494
