;FLAVOR:Marlin
;TIME:5709
;Filament used: 3.5158m
;Layer height: 0.2
;MINX:54.623
;MINY:54.623
;MINZ:0.2
;MAXX:180.377
;MAXY:180.377
;MAXZ:4.88
;Generated with Cura_SteamEngine 5.0.0
M140 S50
M105
M190 S50
M104 S200
M105
M109 S200
M82 ;absolute extrusion mode
; Ender 3 Custom Start G-code
G92 E0 ; Reset Extruder
G28 ; Home all axes
G1 Z2.0 F3000 ; Move Z Axis up little to prevent scratching of Heat Bed
G1 X0.1 Y20 Z0.3 F5000.0 ; Move to start position
G1 X0.1 Y200.0 Z0.3 F1500.0 E15 ; Draw the first line
G1 X0.4 Y200.0 Z0.3 F5000.0 ; Move to side a little
G1 X0.4 Y20 Z0.3 F1500.0 E30 ; Draw the second line
G92 E0 ; Reset Extruder
G1 Z2.0 F3000 ; Move Z Axis up little to prevent scratching of Heat Bed
G1 X5 Y20 Z0.3 F5000.0 ; Move over to prevent blob squish
G92 E0
G92 E0
G1 F2700 E-5
;LAYER_COUNT:27
;LAYER:0
M107
;MESH:Frame 3x3.stl
G0 F6000 X92.499 Y94.055 Z0.2
;TYPE:WALL-OUTER
G1 F2700 E0
G1 F1200 X58.483 Y94.055 E1.13138
G1 X58.119 Y94.007 E1.14359
G1 X57.743 Y93.86 E1.15702
G1 X57.697 Y93.833 E1.15879
G1 X57.418 Y93.618 E1.17051
G1 X57.167 Y93.303 E1.1839
G1 X57.006 Y92.931 E1.19738
G1 X56.947 Y92.528 E1.21093
G1 X56.946 Y58.474 E2.34357
G1 X56.995 Y58.109 E2.35582
G1 X57.129 Y57.77 E2.36794
G1 X57.3 Y57.524 E2.37791
G1 X57.523 Y57.301 E2.3884
G1 X57.743 Y57.141 E2.39745
G1 X58.079 Y57.003 E2.40953
G1 X58.475 Y56.947 E2.42283
G1 X92.499 Y56.945 E3.55447
G1 X92.881 Y56.993 E3.56728
G1 X93.257 Y57.14 E3.5807
G1 X93.582 Y57.382 E3.59418
G1 X93.833 Y57.697 E3.60758
G1 X93.993 Y58.069 E3.62105
G1 X94.053 Y58.472 E3.6346
G1 X94.055 Y58.501 E3.63556
G1 X94.054 Y92.526 E4.76724
G1 X94.007 Y92.881 E4.77915
G1 X93.86 Y93.257 E4.79258
G1 X93.618 Y93.582 E4.80606
G1 X93.303 Y93.833 E4.81945
G1 X92.931 Y93.994 E4.83293
G1 X92.531 Y94.052 E4.84638
G1 X92.499 Y94.055 E4.84745
G0 F6000 X92.499 Y94.455
;TYPE:WALL-INNER
G1 F1200 X58.501 Y94.456 E5.97822
G1 X58.075 Y94.405 E5.99249
G1 X57.591 Y94.23 E6.00961
G1 X57.453 Y94.15 E6.01492
G1 X57.174 Y93.935 E6.02663
G1 X56.85 Y93.547 E6.04345
G1 X56.636 Y93.083 E6.06044
G1 X56.55 Y92.58 E6.07741
G1 X56.546 Y92.502 E6.08001
G1 X56.545 Y58.501 E7.21089
G1 X56.597 Y58.067 E7.22543
G1 X56.759 Y57.618 E7.2413
G1 X56.983 Y57.28 E7.25479
G1 X57.174 Y57.065 E7.26435
G1 X57.453 Y56.85 E7.27607
G1 X57.917 Y56.636 E7.29306
G1 X58.423 Y56.55 E7.31014
G1 X58.575 Y56.546 E7.31519
G1 X92.499 Y56.545 E8.44351
G1 X92.933 Y56.596 E8.45804
G1 X93.409 Y56.77 E8.4749
G1 X93.826 Y57.065 E8.49189
G1 X94.15 Y57.453 E8.5087
G1 X94.363 Y57.917 E8.52568
G1 X94.45 Y58.42 E8.54266
G1 X94.455 Y58.501 E8.54536
G1 X94.455 Y92.5 E9.67617
G1 X94.404 Y92.929 E9.69054
G1 X94.23 Y93.409 E9.70752
G1 X93.935 Y93.826 E9.72451
G1 X93.547 Y94.15 E9.74132
G1 X93.083 Y94.364 E9.75832
G1 X92.583 Y94.449 E9.77519
G1 X92.499 Y94.455 E9.77799
G1 F2700 E4.77799
G0 F6000 X92.498 Y94.465
G0 X93.578 Y94.346
G0 X99.422 Y94.346
G0 X100.429 Y94.46
G1 F2700 E9.77799
G0 F6000 X100.483 Y94.055
;TYPE:WALL-OUTER
G1 F1200 X100.119 Y94.007 E9.7902
G1 X99.743 Y93.86 E9.80363
G1 X99.418 Y93.618 E9.81711
G1 X99.167 Y93.303 E9.8305
G1 X99.006 Y92.931 E9.84398
G1 X98.947 Y92.529 E9.8575
G1 X98.945 Y58.501 E10.98927
G1 X98.946 Y58.474 E10.99017
G1 X98.996 Y58.103 E11.00262
G1 X99.14 Y57.743 E11.01552
G1 X99.382 Y57.418 E11.029
G1 X99.697 Y57.167 E11.04239
G1 X100.069 Y57.006 E11.05587
G1 X100.475 Y56.947 E11.06952
G1 X134.499 Y56.945 E12.20116
G1 X134.881 Y56.993 E12.21397
G1 X135.257 Y57.14 E12.22739
G1 X135.582 Y57.382 E12.24087
G1 X135.833 Y57.697 E12.25427
G1 X135.993 Y58.069 E12.26774
G1 X136.053 Y58.472 E12.28129
G1 X136.055 Y58.501 E12.28226
G1 X136.054 Y92.526 E13.41393
G1 X136.007 Y92.881 E13.42584
G1 X135.86 Y93.257 E13.43927
G1 X135.618 Y93.582 E13.45275
G1 X135.303 Y93.833 E13.46614
G1 X134.931 Y93.994 E13.47962
G1 X134.531 Y94.052 E13.49307
G1 X134.499 Y94.055 E13.49414
G1 X100.483 Y94.055 E14.62551
G0 F6000 X100.501 Y94.456
;TYPE:WALL-INNER
G1 F1200 X100.075 Y94.405 E14.63978
G1 X99.591 Y94.23 E14.6569
G1 X99.174 Y93.935 E14.67389
G1 X98.85 Y93.547 E14.6907
G1 X98.636 Y93.083 E14.7077
G1 X98.55 Y92.581 E14.72464
G1 X98.546 Y92.5 E14.72734
G1 X98.545 Y58.501 E15.85815
G1 X98.549 Y58.422 E15.86078
G1 X98.596 Y58.068 E15.87266
G1 X98.77 Y57.591 E15.88954
G1 X99.065 Y57.174 E15.90653
G1 X99.453 Y56.85 E15.92334
G1 X99.917 Y56.636 E15.94034
G1 X100.423 Y56.55 E15.95741
G1 X100.501 Y56.546 E15.96001
G1 X134.499 Y56.545 E17.09079
G1 X134.933 Y56.596 E17.10532
G1 X135.409 Y56.77 E17.12218
G1 X135.826 Y57.065 E17.13917
G1 X136.15 Y57.453 E17.15598
G1 X136.363 Y57.917 E17.17296
G1 X136.45 Y58.42 E17.18994
G1 X136.455 Y58.501 E17.19264
G1 X136.455 Y92.5 E18.32345
G1 X136.404 Y92.929 E18.33782
G1 X136.23 Y93.409 E18.3548
G1 X135.935 Y93.826 E18.37179
G1 X135.547 Y94.15 E18.3886
G1 X135.083 Y94.364 E18.4056
G1 X134.583 Y94.449 E18.42246
G1 X134.499 Y94.455 E18.42527
G1 X100.501 Y94.456 E19.55604
G1 F2700 E14.55604
G0 F6000 X100.5 Y94.465
G0 X100.502 Y98.366
G0 X99.546 Y98.847
G0 X99.15 Y99.15
G0 X98.847 Y99.546
G0 X98.657 Y100.006
G0 X98.596 Y100.464
G0 X98.597 Y134.535
G0 X98.657 Y134.994
G0 X98.847 Y135.454
G0 X99.15 Y135.85
G0 X99.506 Y136.122
G0 X100.429 Y136.46
G1 F2700 E19.55604
G0 F6000 X100.483 Y136.055
;TYPE:WALL-OUTER
G1 F1200 X100.119 Y136.007 E19.56826
G1 X99.743 Y135.86 E19.58168
G1 X99.418 Y135.618 E19.59516
G1 X99.167 Y135.303 E19.60856
G1 X99.006 Y134.931 E19.62204
G1 X98.947 Y134.529 E19.63555
G1 X98.945 Y100.501 E20.76733
G1 X98.992 Y100.124 E20.77996
G1 X99.14 Y99.743 E20.79356
G1 X99.382 Y99.418 E20.80704
G1 X99.697 Y99.167 E20.82043
G1 X100.069 Y99.006 E20.83391
G1 X100.469 Y98.948 E20.84736
G1 X100.501 Y98.946 E20.84842
G1 X134.526 Y98.946 E21.9801
G1 X134.881 Y98.993 E21.99201
G1 X135.257 Y99.14 E22.00544
G1 X135.582 Y99.382 E22.01891
G1 X135.833 Y99.697 E22.03231
G1 X135.994 Y100.069 E22.04579
G1 X136.053 Y100.472 E22.05934
G1 X136.055 Y100.501 E22.06031
G1 X136.054 Y134.526 E23.19198
G1 X136.007 Y134.881 E23.20389
G1 X135.86 Y135.257 E23.21732
G1 X135.618 Y135.582 E23.2308
G1 X135.303 Y135.833 E23.24419
G1 X134.931 Y135.994 E23.25768
G1 X134.531 Y136.052 E23.27112
G1 X134.499 Y136.055 E23.27219
G1 X100.483 Y136.055 E24.40356
G0 F6000 X100.501 Y136.456
;TYPE:WALL-INNER
G1 F1200 X100.075 Y136.405 E24.41783
G1 X99.591 Y136.23 E24.43495
G1 X99.174 Y135.935 E24.45194
G1 X98.85 Y135.547 E24.46875
G1 X98.636 Y135.083 E24.48575
G1 X98.55 Y134.581 E24.50269
G1 X98.546 Y134.5 E24.50539
G1 X98.545 Y100.501 E25.6362
G1 X98.596 Y100.072 E25.65057
G1 X98.77 Y99.591 E25.66758
G1 X99.065 Y99.174 E25.68457
G1 X99.453 Y98.85 E25.70138
G1 X99.917 Y98.636 E25.71838
G1 X100.417 Y98.551 E25.73524
G1 X100.501 Y98.546 E25.73804
G1 X134.499 Y98.545 E26.86882
G1 X134.925 Y98.595 E26.88309
G1 X135.409 Y98.77 E26.90021
G1 X135.826 Y99.065 E26.91719
G1 X136.15 Y99.453 E26.93401
G1 X136.364 Y99.917 E26.951
G1 X136.45 Y100.42 E26.96798
G1 X136.455 Y100.501 E26.97067
G1 X136.455 Y134.5 E28.10149
G1 X136.404 Y134.929 E28.11585
G1 X136.23 Y135.409 E28.13284
G1 X135.935 Y135.826 E28.14983
G1 X135.547 Y136.15 E28.16664
G1 X135.083 Y136.364 E28.18363
G1 X134.583 Y136.449 E28.2005
G1 X134.499 Y136.455 E28.2033
G1 X100.501 Y136.456 E29.33408
G1 F2700 E24.33408
G0 F6000 X100.5 Y136.465
G0 X98.955 Y135.977
G0 X94.045 Y135.977
G0 X92.499 Y136.465
G1 F2700 E29.33408
G0 F6000 X92.499 Y136.055
;TYPE:WALL-OUTER
G1 F1200 X58.483 Y136.055 E30.46546
G1 X58.119 Y136.007 E30.47767
G1 X57.743 Y135.86 E30.4911
G1 X57.418 Y135.618 E30.50457
G1 X57.167 Y135.303 E30.51797
G1 X57.006 Y134.931 E30.53145
G1 X56.947 Y134.528 E30.545
G1 X56.945 Y100.501 E31.67674
G1 X56.993 Y100.119 E31.68955
G1 X57.14 Y99.743 E31.70297
G1 X57.382 Y99.418 E31.71645
G1 X57.697 Y99.167 E31.72985
G1 X58.069 Y99.007 E31.74332
G1 X58.469 Y98.948 E31.75676
G1 X58.501 Y98.946 E31.75783
G1 X92.526 Y98.946 E32.88951
G1 X92.881 Y98.993 E32.90142
G1 X93.257 Y99.14 E32.91484
G1 X93.582 Y99.382 E32.92832
G1 X93.833 Y99.697 E32.94172
G1 X93.994 Y100.069 E32.9552
G1 X94.053 Y100.472 E32.96875
G1 X94.055 Y100.501 E32.96971
G1 X94.054 Y134.526 E34.10139
G1 X94.007 Y134.881 E34.1133
G1 X93.86 Y135.257 E34.12673
G1 X93.618 Y135.582 E34.1402
G1 X93.303 Y135.833 E34.1536
G1 X92.931 Y135.994 E34.16708
G1 X92.531 Y136.052 E34.18053
G1 X92.499 Y136.055 E34.18159
G0 F6000 X92.499 Y136.455
;TYPE:WALL-INNER
G1 F1200 X58.501 Y136.456 E35.31237
G1 X58.075 Y136.405 E35.32664
G1 X57.591 Y136.23 E35.34376
G1 X57.174 Y135.935 E35.36075
G1 X56.85 Y135.547 E35.37756
G1 X56.636 Y135.083 E35.39456
G1 X56.55 Y134.58 E35.41153
G1 X56.546 Y134.502 E35.41413
G1 X56.545 Y100.501 E36.54501
G1 X56.596 Y100.067 E36.55954
G1 X56.77 Y99.591 E36.5764
G1 X57.065 Y99.174 E36.59339
G1 X57.453 Y98.85 E36.6102
G1 X57.917 Y98.637 E36.62718
G1 X58.417 Y98.551 E36.64405
G1 X58.501 Y98.546 E36.64685
G1 X92.499 Y98.545 E37.77763
G1 X92.925 Y98.595 E37.7919
G1 X92.933 Y98.597 E37.79217
G1 X93.409 Y98.77 E37.80902
G1 X93.826 Y99.065 E37.826
G1 X94.15 Y99.453 E37.84282
G1 X94.364 Y99.917 E37.85981
G1 X94.45 Y100.42 E37.87679
G1 X94.455 Y100.501 E37.87948
G1 X94.455 Y134.5 E39.0103
G1 X94.404 Y134.929 E39.02466
G1 X94.23 Y135.409 E39.04165
G1 X93.935 Y135.826 E39.05864
G1 X93.547 Y136.15 E39.07545
G1 X93.083 Y136.364 E39.09244
G1 X92.583 Y136.449 E39.10931
G1 X92.499 Y136.455 E39.11211
G1 F2700 E34.11211
G0 F6000 X92.498 Y136.465
G0 X92.498 Y140.365
G0 X93.454 Y140.847
G0 X93.85 Y141.15
G0 X94.153 Y141.546
G0 X94.343 Y142.006
G0 X94.403 Y142.465
G0 X94.404 Y176.536
G0 X94.343 Y176.994
G0 X94.153 Y177.454
G0 X93.85 Y177.85
G0 X93.494 Y178.122
G0 X92.577 Y178.459
G1 F2700 E39.11211
G0 F6000 X92.525 Y178.053
;TYPE:WALL-OUTER
G1 F1200 X58.474 Y178.054 E40.24465
G1 X58.109 Y178.005 E40.2569
G1 X57.767 Y177.87 E40.26913
G1 X57.524 Y177.7 E40.279
G1 X57.301 Y177.477 E40.28948
G1 X57.141 Y177.257 E40.29853
G1 X57.003 Y176.921 E40.31061
G1 X56.947 Y176.528 E40.32382
G1 X56.945 Y142.501 E41.45556
G1 X56.993 Y142.119 E41.46836
G1 X57.14 Y141.743 E41.48179
G1 X57.382 Y141.418 E41.49527
G1 X57.697 Y141.167 E41.50867
G1 X58.069 Y141.007 E41.52213
G1 X58.469 Y140.948 E41.53558
G1 X58.501 Y140.946 E41.53665
G1 X92.526 Y140.946 E42.66832
G1 X92.881 Y140.993 E42.68024
G1 X93.257 Y141.14 E42.69366
G1 X93.582 Y141.382 E42.70714
G1 X93.833 Y141.697 E42.72054
G1 X93.994 Y142.069 E42.73402
G1 X94.053 Y142.472 E42.74756
G1 X94.055 Y142.501 E42.74853
G1 X94.054 Y176.526 E43.88021
G1 X94.004 Y176.897 E43.89266
G1 X93.86 Y177.257 E43.90555
G1 X93.618 Y177.582 E43.91903
G1 X93.303 Y177.833 E43.93243
G1 X92.931 Y177.994 E43.94591
G1 X92.525 Y178.053 E43.95956
G0 F6000 X92.577 Y178.45
;TYPE:WALL-INNER
G1 F1200 X92.499 Y178.454 E43.96215
G1 X58.501 Y178.455 E45.09293
G1 X58.067 Y178.403 E45.10747
G1 X57.615 Y178.24 E45.12345
G1 X57.28 Y178.017 E45.13684
G1 X57.065 Y177.826 E45.1464
G1 X56.85 Y177.547 E45.15812
G1 X56.636 Y177.083 E45.17511
G1 X56.551 Y176.58 E45.19208
G1 X56.546 Y176.427 E45.19717
G1 X56.545 Y142.501 E46.32555
G1 X56.596 Y142.067 E46.34009
G1 X56.77 Y141.591 E46.35694
G1 X57.065 Y141.174 E46.37393
G1 X57.453 Y140.85 E46.39075
G1 X57.917 Y140.637 E46.40773
G1 X58.417 Y140.551 E46.4246
G1 X58.501 Y140.546 E46.4274
G1 X92.499 Y140.545 E47.55818
G1 X92.925 Y140.595 E47.57244
G1 X93.409 Y140.77 E47.58956
G1 X93.826 Y141.065 E47.60655
G1 X94.15 Y141.453 E47.62336
G1 X94.364 Y141.917 E47.64036
G1 X94.45 Y142.42 E47.65733
G1 X94.455 Y142.501 E47.66003
G1 X94.455 Y176.5 E48.79084
G1 X94.404 Y176.929 E48.80521
G1 X94.23 Y177.409 E48.82219
G1 X93.935 Y177.826 E48.83918
G1 X93.547 Y178.15 E48.85599
G1 X93.083 Y178.364 E48.87299
G1 X92.577 Y178.45 E48.89006
G1 F2700 E43.89006
G0 F6000 X92.577 Y178.459
G0 X93.658 Y178.292
G0 X99.342 Y178.292
G0 X100.501 Y178.465
G1 F2700 E48.89006
G0 F6000 X100.501 Y178.055
;TYPE:WALL-OUTER
G1 F1200 X100.119 Y178.007 E48.90286
G1 X99.743 Y177.86 E48.91629
G1 X99.418 Y177.618 E48.92977
G1 X99.167 Y177.303 E48.94317
G1 X99.007 Y176.931 E48.95663
G1 X98.947 Y176.529 E48.97015
G1 X98.945 Y142.501 E50.10193
G1 X98.946 Y142.474 E50.10283
G1 X98.993 Y142.12 E50.11471
G1 X99.14 Y141.743 E50.12816
G1 X99.382 Y141.418 E50.14164
G1 X99.697 Y141.167 E50.15504
G1 X100.069 Y141.006 E50.16852
G1 X100.469 Y140.948 E50.18196
G1 X100.501 Y140.946 E50.18303
G1 X134.526 Y140.946 E51.3147
G1 X134.881 Y140.993 E51.32662
G1 X135.257 Y141.14 E51.34004
G1 X135.582 Y141.382 E51.35352
G1 X135.833 Y141.697 E51.36692
G1 X135.994 Y142.069 E51.3804
G1 X136.053 Y142.472 E51.39394
G1 X136.055 Y142.501 E51.39491
G1 X136.054 Y176.526 E52.52659
G1 X136.004 Y176.897 E52.53904
G1 X135.86 Y177.257 E52.55193
G1 X135.618 Y177.582 E52.56541
G1 X135.303 Y177.833 E52.57881
G1 X134.931 Y177.994 E52.59229
G1 X134.525 Y178.053 E52.60594
G1 X100.501 Y178.055 E53.73758
G0 F6000 X100.501 Y178.455
;TYPE:WALL-INNER
G1 F1200 X100.067 Y178.404 E53.75211
G1 X99.591 Y178.23 E53.76897
G1 X99.174 Y177.935 E53.78596
G1 X98.85 Y177.547 E53.80277
G1 X98.637 Y177.083 E53.81975
G1 X98.55 Y176.581 E53.8367
G1 X98.546 Y176.5 E53.83939
G1 X98.545 Y142.501 E54.97021
G1 X98.549 Y142.422 E54.97284
G1 X98.596 Y142.068 E54.98471
G1 X98.77 Y141.591 E55.0016
G1 X99.065 Y141.174 E55.01859
G1 X99.453 Y140.85 E55.0354
G1 X99.917 Y140.636 E55.0524
G1 X100.417 Y140.551 E55.06927
G1 X100.501 Y140.546 E55.07207
G1 X134.499 Y140.545 E56.20284
G1 X134.925 Y140.595 E56.21711
G1 X135.409 Y140.77 E56.23423
G1 X135.826 Y141.065 E56.25122
G1 X136.15 Y141.453 E56.26803
G1 X136.364 Y141.917 E56.28502
G1 X136.45 Y142.42 E56.302
G1 X136.455 Y142.501 E56.3047
G1 X136.455 Y176.5 E57.43551
G1 X136.404 Y176.929 E57.44988
G1 X136.23 Y177.409 E57.46686
G1 X135.935 Y177.826 E57.48385
G1 X135.547 Y178.15 E57.50066
G1 X135.083 Y178.364 E57.51766
G1 X134.577 Y178.45 E57.53473
G1 X134.499 Y178.454 E57.53732
G1 X100.501 Y178.455 E58.6681
G1 F2700 E53.6681
G0 F6000 X100.5 Y178.465
G0 X134.535 Y178.403
G0 X134.994 Y178.343
G0 X136.292 Y177.657
G0 X140.602 Y177.477
G0 X141.17 Y177.941
G1 F2700 E58.6681
G0 F6000 X141.418 Y177.618
;TYPE:WALL-OUTER
G1 F1200 X141.382 Y177.582 E58.6698
G1 X141.167 Y177.303 E58.68151
G1 X141.007 Y176.931 E58.69498
G1 X140.947 Y176.529 E58.7085
G1 X140.945 Y142.501 E59.84027
G1 X140.992 Y142.124 E59.85291
G1 X141.14 Y141.743 E59.8665
G1 X141.382 Y141.418 E59.87998
G1 X141.697 Y141.167 E59.89338
G1 X142.069 Y141.006 E59.90686
G1 X142.469 Y140.948 E59.9203
G1 X142.501 Y140.946 E59.92137
G1 X176.526 Y140.946 E61.05305
G1 X176.881 Y140.993 E61.06496
G1 X177.257 Y141.14 E61.07838
G1 X177.582 Y141.382 E61.09186
G1 X177.833 Y141.697 E61.10526
G1 X177.993 Y142.069 E61.11873
G1 X178.053 Y142.472 E61.13228
G1 X178.055 Y142.498 E61.13314
G1 X178.054 Y176.526 E62.26492
G1 X178.005 Y176.891 E62.27717
G1 X177.871 Y177.231 E62.28932
G1 X177.7 Y177.476 E62.29926
G1 X177.477 Y177.699 E62.30975
G1 X177.257 Y177.86 E62.31882
G1 X176.921 Y177.998 E62.3309
G1 X176.525 Y178.053 E62.3442
G1 X142.501 Y178.055 E63.47584
G1 X142.119 Y178.007 E63.48864
G1 X141.743 Y177.86 E63.50207
G1 X141.418 Y177.618 E63.51555
G0 F6000 X141.591 Y178.23
;TYPE:WALL-INNER
G1 F1200 X141.174 Y177.935 E63.53254
G1 X141.065 Y177.826 E63.53767
G1 X140.85 Y177.547 E63.54938
G1 X140.637 Y177.083 E63.56636
G1 X140.55 Y176.581 E63.58331
G1 X140.546 Y176.5 E63.586
G1 X140.545 Y142.501 E64.71682
G1 X140.596 Y142.072 E64.73119
G1 X140.77 Y141.591 E64.7482
G1 X141.065 Y141.174 E64.76519
G1 X141.453 Y140.85 E64.782
G1 X141.917 Y140.636 E64.79899
G1 X142.417 Y140.551 E64.81586
G1 X142.501 Y140.546 E64.81866
G1 X176.499 Y140.545 E65.94944
G1 X176.925 Y140.595 E65.96371
G1 X177.409 Y140.77 E65.98082
G1 X177.826 Y141.065 E65.99781
G1 X178.15 Y141.453 E66.01463
G1 X178.363 Y141.917 E66.03161
G1 X178.45 Y142.42 E66.04859
G1 X178.455 Y142.498 E66.05119
G1 X178.454 Y176.567 E67.18432
G1 X178.398 Y176.965 E67.19769
G1 X178.241 Y177.383 E67.21254
G1 X178.017 Y177.72 E67.226
G1 X177.826 Y177.935 E67.23557
G1 X177.502 Y178.183 E67.24914
G1 X177.083 Y178.364 E67.26432
G1 X176.577 Y178.449 E67.28138
G1 X176.425 Y178.454 E67.28644
G1 X142.501 Y178.455 E68.41476
G1 X142.067 Y178.404 E68.42929
G1 X141.591 Y178.23 E68.44615
G1 F2700 E63.44615
G0 F6000 X141.588 Y178.236
