;FLAVOR:Marlin
;TIME:6295
;Filament used: 2.97247m
;Layer height: 0.2
;MINX:86.45
;MINY:113.016
;MINZ:0.2
;MAXX:148.549
;MAXY:121.802
;MAXZ:34.96
;Generated with Cura_SteamEngine 5.0.0
M140 S60
M105
M190 S60
M104 S200
M105
M109 S200
M82 ;absolute extrusion mode
; Ender 3 Custom Start G-code
G92 E0 ; Reset Extruder
G28 ; Home all axes
G1 Z2.0 F3000 ; Move Z Axis up little to prevent scratching of Heat Bed
G1 X0.1 Y20 Z0.3 F5000.0 ; Move to start position
G1 X0.1 Y200.0 Z0.3 F1500.0 E15 ; Draw the first line
G1 X0.4 Y200.0 Z0.3 F5000.0 ; Move to side a little
G1 X0.4 Y20 Z0.3 F1500.0 E30 ; Draw the second line
G92 E0 ; Reset Extruder
G1 Z2.0 F3000 ; Move Z Axis up little to prevent scratching of Heat Bed
G1 X5 Y20 Z0.3 F5000.0 ; Move over to prevent blob squish
G92 E0
G92 E0
G1 F2700 E-5
;LAYER_COUNT:196
;LAYER:0
M107
;MESH:allen_wrench_holder.stl
G0 F6000 X91.501 Y118.595 Z0.2
;TYPE:WALL-OUTER
G1 F2700 E0
G1 F1200 X91.363 Y118.692 E0.00561
G1 X91.33 Y118.694 E0.00671
G1 X90.155 Y118.699 E0.04579
G1 X90.032 Y118.636 E0.05039
G1 X89.85 Y118.328 E0.06229
G1 X89.427 Y117.591 E0.09055
G1 X89.422 Y117.417 E0.09634
G1 X89.716 Y116.908 E0.11589
G1 X90.025 Y116.382 E0.13618
G1 X90.087 Y116.332 E0.13883
G1 X90.456 Y116.307 E0.15113
G1 X91.305 Y116.3 E0.17937
G1 X91.452 Y116.346 E0.18449
G1 X91.504 Y116.405 E0.18711
G1 X92.077 Y117.405 E0.22544
G1 X92.103 Y117.522 E0.22943
G1 X92.076 Y117.606 E0.23236
G1 X91.501 Y118.595 E0.27041
G0 F6000 X91.855 Y118.801
G0 X91.666 Y119.012
G0 X90.129 Y119.111
G0 X90.13 Y119.099
;TYPE:WALL-INNER
G1 F1200 X89.875 Y119.018 E0.27931
G1 X89.674 Y118.824 E0.2886
G1 X89.071 Y117.774 E0.32887
G1 X89.005 Y117.497 E0.33835
G1 X89.077 Y117.212 E0.34812
G1 X89.681 Y116.175 E0.38804
G1 X89.863 Y115.999 E0.39646
G1 X89.902 Y115.978 E0.39793
G1 X90.152 Y115.91 E0.40655
G1 X91.305 Y115.9 E0.4449
G1 X91.448 Y115.916 E0.44968
G1 X91.695 Y116.028 E0.4587
G1 X91.851 Y116.206 E0.46658
G1 X92.424 Y117.206 E0.50491
G1 X92.501 Y117.451 E0.51345
G1 X92.427 Y117.8 E0.52532
G1 X91.847 Y118.796 E0.56365
G1 X91.73 Y118.94 E0.56982
G1 X91.432 Y119.086 E0.58086
G1 X91.332 Y119.094 E0.5842
G1 X90.13 Y119.099 E0.62418
G1 F2700 E-4.37582
G0 F6000 X90.129 Y119.111
G0 X89.976 Y121.185
G1 F2700 E0.62418
G0 F6000 X89.97 Y121.787
;TYPE:WALL-OUTER
G1 F1200 X90.189 Y121.798 E0.63147
G1 X144.754 Y121.8 E2.44631
G1 X145.146 Y121.777 E2.45937
G1 X145.446 Y121.735 E2.46944
G1 X145.69 Y121.68 E2.47776
G1 X146.261 Y121.485 E2.49783
G1 X146.582 Y121.327 E2.50973
G1 X146.811 Y121.191 E2.51859
G1 X147.08 Y121.001 E2.52954
G1 X147.353 Y120.768 E2.54148
G1 X147.54 Y120.576 E2.5504
G1 X147.753 Y120.328 E2.56127
G1 X147.959 Y120.034 E2.57321
G1 X148.091 Y119.804 E2.58203
G1 X148.238 Y119.507 E2.59305
G1 X148.364 Y119.174 E2.60489
G1 X148.457 Y118.828 E2.61681
G1 X148.506 Y118.566 E2.62567
G1 X148.546 Y118.14 E2.63991
G1 X148.549 Y117.486 E2.66166
G1 X148.549 Y117.029 E2.67686
G1 X148.522 Y116.56 E2.69248
G1 X148.482 Y116.288 E2.70163
G1 X148.415 Y116.017 E2.71091
G1 X148.235 Y115.489 E2.72947
G1 X148.077 Y115.168 E2.74137
G1 X147.937 Y114.933 E2.75046
G1 X147.751 Y114.67 E2.76118
G1 X147.518 Y114.397 E2.77312
G1 X147.326 Y114.21 E2.78203
G1 X147.078 Y113.997 E2.7929
G1 X146.787 Y113.793 E2.80472
G1 X146.368 Y113.563 E2.82062
G1 X145.926 Y113.389 E2.83642
G1 X145.343 Y113.248 E2.85637
G1 X144.867 Y113.203 E2.87227
G1 F1203 X138.242 Y113.202 E3.09207
G1 X131.617 Y113.201 E3.31187
G1 X131.135 Y113.203 E3.32786
G1 F1200 X107.013 Y113.201 E4.13016
G1 X90.415 Y113.201 E4.68221
G1 X90.013 Y113.208 E4.69558
G1 X89.73 Y113.238 E4.70505
G1 X89.452 Y113.287 E4.71444
G1 X89.026 Y113.406 E4.72915
G1 X88.785 Y113.496 E4.73771
G1 X88.527 Y113.614 E4.74714
G1 X88.214 Y113.793 E4.75913
G1 X87.999 Y113.942 E4.76783
G1 X87.751 Y114.142 E4.77843
G1 X87.554 Y114.325 E4.78737
G1 X87.373 Y114.523 E4.7963
G1 X87.19 Y114.759 E4.80623
G1 X86.92 Y115.173 E4.82267
G1 X86.793 Y115.428 E4.83214
G1 X86.659 Y115.762 E4.84411
G1 X86.558 Y116.116 E4.85636
G1 X86.497 Y116.407 E4.86625
G1 X86.465 Y116.689 E4.87569
G1 X86.452 Y116.929 E4.88368
G1 X86.451 Y117.994 E4.9191
G1 X86.476 Y118.404 E4.93276
G1 X86.509 Y118.657 E4.94125
G1 X86.571 Y118.943 E4.95098
G1 X86.674 Y119.284 E4.96283
G1 X86.789 Y119.561 E4.97281
G1 X86.922 Y119.831 E4.98282
G1 X87.078 Y120.089 E4.99284
G1 X87.246 Y120.327 E5.00253
G1 X87.477 Y120.597 E5.01435
G1 X87.828 Y120.927 E5.03038
G1 X88.066 Y121.105 E5.04026
G1 X88.315 Y121.269 E5.05018
G1 X88.631 Y121.437 E5.06208
G1 X89.074 Y121.613 E5.07794
G1 X89.421 Y121.708 E5.0899
G1 X89.706 Y121.759 E5.09953
G1 X89.97 Y121.787 E5.10836
G1 F2700 E0.10836
G0 F6000 X89.996 Y121.379
G0 X97.571 Y121.569
G0 X97.098 Y119.52
G0 X97.57 Y118.924
G1 F2700 E5.10836
G0 F6000 X97.149 Y118.845
G1 F1200 X96.999 Y118.948 E5.11441
G1 X96.963 Y118.95 E5.11561
G1 X95.525 Y118.945 E5.16344
G1 X95.418 Y118.914 E5.16715
G1 X95.216 Y118.604 E5.17945
G1 X94.644 Y117.598 E5.21794
G1 X94.619 Y117.482 E5.22189
G1 X94.644 Y117.4 E5.22474
G1 X95.352 Y116.156 E5.27235
G1 X95.501 Y116.052 E5.27839
G1 X95.537 Y116.05 E5.27959
G1 X96.975 Y116.055 E5.32742
G1 X97.082 Y116.086 E5.33112
G1 X97.272 Y116.372 E5.34254
G1 X97.865 Y117.406 E5.38219
G1 X97.891 Y117.523 E5.38618
G1 X97.865 Y117.607 E5.3891
G1 X97.149 Y118.845 E5.43667
G0 F6000 X97.57 Y118.924
G0 X97.502 Y119.288
G0 X97.194 Y119.477
G0 X95.578 Y119.433
G0 X95.523 Y119.345
;TYPE:WALL-INNER
G1 F1200 X95.203 Y119.252 E5.44775
G1 X95.003 Y119.042 E5.4574
G1 X94.309 Y117.817 E5.50422
G1 X94.221 Y117.553 E5.51348
G1 X94.296 Y117.202 E5.52542
G1 X95.004 Y115.958 E5.57302
G1 X95.257 Y115.718 E5.58462
G1 X95.432 Y115.658 E5.59078
G1 X95.539 Y115.65 E5.59435
G1 X96.977 Y115.655 E5.64217
G1 X97.296 Y115.748 E5.65323
G1 X97.495 Y115.956 E5.6628
G1 X98.212 Y117.207 E5.71076
G1 X98.29 Y117.451 E5.71928
G1 X98.214 Y117.802 E5.73122
G1 X97.495 Y119.045 E5.77898
G1 X97.263 Y119.271 E5.78976
G1 X96.964 Y119.35 E5.80004
G1 X95.523 Y119.345 E5.84797
G1 F2700 E0.84797
G0 F6000 X95.578 Y119.433
G0 X97.159 Y119.498
G0 X97.653 Y119.133
G0 X99.853 Y117.898
G0 X101.081 Y119.545
G0 X103.324 Y119.714
G0 X103.647 Y119.297
G1 F2700 E5.84797
G0 F6000 X103.294 Y119.092
;TYPE:WALL-OUTER
G1 F1200 X103.155 Y119.189 E5.85361
G1 X102.987 Y119.186 E5.8592
G1 X101.394 Y119.199 E5.91218
G1 X101.288 Y119.169 E5.91585
G1 X101.22 Y119.1 E5.91907
G1 X100.347 Y117.593 E5.97699
G1 X100.321 Y117.475 E5.98101
G1 X100.348 Y117.39 E5.98398
G1 X101.22 Y115.912 E6.04105
G1 X101.286 Y115.844 E6.04421
G1 X101.391 Y115.814 E6.04784
G1 X103.092 Y115.8 E6.10442
G1 X103.25 Y115.857 E6.11
G1 X103.537 Y116.335 E6.12855
G1 X104.153 Y117.408 E6.1697
G1 X104.179 Y117.525 E6.17368
G1 X104.153 Y117.609 E6.17661
G1 X103.294 Y119.092 E6.23361
G0 F6000 X103.647 Y119.297
G0 X103.324 Y119.714
G0 X101.393 Y119.609
G0 X101.394 Y119.599
;TYPE:WALL-INNER
G1 F1200 X101.076 Y119.509 E6.2446
G1 X100.874 Y119.3 E6.25427
G1 X100.001 Y117.793 E6.3122
G1 X99.923 Y117.547 E6.32078
G1 X99.997 Y117.198 E6.33265
G1 X100.876 Y115.709 E6.39016
G1 X101.074 Y115.505 E6.39961
G1 X101.388 Y115.414 E6.41048
G1 X103.092 Y115.4 E6.46716
G1 X103.309 Y115.439 E6.47449
G1 X103.51 Y115.553 E6.48218
G1 X103.884 Y116.136 E6.50522
G1 X104.5 Y117.209 E6.54637
G1 X104.578 Y117.451 E6.55483
G1 X104.504 Y117.8 E6.56669
G1 X103.64 Y119.292 E6.62404
G1 X103.42 Y119.511 E6.63436
G1 X103.12 Y119.591 E6.64469
G1 X102.99 Y119.586 E6.64901
G1 X101.394 Y119.599 E6.7021
G1 F2700 E1.7021
G0 F6000 X101.393 Y119.609
G0 X103.324 Y119.714
G0 X104.048 Y118.947
G0 X106.069 Y117.905
G0 X107.288 Y119.566
G0 X107.507 Y119.773
G0 X109.765 Y119.851
G1 F2700 E6.7021
G0 F6000 X109.764 Y119.44
;TYPE:WALL-OUTER
G1 F1200 X107.751 Y119.449 E6.76905
G1 X107.591 Y119.375 E6.77492
G1 X107.55 Y119.325 E6.77707
G1 X106.559 Y117.591 E6.84349
G1 X106.533 Y117.474 E6.84748
G1 X106.559 Y117.39 E6.8504
G1 X107.561 Y115.658 E6.91696
G1 X107.7 Y115.561 E6.92259
G1 X107.891 Y115.567 E6.92895
G1 X109.747 Y115.55 E6.99068
G1 X109.853 Y115.58 E6.99435
G1 X109.921 Y115.649 E6.99757
G1 X110.94 Y117.408 E7.06518
G1 X110.966 Y117.525 E7.06917
G1 X110.941 Y117.607 E7.07202
G1 X109.937 Y119.341 E7.13866
G1 X109.798 Y119.438 E7.1443
G1 X109.764 Y119.44 E7.14543
G0 F6000 X109.766 Y119.84
;TYPE:WALL-INNER
G1 F1200 X107.751 Y119.849 E7.21245
G1 X107.352 Y119.698 E7.22664
G1 X107.203 Y119.523 E7.23429
G1 X106.211 Y117.789 E7.30073
G1 X106.135 Y117.547 E7.30917
G1 X106.208 Y117.198 E7.32103
G1 X107.215 Y115.458 E7.38789
G1 X107.441 Y115.235 E7.39845
G1 X107.735 Y115.159 E7.40855
G1 X107.887 Y115.167 E7.41361
G1 X109.747 Y115.15 E7.47548
G1 X110.064 Y115.24 E7.48644
G1 X110.267 Y115.449 E7.49613
G1 X111.286 Y117.208 E7.56374
G1 X111.365 Y117.452 E7.57227
G1 X111.29 Y117.802 E7.58418
G1 X110.283 Y119.541 E7.65102
G1 X110.084 Y119.748 E7.66057
G1 X109.766 Y119.84 E7.67158
G1 F2700 E2.67158
G0 F6000 X109.765 Y119.851
G0 X110.018 Y119.797
G0 X110.873 Y118.884
G0 X113.563 Y118.886
G0 X114.649 Y120.294
G0 X114.965 Y120.36
G1 F2700 E7.67158
G0 F6000 X114.965 Y119.95
;TYPE:WALL-OUTER
G1 F1200 X114.858 Y119.92 E7.67527
G1 X114.791 Y119.851 E7.67847
G1 X113.484 Y117.589 E7.76536
G1 X113.458 Y117.472 E7.76935
G1 X113.484 Y117.387 E7.77231
G1 X114.771 Y115.161 E7.85783
G1 X114.91 Y115.064 E7.86346
G1 X114.944 Y115.062 E7.8646
G1 X117.536 Y115.05 E7.95081
G1 X117.656 Y115.087 E7.95498
G1 X117.729 Y115.161 E7.95844
G1 X119.016 Y117.412 E8.04468
G1 X119.042 Y117.528 E8.04864
G1 X119.016 Y117.612 E8.05156
G1 X117.73 Y119.839 E8.1371
G1 X117.571 Y119.948 E8.14351
G1 X117.536 Y119.95 E8.14467
G1 X114.965 Y119.95 E8.23018
G0 F6000 X114.965 Y120.35
;TYPE:WALL-INNER
G1 F1200 X114.645 Y120.258 E8.24126
G1 X114.445 Y120.051 E8.25083
G1 X113.138 Y117.789 E8.33772
G1 X113.06 Y117.545 E8.34624
G1 X113.134 Y117.194 E8.35817
G1 X114.425 Y114.961 E8.44396
G1 X114.624 Y114.754 E8.45351
G1 X114.841 Y114.67 E8.46125
G1 X114.942 Y114.662 E8.46462
G1 X117.536 Y114.65 E8.5509
G1 X117.837 Y114.73 E8.56126
G1 X118.076 Y114.962 E8.57234
G1 X119.364 Y117.214 E8.65862
G1 X119.44 Y117.454 E8.667
G1 X119.369 Y117.8 E8.67875
G1 X118.076 Y120.039 E8.76474
G1 X117.846 Y120.265 E8.77547
G1 X117.536 Y120.35 E8.78616
G1 X114.965 Y120.35 E8.87167
G1 F2700 E3.87167
G0 F6000 X114.965 Y120.36
G0 X117.758 Y120.464
G0 X118.013 Y120.322
G0 X118.91 Y118.957
G0 X121.509 Y118.972
G0 X122.573 Y120.44
G1 F2700 E8.87167
G0 F6000 X122.98 Y120.336
;TYPE:WALL-OUTER
G1 F1200 X121.408 Y117.586 E8.97702
G1 X121.382 Y117.47 E8.98098
G1 X121.408 Y117.386 E8.9839
G1 X122.98 Y114.663 E9.08848
G1 X123.144 Y114.552 E9.09506
G1 X123.179 Y114.55 E9.09623
G1 X126.321 Y114.55 E9.20073
G1 X126.444 Y114.589 E9.20503
G1 X126.52 Y114.664 E9.20858
G1 X128.092 Y117.414 E9.31393
G1 X128.111 Y117.569 E9.31913
G1 X128.092 Y117.615 E9.32078
G1 X126.52 Y120.337 E9.42533
G1 X126.356 Y120.448 E9.43191
G1 X126.321 Y120.45 E9.43308
G1 X123.179 Y120.45 E9.53758
G1 X123.056 Y120.411 E9.54188
G1 X122.98 Y120.336 E9.54543
G0 F6000 X123.179 Y120.887
;TYPE:WALL-INNER
G1 F1098.4 X122.885 Y120.775 E9.55686
G1 F1200 X122.632 Y120.534 E9.56848
G1 X121.06 Y117.784 E9.67384
G1 X120.984 Y117.544 E9.68221
G1 X121.055 Y117.198 E9.69396
G1 X122.634 Y114.463 E9.79899
G1 F1182.3 X122.857 Y114.235 E9.80976
G1 F1073.8 X123.068 Y114.118 E9.81873
G1 F1004.2 X123.179 Y114.113 E9.82314
G1 F1012.7 X126.321 Y114.113 E9.94698
G1 F1098.4 X126.615 Y114.225 E9.95841
G1 F1200 X126.868 Y114.466 E9.97003
G1 X128.439 Y117.216 E10.07537
G1 X128.519 Y117.506 E10.08538
G1 X128.497 Y117.678 E10.09115
G1 X128.438 Y117.815 E10.09611
G1 X126.866 Y120.537 E10.20065
G1 F1182.3 X126.643 Y120.766 E10.21145
G1 F1073.8 X126.432 Y120.882 E10.22039
G1 F1004.2 X126.321 Y120.887 E10.22481
G1 F1010.5 X123.179 Y120.887 E10.34891
G1 F2700 E5.34891
G0 F6000 X123.192 Y120.913
G0 X127.364 Y121.238
G0 X131.685 Y121.207
G0 X131.438 Y120.919
G1 F2700 E10.34891
G0 F6000 X131.835 Y120.585
;TYPE:WALL-OUTER
G1 F1200 X130.121 Y117.615 E10.46296
G1 X130.101 Y117.433 E10.46905
G1 X130.118 Y117.39 E10.47059
G1 X131.835 Y114.415 E10.58483
G1 X132.001 Y114.302 E10.59151
G1 X132.036 Y114.3 E10.59268
G1 X135.464 Y114.3 E10.7067
G1 X135.589 Y114.34 E10.71106
G1 X135.665 Y114.415 E10.71461
G1 X137.379 Y117.385 E10.82866
G1 X137.398 Y117.57 E10.83485
G1 X137.378 Y117.617 E10.83655
G1 X135.665 Y120.585 E10.95053
G1 X135.499 Y120.698 E10.95721
G1 X135.464 Y120.7 E10.95837
G1 X132.036 Y120.7 E11.07239
G1 X131.911 Y120.66 E11.07675
G1 X131.835 Y120.585 E11.0803
G0 F6000 X132.036 Y121.075
;TYPE:WALL-INNER
G1 F1283.4 X131.744 Y121.025 E11.08952
G1 F1203 X131.489 Y120.785 E11.10113
G1 F1200 X129.775 Y117.815 E11.21519
G1 X129.697 Y117.567 E11.22383
G1 X129.714 Y117.331 E11.2317
G1 X129.766 Y117.2 E11.23639
G1 X131.488 Y114.215 E11.35101
G1 F1218.3 X131.72 Y113.995 E11.36148
G1 F1304.3 X132.036 Y113.926 E11.37138
G1 F1375.4 X135.464 Y113.926 E11.47086
G1 F1286.9 X135.755 Y113.975 E11.48001
G1 F1203 X136.012 Y114.215 E11.49168
G1 F1200 X137.725 Y117.185 E11.60571
G1 X137.805 Y117.493 E11.6163
G1 X137.783 Y117.678 E11.62249
G1 X137.724 Y117.817 E11.62752
G1 X136.011 Y120.785 E11.74149
G1 F1218.3 X135.78 Y121.005 E11.75194
G1 F1300.8 X135.464 Y121.075 E11.76188
G1 F1371.4 X132.036 Y121.075 E11.86164
G1 F2700 E6.86164
G0 F6000 X132.081 Y121.152
G0 X135.616 Y121.182
G0 X140.775 Y121.214
G0 X140.787 Y120.945
G1 F2700 E11.86164
G0 F6000 X141.19 Y120.833
;TYPE:WALL-OUTER
G1 F1200 X139.333 Y117.617 E11.98516
G1 X139.314 Y117.428 E11.99147
G1 X139.333 Y117.383 E11.9931
G1 X141.19 Y114.166 E12.11664
G1 X141.359 Y114.052 E12.12342
G1 X141.393 Y114.05 E12.12456
G1 X145.126 Y114.05 E12.24872
G1 X145.233 Y114.091 E12.25253
G1 X145.505 Y114.504 E12.26897
G1 X147.169 Y117.385 E12.37963
G1 X147.191 Y117.552 E12.38523
G1 X147.019 Y117.875 E12.39741
G1 X145.31 Y120.834 E12.51106
G1 X145.195 Y120.931 E12.51606
G1 X144.741 Y120.95 E12.53118
G1 X141.393 Y120.95 E12.64253
G1 F1203 X141.267 Y120.908 E12.64694
G1 X141.19 Y120.833 E12.6505
G0 F6000 X141.393 Y121.375
;TYPE:WALL-INNER
G1 F1066.7 X144.741 Y121.375 E12.77578
G1 F1093.4 X145.107 Y121.364 E12.78914
G1 F1090.9 X145.38 Y121.314 E12.7993
G0 F6000 X145.656 Y121.034
G1 F1140.1 X145.437 Y121.278 E12.81077
G1 F1073.8 X145.38 Y121.314 E12.81328
G1 F1126.8 X145.806 Y121.217 E12.82876
G1 F1200 X146.107 Y121.115 E12.83933
G1 X146.392 Y120.974 E12.8499
G1 X146.818 Y120.696 E12.86682
G1 X147.081 Y120.474 E12.87827
G1 X147.42 Y120.102 E12.89501
G1 X147.608 Y119.838 E12.90579
G1 X147.859 Y119.37 E12.92345
G1 X147.974 Y119.074 E12.93401
G1 X148.062 Y118.755 E12.94502
G1 X148.132 Y118.331 E12.95931
G1 F1179.4 X148.141 Y117.987 E12.97096
G1 F1071.4 X148.107 Y117.67 E12.98283
G1 F1000 X148.11 Y117.5 E12.98962
G1 F1093.4 X148.149 Y117.485 E12.99115
G1 F1200 X148.149 Y117.028 E13.00635
G1 X148.121 Y116.566 E13.02174
G1 X148.05 Y116.194 E13.03434
G1 X147.876 Y115.676 E13.05251
G1 X147.733 Y115.375 E13.06359
G1 X147.449 Y114.936 E13.08098
G1 X147.237 Y114.684 E13.09194
G1 X146.849 Y114.327 E13.10947
G1 X146.575 Y114.133 E13.12064
G1 X146.198 Y113.926 E13.13495
G1 X145.819 Y113.778 E13.14848
G1 F1162.2 X145.445 Y113.698 E13.16161
G1 F1116.3 X145.355 Y113.679 E13.1649
G1 F1151.1 X145.654 Y113.962 E13.17918
G1 F1200 X147.519 Y117.191 E13.3032
G1 X147.596 Y117.485 E13.31331
G1 F1095.9 X147.634 Y117.519 E13.31516
G1 F1002.1 X147.628 Y117.629 E13.31955
G1 F1088.4 X147.46 Y117.908 E13.3315
G1 F1200 X147.183 Y118.39 E13.34999
G1 X145.656 Y121.034 E13.45154
G0 F6000 X145.717 Y121.034
G0 X147.726 Y117.677
G0 X147.726 Y117.323
G0 X145.645 Y113.712
G0 X145.355 Y113.679
G1 F1121.5 X145.164 Y113.641 E13.45847
G1 F1106 X144.848 Y113.626 E13.46988
G1 F1073.8 X141.393 Y113.626 E13.5983
G1 F1054.9 X141.286 Y113.628 E13.60235
G0 F6000 X141.329 Y113.552
G0 X132.134 Y113.952
G0 X131.815 Y113.775
G0 X131.498 Y113.962
G0 X129.56 Y117.318
G0 X129.56 Y117.682
G0 X131.346 Y120.861
G0 X131.685 Y121.207
G0 X122.723 Y121.39
G0 X122.723 Y121.398
G1 F1098.4 X123.179 Y121.362 E13.61897
G1 F1010.5 X126.321 Y121.362 E13.74307
G1 F1076.2 X126.777 Y121.389 E13.76001
G1 F1156.6 X126.806 Y121.393 E13.76102
G1 F1182.3 X127.364 Y121.399 E13.77986
