;FLAVOR:Marlin
;TIME:14190
;Filament used: 9.71731m
;Layer height: 0.2
;MINX:21.5
;MINY:78.514
;MINZ:0.2
;MAXX:213.5
;MAXY:156.486
;MAXZ:18.72
;Generated with Cura_SteamEngine 5.0.0
M140 S50
M105
M190 S50
M104 S200
M105
M109 S200
M82 ;absolute extrusion mode
; Ender 3 Custom Start G-code
G92 E0 ; Reset Extruder
G28 ; Home all axes
G1 Z2.0 F3000 ; Move Z Axis up little to prevent scratching of Heat Bed
G1 X0.1 Y20 Z0.3 F5000.0 ; Move to start position
G1 X0.1 Y200.0 Z0.3 F1500.0 E15 ; Draw the first line
G1 X0.4 Y200.0 Z0.3 F5000.0 ; Move to side a little
G1 X0.4 Y20 Z0.3 F1500.0 E30 ; Draw the second line
G92 E0 ; Reset Extruder
G1 Z2.0 F3000 ; Move Z Axis up little to prevent scratching of Heat Bed
G1 X5 Y20 Z0.3 F5000.0 ; Move over to prevent blob squish
G92 E0
G92 E0
G1 F2700 E-5
;LAYER_COUNT:87
;LAYER:0
M107
G0 F6000 X30.529 Y79.278 Z0.2
G0 X23.068 Y85.743
;TYPE:SKIRT
G1 F2700 E0
G1 F1200 X23.348 Y85.234 E0.01932
G1 X23.835 Y84.432 E0.05053
G1 X24.388 Y83.675 E0.08171
G1 X24.834 Y83.15 E0.10462
G1 X25.152 Y82.799 E0.12037
G1 X25.811 Y82.132 E0.15156
G1 X26.756 Y81.347 E0.19242
G1 X27.196 Y81.021 E0.21063
G1 X27.972 Y80.495 E0.24182
G1 X29.172 Y79.854 E0.28706
G1 X29.66 Y79.631 E0.30491
G1 X30.529 Y79.278 E0.33611
G1 X31.836 Y78.9 E0.38136
G1 X32.293 Y78.798 E0.39693
G1 X33.216 Y78.633 E0.42812
G1 X34.474 Y78.536 E0.47008
G1 X35.711 Y78.514 E0.51123
G1 X199.746 Y78.519 E5.96706
G1 X200.459 Y78.53 E5.99078
G1 X201.395 Y78.585 E6.02196
G1 X202.664 Y78.788 E6.06471
G1 X203.157 Y78.897 E6.0815
G1 X204.063 Y79.139 E6.11269
G1 X205.343 Y79.628 E6.15826
G1 X205.817 Y79.844 E6.17559
G1 X206.653 Y80.269 E6.20678
G1 X207.664 Y80.913 E6.24665
G1 X208.024 Y81.171 E6.26138
G1 X208.762 Y81.749 E6.29256
G1 X209.635 Y82.583 E6.33272
G1 X210.004 Y82.976 E6.35065
G1 X210.616 Y83.686 E6.38182
G1 X211.402 Y84.82 E6.42771
G1 X211.664 Y85.254 E6.44457
G1 X212.114 Y86.077 E6.47577
G1 X212.632 Y87.312 E6.52032
G1 X212.808 Y87.816 E6.53807
G1 X213.079 Y88.714 E6.56927
G1 X213.273 Y89.632 E6.60048
G1 X213.344 Y90.127 E6.61711
G1 X213.411 Y90.683 E6.63573
G1 X213.488 Y91.793 E6.67274
G1 X213.5 Y92.534 E6.69739
G1 X213.499 Y142.451 E8.35764
G1 X213.489 Y143.148 E8.38082
G1 X213.433 Y144.105 E8.41271
G1 X213.384 Y144.586 E8.42879
G1 X213.25 Y145.514 E8.45997
G1 X212.966 Y146.668 E8.4995
G1 X212.819 Y147.152 E8.51632
G1 X212.509 Y148.037 E8.54751
G1 X211.932 Y149.257 E8.5924
G1 X211.652 Y149.766 E8.61172
G1 X211.165 Y150.568 E8.64293
G1 X210.612 Y151.325 E8.67411
G1 X210.166 Y151.85 E8.69702
G1 X209.848 Y152.201 E8.71277
G1 X209.189 Y152.868 E8.74396
G1 X208.254 Y153.646 E8.78442
G1 X207.815 Y153.972 E8.8026
G1 X207.039 Y154.499 E8.8338
G1 X205.821 Y155.149 E8.87972
G1 X205.332 Y155.372 E8.8976
G1 X204.463 Y155.725 E8.92879
G1 X203.164 Y156.1 E8.97376
G1 X202.707 Y156.202 E8.98934
G1 X201.784 Y156.367 E9.02052
G1 X200.526 Y156.464 E9.06249
G1 X199.289 Y156.486 E9.10364
G1 X35.254 Y156.481 E14.55946
G1 X34.541 Y156.47 E14.58318
G1 X33.605 Y156.415 E14.61437
G1 X32.336 Y156.212 E14.65711
G1 X31.843 Y156.103 E14.6739
G1 X30.937 Y155.861 E14.70509
G1 X29.654 Y155.37 E14.75078
G1 X29.176 Y155.152 E14.76826
G1 X28.34 Y154.727 E14.79945
G1 X27.313 Y154.071 E14.83998
G1 X26.956 Y153.814 E14.85461
G1 X26.219 Y153.234 E14.88581
G1 X25.355 Y152.407 E14.92558
G1 X24.985 Y152.012 E14.94359
G1 X24.374 Y151.301 E14.97477
G1 X23.594 Y150.174 E15.02035
G1 X23.334 Y149.743 E15.03709
G1 X22.884 Y148.92 E15.06829
G1 X22.368 Y147.688 E15.11272
G1 X22.192 Y147.184 E15.13047
G1 X21.921 Y146.286 E15.16167
G1 X21.727 Y145.368 E15.19288
G1 X21.654 Y144.855 E15.21011
G1 X21.587 Y144.291 E15.229
G1 X21.512 Y143.202 E15.26531
G1 X21.5 Y142.466 E15.28979
G1 X21.501 Y92.549 E16.95004
G1 X21.511 Y91.851 E16.97326
G1 X21.567 Y90.892 E17.00521
G1 X21.616 Y90.412 E17.02125
G1 X21.751 Y89.484 E17.05244
G1 X22.034 Y88.332 E17.0919
G1 X22.181 Y87.848 E17.10872
G1 X22.491 Y86.963 E17.13991
G1 X23.068 Y85.743 E17.1848
G1 F2700 E12.1848
G0 F6000 X22.301 Y92.561
G1 F2700 E17.1848
G1 F1200 X22.311 Y91.863 E17.20802
G1 X22.363 Y90.973 E17.23767
G1 X22.412 Y90.493 E17.25372
G1 X22.543 Y89.6 E17.28374
G1 X22.799 Y88.565 E17.3192
G1 X22.946 Y88.081 E17.33602
G1 X23.247 Y87.229 E17.36608
G1 X23.769 Y86.129 E17.40657
G1 X24.049 Y85.62 E17.42589
G1 X24.519 Y84.849 E17.45593
G1 X25.055 Y84.122 E17.48597
G1 X25.427 Y83.688 E17.50498
G1 X25.745 Y83.337 E17.52073
G1 X26.38 Y82.695 E17.55077
G1 X27.232 Y81.989 E17.58757
G1 X27.672 Y81.663 E17.60578
G1 X28.421 Y81.158 E17.63583
G1 X29.505 Y80.582 E17.67666
G1 X29.993 Y80.359 E17.6945
G1 X30.83 Y80.02 E17.72454
G1 X32.01 Y79.681 E17.76537
G1 X32.467 Y79.579 E17.78094
G1 X33.356 Y79.421 E17.81098
G1 X34.489 Y79.336 E17.84877
G1 X35.711 Y79.314 E17.88942
G1 X199.733 Y79.319 E23.34481
G1 X200.446 Y79.33 E23.36853
G1 X201.348 Y79.384 E23.39858
G1 X202.491 Y79.57 E23.4371
G1 X202.984 Y79.679 E23.45389
G1 X203.856 Y79.912 E23.48391
G1 X205.012 Y80.356 E23.5251
G1 X205.486 Y80.572 E23.54242
G1 X206.29 Y80.983 E23.57246
G1 X207.198 Y81.563 E23.60829
G1 X207.558 Y81.821 E23.62302
G1 X208.268 Y82.379 E23.65306
G1 X209.052 Y83.13 E23.68917
G1 X209.421 Y83.523 E23.7071
G1 X210.009 Y84.208 E23.73712
G1 X210.717 Y85.233 E23.77856
G1 X210.979 Y85.667 E23.79542
G1 X211.411 Y86.461 E23.82548
G1 X211.877 Y87.576 E23.86568
G1 X212.053 Y88.08 E23.88343
G1 X212.312 Y88.945 E23.91346
G1 X212.55 Y90.223 E23.9567
G1 X212.617 Y90.779 E23.97533
G1 X212.688 Y91.808 E24.00963
G1 X212.7 Y92.534 E24.03378
G1 X212.699 Y142.439 E25.69363
G1 X212.689 Y143.136 E25.71682
G1 X212.637 Y144.024 E25.7464
G1 X212.588 Y144.505 E25.76248
G1 X212.457 Y145.398 E25.7925
G1 X212.201 Y146.435 E25.82803
G1 X212.054 Y146.919 E25.84485
G1 X211.753 Y147.771 E25.87491
G1 X211.231 Y148.871 E25.9154
G1 X210.951 Y149.38 E25.93472
G1 X210.481 Y150.151 E25.96476
G1 X209.945 Y150.878 E25.9948
G1 X209.573 Y151.312 E26.01381
G1 X209.255 Y151.663 E26.02956
G1 X208.62 Y152.305 E26.0596
G1 X207.777 Y153.004 E26.09602
G1 X207.338 Y153.33 E26.11421
G1 X206.59 Y153.836 E26.14424
G1 X205.489 Y154.422 E26.18573
G1 X205 Y154.645 E26.2036
G1 X204.163 Y154.983 E26.23362
G1 X202.99 Y155.319 E26.27421
G1 X202.533 Y155.421 E26.28978
G1 X201.644 Y155.579 E26.31981
G1 X200.511 Y155.664 E26.3576
G1 X199.289 Y155.686 E26.39825
G1 X35.267 Y155.681 E31.85365
G1 X34.554 Y155.67 E31.87736
G1 X33.652 Y155.616 E31.90742
G1 X32.509 Y155.43 E31.94594
G1 X32.016 Y155.321 E31.96273
G1 X31.144 Y155.088 E31.99275
G1 X29.986 Y154.642 E32.03402
G1 X29.508 Y154.424 E32.0515
G1 X28.703 Y154.014 E32.08154
G1 X27.781 Y153.422 E32.11799
G1 X27.424 Y153.165 E32.13262
G1 X26.715 Y152.606 E32.16265
G1 X25.939 Y151.86 E32.19845
G1 X25.569 Y151.465 E32.21645
G1 X24.981 Y150.779 E32.2465
G1 X24.279 Y149.761 E32.28763
G1 X24.019 Y149.33 E32.30437
G1 X23.587 Y148.537 E32.33441
G1 X23.123 Y147.424 E32.37451
G1 X22.947 Y146.92 E32.39227
G1 X22.688 Y146.055 E32.4223
G1 X22.448 Y144.76 E32.46611
G1 X22.381 Y144.196 E32.485
G1 X22.312 Y143.187 E32.51863
G1 X22.3 Y142.466 E32.54262
G1 X22.301 Y92.561 E34.20246
G0 F6000 X21.901 Y92.555
G1 F1200 X21.911 Y91.857 E34.22568
G1 X21.965 Y90.933 E34.25647
G1 X22.014 Y90.453 E34.27252
G1 X22.147 Y89.542 E34.30314
G1 X22.416 Y88.449 E34.34057
G1 X22.563 Y87.965 E34.3574
G1 X22.869 Y87.096 E34.38804
G1 X23.418 Y85.936 E34.43073
G1 X23.698 Y85.427 E34.45005
G1 X24.177 Y84.64 E34.48069
G1 X24.722 Y83.898 E34.51131
G1 X25.13 Y83.419 E34.53224
G1 X25.448 Y83.068 E34.54799
G1 X26.096 Y82.413 E34.57864
G1 X26.994 Y81.668 E34.61745
G1 X27.434 Y81.342 E34.63566
G1 X28.197 Y80.827 E34.66628
G1 X29.338 Y80.218 E34.70929
G1 X29.826 Y79.995 E34.72714
G1 X30.68 Y79.649 E34.75779
G1 X31.923 Y79.291 E34.80081
G1 X32.38 Y79.189 E34.81638
G1 X33.286 Y79.027 E34.84699
G1 X34.482 Y78.936 E34.88689
G1 X35.711 Y78.914 E34.92777
G1 X199.74 Y78.919 E40.3834
G1 X200.453 Y78.93 E40.40711
G1 X201.372 Y78.984 E40.43773
G1 X202.577 Y79.179 E40.47833
G1 X203.07 Y79.288 E40.49513
G1 X203.96 Y79.526 E40.52577
G1 X205.178 Y79.992 E40.56914
G1 X205.652 Y80.208 E40.58647
G1 X206.472 Y80.626 E40.61708
G1 X207.431 Y81.238 E40.65492
G1 X207.791 Y81.496 E40.66965
G1 X208.515 Y82.064 E40.70026
G1 X209.344 Y82.856 E40.73839
G1 X209.713 Y83.249 E40.75632
G1 X210.313 Y83.947 E40.78693
G1 X211.06 Y85.027 E40.83061
G1 X211.322 Y85.461 E40.84747
G1 X211.763 Y86.269 E40.87809
G1 X212.254 Y87.444 E40.92044
G1 X212.43 Y87.948 E40.9382
G1 X212.696 Y88.83 E40.96884
G1 X212.947 Y90.175 E41.01435
G1 X213.014 Y90.731 E41.03297
G1 X213.088 Y91.801 E41.06865
G1 X213.1 Y92.534 E41.09303
G1 X213.099 Y142.445 E42.75308
G1 X213.089 Y143.142 E42.77626
G1 X213.035 Y144.064 E42.80698
G1 X212.986 Y144.545 E42.82306
G1 X212.853 Y145.456 E42.85368
G1 X212.584 Y146.551 E42.89118
G1 X212.437 Y147.035 E42.90801
G1 X212.131 Y147.904 E42.93865
G1 X211.582 Y149.064 E42.98133
G1 X211.302 Y149.573 E43.00066
G1 X210.823 Y150.36 E43.0313
G1 X210.278 Y151.102 E43.06192
G1 X209.87 Y151.581 E43.08285
G1 X209.552 Y151.932 E43.0986
G1 X208.904 Y152.587 E43.12925
G1 X208.016 Y153.325 E43.16765
G1 X207.577 Y153.651 E43.18584
G1 X206.814 Y154.167 E43.21647
G1 X205.655 Y154.785 E43.26016
G1 X205.166 Y155.008 E43.27803
G1 X204.313 Y155.354 E43.30865
G1 X203.077 Y155.709 E43.35142
G1 X202.62 Y155.811 E43.367
G1 X201.714 Y155.973 E43.39761
G1 X200.518 Y156.064 E43.4375
G1 X199.289 Y156.086 E43.47838
G1 X35.26 Y156.081 E48.93401
G1 X34.547 Y156.07 E48.95773
G1 X33.628 Y156.016 E48.98835
G1 X32.423 Y155.821 E49.02895
G1 X31.93 Y155.712 E49.04574
G1 X31.04 Y155.474 E49.07638
G1 X29.82 Y155.006 E49.11984
G1 X29.342 Y154.788 E49.13732
G1 X28.521 Y154.37 E49.16796
G1 X27.547 Y153.747 E49.20641
G1 X27.19 Y153.49 E49.22104
G1 X26.467 Y152.92 E49.25167
G1 X25.647 Y152.134 E49.28944
G1 X25.277 Y151.739 E49.30745
G1 X24.677 Y151.04 E49.33808
G1 X23.937 Y149.967 E49.38144
G1 X23.677 Y149.536 E49.39818
G1 X23.236 Y148.728 E49.4288
G1 X22.746 Y147.556 E49.47105
G1 X22.57 Y147.052 E49.4888
G1 X22.304 Y146.17 E49.51944
G1 X22.116 Y145.269 E49.55005
G1 X22.051 Y144.807 E49.56557
G1 X21.984 Y144.243 E49.58446
G1 X21.912 Y143.194 E49.61943
G1 X21.9 Y142.466 E49.64365
G1 X21.901 Y92.555 E51.3037
G1 F2700 E46.3037
;MESH:ScrewSizer16.stl
G0 F6000 X39.498 Y113.461
G0 X38.5 Y114.914
G0 X37.596 Y116.48
G0 X37.036 Y118.201
G0 X36.847 Y120
G0 X37.036 Y121.799
G0 X37.596 Y123.52
G0 X38.5 Y125.086
G0 X39.711 Y126.429
G0 X41.173 Y127.493
G0 X42.827 Y128.23
G0 X44.595 Y128.605
G0 X46.405 Y128.605
G0 X47.996 Y128.268
G0 X49.81 Y127.567
G1 F2700 E51.3037
G0 F6000 X49.645 Y127.193
;TYPE:WALL-OUTER
G1 F1200 X48.066 Y127.895 E51.36117
G1 X46.379 Y128.254 E51.41854
G1 X46.344 Y128.256 E51.4197
G1 X44.635 Y128.255 E51.47655
G1 X43.268 Y127.967 E51.52301
G1 X42.935 Y127.895 E51.53434
G1 X41.368 Y127.199 E51.59137
G1 X41.332 Y127.178 E51.59276
G1 X39.961 Y126.179 E51.64918
G1 X39.93 Y126.151 E51.65057
G1 X38.798 Y124.896 E51.70678
G1 X38.773 Y124.862 E51.70818
G1 X37.927 Y123.395 E51.76451
G1 X37.91 Y123.357 E51.76589
G1 X37.385 Y121.743 E51.82234
G1 X37.377 Y121.702 E51.82373
G1 X37.2 Y120.002 E51.88058
G1 X37.377 Y118.298 E51.93756
G1 X37.385 Y118.257 E51.93895
G1 X37.91 Y116.642 E51.99543
G1 X37.927 Y116.604 E51.99682
G1 X38.773 Y115.138 E52.05311
G1 X38.798 Y115.104 E52.05452
G1 X39.93 Y113.849 E52.11073
G1 X39.961 Y113.821 E52.11212
G1 X41.351 Y112.809 E52.16931
G1 X42.914 Y112.113 E52.22621
G1 X42.954 Y112.1 E52.22761
G1 X44.639 Y111.744 E52.28489
G1 X46.372 Y111.745 E52.34253
G1 X48.06 Y112.103 E52.39992
G1 X49.631 Y112.8 E52.45709
G1 X49.667 Y112.821 E52.45847
G1 X51.059 Y113.837 E52.51579
G1 X52.212 Y115.115 E52.57304
G1 X52.227 Y115.138 E52.57395
G1 X53.078 Y116.614 E52.63062
G1 X53.221 Y117.046 E52.64576
G1 X53.621 Y118.28 E52.6889
G1 X53.8 Y119.999 E52.74639
G1 X53.645 Y121.494 E52.79638
G1 X53.615 Y121.743 E52.80472
G1 X53.09 Y123.357 E52.86117
G1 X53.073 Y123.395 E52.86255
G1 X52.219 Y124.874 E52.91936
G1 X52.202 Y124.896 E52.92028
G1 X51.061 Y126.161 E52.97694
G1 X51.039 Y126.179 E52.97789
G1 X49.645 Y127.193 E53.03522
G0 F6000 X49.833 Y127.546
;TYPE:WALL-INNER
G1 F1200 X49.794 Y127.565 E53.03666
G1 X48.248 Y128.253 E53.09294
G1 X48.129 Y128.291 E53.0971
G1 X46.448 Y128.648 E53.15426
G1 X46.344 Y128.656 E53.15773
G1 X44.656 Y128.656 E53.21387
G1 X44.531 Y128.643 E53.21805
G1 X42.871 Y128.291 E53.27449
G1 X42.752 Y128.253 E53.27864
G1 X41.206 Y127.565 E53.33493
G1 X41.096 Y127.501 E53.33916
G1 X39.725 Y126.503 E53.39556
G1 X39.633 Y126.419 E53.3997
G1 X38.501 Y125.164 E53.45592
G1 X38.427 Y125.062 E53.46011
G1 X37.581 Y123.595 E53.51643
G1 X37.53 Y123.481 E53.52059
G1 X37.005 Y121.867 E53.57704
G1 X36.979 Y121.744 E53.58122
G1 X36.803 Y120.065 E53.63737
G1 X36.803 Y119.939 E53.64156
G1 X36.979 Y118.256 E53.69784
G1 X37.005 Y118.133 E53.70202
G1 X37.53 Y116.518 E53.7585
G1 X37.581 Y116.404 E53.76266
G1 X38.427 Y114.938 E53.81895
G1 X38.501 Y114.836 E53.82314
G1 X39.633 Y113.581 E53.87936
G1 X39.725 Y113.498 E53.88348
G1 X41.097 Y112.498 E53.93995
G1 X41.207 Y112.434 E53.94418
G1 X42.752 Y111.747 E54.00042
G1 X42.871 Y111.709 E54.00457
G1 X44.531 Y111.356 E54.06102
G1 X44.656 Y111.344 E54.0652
G1 X46.386 Y111.345 E54.12274
G1 X46.469 Y111.357 E54.12552
G1 X48.17 Y111.719 E54.18337
G1 X48.248 Y111.747 E54.18612
G1 X49.793 Y112.434 E54.24236
G1 X49.903 Y112.498 E54.24659
G1 X51.299 Y113.516 E54.30406
G1 X51.367 Y113.581 E54.30719
G1 X52.528 Y114.87 E54.36489
G1 X52.573 Y114.938 E54.3676
G1 X53.436 Y116.434 E54.42504
G1 X53.601 Y116.922 E54.44218
G1 X54.001 Y118.151 E54.48516
G1 X54.043 Y118.466 E54.49573
G1 X54.198 Y119.945 E54.54519
G1 X54.197 Y120.064 E54.54915
G1 X54.021 Y121.744 E54.60534
G1 X53.995 Y121.867 E54.60952
G1 X53.47 Y123.481 E54.66597
G1 X53.419 Y123.595 E54.67012
G1 X52.551 Y125.098 E54.72785
G1 X52.499 Y125.164 E54.73064
G1 X51.339 Y126.448 E54.7882
G1 X51.275 Y126.502 E54.79098
G1 X49.87 Y127.525 E54.84879
G1 X49.833 Y127.546 E54.8502
G1 F2700 E49.8502
G0 F6000 X49.836 Y127.555
G0 X49.365 Y127.746
G0 X46.506 Y128.82
G0 X46.507 Y145.053
G0 X34.782 Y144.873
G1 F2700 E54.8502
G0 F6000 X34.742 Y145.282
;TYPE:WALL-OUTER
G1 F1200 X200.238 Y145.286 E60.35462
G1 X200.693 Y145.189 E60.37009
G1 X201.131 Y144.998 E60.38599
G1 X201.525 Y144.718 E60.40206
G1 X201.864 Y144.346 E60.4188
G1 X202.097 Y143.94 E60.43437
G1 X202.248 Y143.48 E60.45048
G1 X202.3 Y142.988 E60.46693
G1 X202.3 Y92.137 E62.15824
G1 X202.287 Y91.884 E62.16667
G1 X202.248 Y91.519 E62.17888
G1 X202.1 Y91.061 E62.19489
G1 X201.863 Y90.656 E62.21049
G1 X201.541 Y90.294 E62.22661
G1 X201.166 Y90.022 E62.24201
G1 X200.727 Y89.822 E62.25806
G1 X200.258 Y89.719 E62.27403
G1 X185.811 Y89.718 E62.75454
G1 X34.762 Y89.715 E67.77845
G1 X34.307 Y89.811 E67.79392
G1 X33.869 Y90.002 E67.80981
G1 X33.475 Y90.282 E67.82589
G1 X33.136 Y90.654 E67.84263
G1 X32.903 Y91.06 E67.85819
G1 X32.752 Y91.52 E67.8743
G1 X32.701 Y92.012 E67.89075
G1 X32.7 Y142.99 E69.58628
G1 X32.752 Y143.481 E69.60271
G1 X32.9 Y143.939 E69.61872
G1 X33.137 Y144.344 E69.63432
G1 X33.459 Y144.706 E69.65044
G1 X33.834 Y144.978 E69.66584
G1 X34.273 Y145.178 E69.68189
G1 X34.742 Y145.282 E69.69787
G0 F6000 X34.786 Y144.882
;TYPE:WALL-INNER
G1 F1200 X200.196 Y144.886 E75.19943
G1 X200.571 Y144.806 E75.21218
G1 X200.933 Y144.648 E75.22532
G1 X201.258 Y144.416 E75.2386
G1 X201.539 Y144.109 E75.25244
G1 X201.729 Y143.776 E75.26519
G1 X201.854 Y143.396 E75.2785
G1 X201.9 Y142.967 E75.29285
G1 X201.9 Y92.137 E76.98346
G1 X201.876 Y91.802 E76.99463
G1 X201.795 Y91.42 E77.00762
G1 X201.631 Y91.051 E77.02105
G1 X201.416 Y90.755 E77.03322
G1 X201.113 Y90.478 E77.04687
G1 X200.799 Y90.295 E77.05896
G1 X200.411 Y90.162 E77.0726
G1 X200.013 Y90.119 E77.08592
G1 X185.811 Y90.118 E77.55828
G1 X34.804 Y90.115 E82.58079
G1 X34.429 Y90.194 E82.59354
G1 X34.067 Y90.352 E82.60667
G1 X33.742 Y90.583 E82.61993
G1 X33.461 Y90.891 E82.6338
G1 X33.271 Y91.224 E82.64655
G1 X33.146 Y91.604 E82.65986
G1 X33.101 Y92.033 E82.67421
G1 X33.1 Y142.969 E84.36834
G1 X33.146 Y143.398 E84.38269
G1 X33.268 Y143.775 E84.39587
G1 X33.462 Y144.108 E84.40869
G1 X33.729 Y144.408 E84.42205
G1 X34.036 Y144.63 E84.43465
