;FLAVOR:Marlin
;TIME:6476
;Filament used: 3.72329m
;Layer height: 0.2
;MINX:80.63
;MINY:98.409
;MINZ:0.2
;MAXX:147.297
;MAXY:136.59
;MAXZ:48
;Generated with Cura_SteamEngine 5.0.0
M140 S50
M105
M190 S50
M104 S200
M105
M109 S200
M82 ;absolute extrusion mode
; Ender 3 Custom Start G-code
G92 E0 ; Reset Extruder
G28 ; Home all axes
G1 Z2.0 F3000 ; Move Z Axis up little to prevent scratching of Heat Bed
G1 X0.1 Y20 Z0.3 F5000.0 ; Move to start position
G1 X0.1 Y200.0 Z0.3 F1500.0 E15 ; Draw the first line
G1 X0.4 Y200.0 Z0.3 F5000.0 ; Move to side a little
G1 X0.4 Y20 Z0.3 F1500.0 E30 ; Draw the second line
G92 E0 ; Reset Extruder
G1 Z2.0 F3000 ; Move Z Axis up little to prevent scratching of Heat Bed
G1 X5 Y20 Z0.3 F5000.0 ; Move over to prevent blob squish
G92 E0
G92 E0
G1 F2700 E-5
;LAYER_COUNT:240
;LAYER:0
M107
G0 F6000 X85.433 Y102.621 Z0.2
G0 X80.63 Y113.057
;TYPE:SKIRT
G1 F2700 E0
G1 F1200 X80.645 Y112.294 E0.02538
G1 X80.704 Y111.358 E0.05658
G1 X80.825 Y110.515 E0.0849
G1 X80.91 Y110.054 E0.10049
G1 X81.12 Y109.14 E0.13168
G1 X81.406 Y108.246 E0.1629
G1 X81.476 Y108.056 E0.16964
G1 X81.838 Y107.191 E0.20083
G1 X82.243 Y106.408 E0.23015
G1 X82.417 Y106.103 E0.24183
G1 X82.917 Y105.309 E0.27303
G1 X83.424 Y104.631 E0.30119
G1 X83.556 Y104.468 E0.30817
G1 X84.176 Y103.765 E0.33934
G1 X84.722 Y103.233 E0.3647
G1 X85.433 Y102.621 E0.3959
G1 X86.088 Y102.138 E0.42297
G1 X86.874 Y101.627 E0.45415
G1 X87.589 Y101.239 E0.48121
G1 X87.795 Y101.137 E0.48885
G1 X88.652 Y100.757 E0.52003
G1 X89.362 Y100.503 E0.54511
G1 X90.262 Y100.239 E0.57631
G1 X90.922 Y100.097 E0.59876
G1 X91.178 Y100.05 E0.60742
G1 X92.275 Y99.905 E0.64422
G1 X92.977 Y99.85 E0.66764
G1 X115.542 Y98.479 E1.41954
G1 X116.947 Y98.418 E1.46632
G1 X117.422 Y98.409 E1.48212
G1 X117.933 Y98.411 E1.49911
G1 X118.586 Y98.429 E1.52084
G1 X119.077 Y98.454 E1.53719
G1 X119.768 Y98.504 E1.56024
G1 X120.281 Y98.553 E1.57738
G1 X120.966 Y98.635 E1.60032
G1 X121.467 Y98.707 E1.61716
G1 X122.085 Y98.81 E1.638
G1 X122.546 Y98.896 E1.65359
G1 X123.215 Y99.037 E1.67633
G1 X123.676 Y99.145 E1.69208
G1 X124.32 Y99.31 E1.71419
G1 X124.827 Y99.453 E1.73171
G1 X125.496 Y99.659 E1.75499
G1 X125.961 Y99.814 E1.7713
G1 X126.599 Y100.042 E1.79383
G1 X127.069 Y100.222 E1.81057
G1 X127.713 Y100.486 E1.83372
G1 X128.203 Y100.701 E1.85152
G1 X128.827 Y100.993 E1.87443
G1 X129.284 Y101.219 E1.89139
G1 X129.712 Y101.444 E1.90747
G1 X130.194 Y101.714 E1.92585
G1 X131.542 Y102.519 E1.97807
G1 X132.239 Y102.98 E2.00586
G1 X132.857 Y103.42 E2.03109
G1 X133.295 Y103.748 E2.04929
G1 X133.88 Y104.21 E2.07409
G1 X134.3 Y104.56 E2.09227
G1 X134.871 Y105.059 E2.11749
G1 X135.257 Y105.413 E2.13491
G1 X135.647 Y105.788 E2.15291
G1 X136.079 Y106.227 E2.17339
G1 X136.768 Y106.968 E2.20705
G1 X137.265 Y107.532 E2.23205
G1 X137.843 Y108.242 E2.2625
G1 X138.504 Y109.116 E2.29895
G1 X138.77 Y109.487 E2.31413
G1 X139.204 Y110.121 E2.33968
G1 X139.561 Y110.674 E2.36158
G1 X139.962 Y111.355 E2.38786
G1 X140.405 Y112.214 E2.42001
G1 X140.52 Y112.463 E2.42913
G1 X140.877 Y113.33 E2.46032
G1 X141.158 Y114.225 E2.49152
G1 X141.312 Y114.876 E2.51377
G1 X141.383 Y115.224 E2.52558
G1 X141.531 Y116.15 E2.55677
G1 X141.6 Y117.085 E2.58795
G1 X141.594 Y117.907 E2.61529
G1 X141.583 Y118.157 E2.62362
G1 X141.502 Y119.091 E2.6548
G1 X141.286 Y120.257 E2.69424
G1 X141.221 Y120.526 E2.70344
G1 X140.962 Y121.427 E2.73462
G1 X140.579 Y122.414 E2.76984
G1 X140.494 Y122.605 E2.77679
G1 X140.076 Y123.445 E2.808
G1 X139.778 Y123.954 E2.82761
G1 X139.188 Y124.9 E2.8647
G1 X138.849 Y125.414 E2.88518
G1 X138.525 Y125.867 E2.9037
G1 X137.863 Y126.735 E2.94001
G1 X137.282 Y127.45 E2.97065
G1 X136.68 Y128.144 E3.00121
G1 X136.336 Y128.514 E3.01801
G1 X135.862 Y129.001 E3.04061
G1 X135.469 Y129.385 E3.05889
G1 X134.885 Y129.928 E3.08541
G1 X134.513 Y130.259 E3.10197
G1 X134.024 Y130.674 E3.1233
G1 X133.621 Y131 E3.14054
G1 X133.211 Y131.316 E3.15776
G1 X132.724 Y131.67 E3.17779
G1 X131.689 Y132.381 E3.21955
G1 X131.107 Y132.758 E3.24261
G1 X130.688 Y133.011 E3.25889
G1 X130.072 Y133.363 E3.28249
G1 X129.607 Y133.614 E3.30007
G1 X129.02 Y133.913 E3.32198
G1 X128.516 Y134.153 E3.34054
G1 X127.742 Y134.499 E3.36874
G1 X127.248 Y134.706 E3.38656
G1 X126.622 Y134.95 E3.4089
G1 X126.143 Y135.124 E3.42585
G1 X125.485 Y135.346 E3.44895
G1 X124.956 Y135.51 E3.46737
G1 X124.311 Y135.692 E3.48966
G1 X123.886 Y135.803 E3.50427
G1 X123.222 Y135.962 E3.52698
G1 X122.734 Y136.067 E3.54358
G1 X122.062 Y136.196 E3.56634
G1 X121.533 Y136.284 E3.58418
G1 X120.948 Y136.367 E3.60383
G1 X120.406 Y136.43 E3.62198
G1 X119.071 Y136.546 E3.66655
G1 X118.224 Y136.583 E3.69475
G1 X117.636 Y136.59 E3.7143
G1 X117.052 Y136.582 E3.73373
G1 X115.336 Y136.509 E3.79086
G1 X93.086 Y135.157 E4.53226
G1 X92.292 Y135.095 E4.55875
G1 X91.361 Y134.982 E4.58994
G1 X90.78 Y134.87 E4.60962
G1 X90.467 Y134.801 E4.62028
G1 X89.56 Y134.56 E4.65149
G1 X88.923 Y134.34 E4.67391
G1 X88.676 Y134.246 E4.6827
G1 X87.814 Y133.875 E4.71391
G1 X87.021 Y133.452 E4.74381
G1 X86.808 Y133.327 E4.75202
G1 X86.02 Y132.818 E4.78322
G1 X85.178 Y132.159 E4.81878
G1 X84.911 Y131.928 E4.83053
G1 X84.228 Y131.284 E4.86175
G1 X83.543 Y130.511 E4.8961
G1 X83.377 Y130.305 E4.9049
G1 X82.82 Y129.55 E4.93611
G1 X82.421 Y128.912 E4.96113
G1 X82.307 Y128.715 E4.9687
G1 X81.872 Y127.884 E4.9999
G1 X81.596 Y127.248 E5.02296
G1 X81.272 Y126.367 E5.05418
G1 X81.066 Y125.635 E5.07947
G1 X80.974 Y125.259 E5.09235
G1 X80.79 Y124.34 E5.12352
G1 X80.683 Y123.377 E5.15575
G1 X80.658 Y123.002 E5.16825
G1 X80.634 Y122.277 E5.19238
G1 X80.63 Y113.057 E5.49903
G0 F6000 X81.03 Y113.065
G1 F1200 X81.045 Y112.302 E5.52442
G1 X81.103 Y111.383 E5.55504
G1 X81.219 Y110.588 E5.58176
G1 X81.304 Y110.127 E5.59736
G1 X81.51 Y109.23 E5.62797
G1 X81.782 Y108.385 E5.65749
G1 X81.852 Y108.195 E5.66423
G1 X82.207 Y107.345 E5.69486
G1 X82.591 Y106.606 E5.72256
G1 X82.765 Y106.301 E5.73424
G1 X83.255 Y105.522 E5.76485
G1 X83.734 Y104.883 E5.79141
G1 X83.866 Y104.72 E5.79839
G1 X84.476 Y104.03 E5.82902
G1 X84.996 Y103.525 E5.85313
G1 X85.694 Y102.924 E5.88377
G1 X86.32 Y102.463 E5.90962
G1 X87.092 Y101.962 E5.94023
G1 X87.766 Y101.598 E5.96571
G1 X87.972 Y101.496 E5.97336
G1 X88.814 Y101.123 E6.00399
G1 X89.491 Y100.882 E6.02789
G1 X90.375 Y100.623 E6.05853
G1 X90.994 Y100.49 E6.07958
G1 X91.25 Y100.443 E6.08824
G1 X92.307 Y100.304 E6.1237
G1 X93.001 Y100.25 E6.14685
G1 X115.561 Y98.878 E6.89859
G1 X116.954 Y98.818 E6.94496
G1 X117.429 Y98.809 E6.96076
G1 X117.922 Y98.811 E6.97716
G1 X118.575 Y98.829 E6.99889
G1 X119.048 Y98.853 E7.01464
G1 X119.739 Y98.903 E7.03768
G1 X120.234 Y98.95 E7.05422
G1 X120.919 Y99.032 E7.07717
G1 X121.402 Y99.101 E7.09339
G1 X122.02 Y99.204 E7.11423
G1 X122.463 Y99.288 E7.12923
G1 X123.132 Y99.429 E7.15197
G1 X123.577 Y99.533 E7.16717
G1 X124.221 Y99.698 E7.18928
G1 X124.709 Y99.835 E7.20614
G1 X125.378 Y100.041 E7.22942
G1 X125.826 Y100.19 E7.24512
G1 X126.464 Y100.418 E7.26766
G1 X126.918 Y100.592 E7.28383
G1 X127.562 Y100.856 E7.30698
G1 X128.034 Y101.063 E7.32412
G1 X128.658 Y101.355 E7.34703
G1 X129.097 Y101.573 E7.36334
G1 X129.525 Y101.798 E7.37942
G1 X129.991 Y102.058 E7.39717
G1 X131.327 Y102.856 E7.44893
G1 X132.007 Y103.306 E7.47605
G1 X132.625 Y103.746 E7.50128
G1 X133.047 Y104.062 E7.51881
G1 X133.632 Y104.524 E7.54361
G1 X134.037 Y104.861 E7.56113
G1 X134.608 Y105.36 E7.58635
G1 X134.98 Y105.701 E7.60314
G1 X135.37 Y106.076 E7.62113
G1 X135.786 Y106.499 E7.64086
G1 X136.475 Y107.24 E7.67452
G1 X136.962 Y107.794 E7.69905
G1 X137.531 Y108.492 E7.729
G1 X138.183 Y109.355 E7.76498
G1 X138.44 Y109.713 E7.77964
G1 X138.874 Y110.347 E7.80519
G1 X139.223 Y110.887 E7.82657
G1 X139.615 Y111.554 E7.85231
G1 X140.042 Y112.382 E7.88329
G1 X140.157 Y112.631 E7.89242
G1 X140.507 Y113.482 E7.92302
G1 X140.781 Y114.361 E7.95364
G1 X140.92 Y114.956 E7.97397
G1 X140.991 Y115.304 E7.98578
G1 X141.136 Y116.213 E8.01639
G1 X141.201 Y117.132 E8.04704
G1 X141.195 Y117.889 E8.07222
G1 X141.184 Y118.139 E8.08054
G1 X141.103 Y119.056 E8.11116
G1 X140.897 Y120.163 E8.14861
G1 X140.832 Y120.432 E8.15781
G1 X140.578 Y121.316 E8.1884
G1 X140.213 Y122.252 E8.22182
G1 X140.128 Y122.443 E8.22877
G1 X139.718 Y123.267 E8.25938
G1 X139.438 Y123.742 E8.27772
G1 X138.848 Y124.688 E8.3148
G1 X138.517 Y125.19 E8.3348
G1 X138.206 Y125.627 E8.35264
G1 X137.552 Y126.483 E8.38847
G1 X136.971 Y127.198 E8.41912
G1 X136.381 Y127.878 E8.44906
G1 X136.049 Y128.235 E8.46527
G1 X135.575 Y128.722 E8.48788
G1 X135.197 Y129.092 E8.50547
G1 X134.613 Y129.635 E8.53199
G1 X134.254 Y129.954 E8.54797
G1 X133.765 Y130.369 E8.5693
G1 X133.377 Y130.683 E8.5859
G1 X132.967 Y130.999 E8.60312
G1 X132.498 Y131.34 E8.6224
G1 X131.463 Y132.051 E8.66417
G1 X130.893 Y132.42 E8.68675
G1 X130.489 Y132.663 E8.70243
G1 X129.873 Y133.015 E8.72603
G1 X129.425 Y133.257 E8.74296
G1 X128.838 Y133.556 E8.76487
G1 X128.353 Y133.788 E8.78276
G1 X127.579 Y134.134 E8.81095
G1 X127.103 Y134.333 E8.82811
G1 X126.477 Y134.577 E8.85046
G1 X126.016 Y134.745 E8.86678
G1 X125.358 Y134.967 E8.88988
G1 X124.848 Y135.125 E8.90764
G1 X124.203 Y135.307 E8.92993
G1 X123.792 Y135.414 E8.94405
G1 X123.128 Y135.573 E8.96676
G1 X122.658 Y135.674 E8.98275
G1 X121.986 Y135.803 E9.00551
G1 X121.477 Y135.888 E9.02267
G1 X120.892 Y135.971 E9.04232
G1 X120.37 Y136.032 E9.0598
G1 X119.048 Y136.147 E9.10394
G1 X118.219 Y136.183 E9.13154
G1 X117.631 Y136.19 E9.1511
G1 X117.068 Y136.182 E9.16982
G1 X115.36 Y136.11 E9.22668
G1 X93.117 Y134.758 E9.96785
G1 X92.323 Y134.696 E9.99434
G1 X91.409 Y134.584 E10.02497
G1 X90.866 Y134.479 E10.04337
G1 X90.553 Y134.41 E10.05403
G1 X89.663 Y134.173 E10.08466
G1 X89.065 Y133.966 E10.10571
G1 X88.818 Y133.872 E10.1145
G1 X87.972 Y133.507 E10.14514
G1 X87.223 Y133.107 E10.17338
G1 X87.01 Y132.982 E10.1816
G1 X86.237 Y132.482 E10.21222
G1 X85.44 Y131.856 E10.24592
G1 X85.173 Y131.625 E10.25767
G1 X84.503 Y130.993 E10.2883
G1 X83.854 Y130.26 E10.32086
G1 X83.688 Y130.054 E10.32966
G1 X83.142 Y129.313 E10.36028
G1 X82.767 Y128.712 E10.38384
G1 X82.653 Y128.515 E10.39141
G1 X82.042 Y127.279 E10.43727
G1 X81.965 Y127.094 E10.44393
G1 X81.648 Y126.23 E10.47454
G1 X81.455 Y125.54 E10.49837
G1 X81.363 Y125.164 E10.51125
G1 X81.183 Y124.261 E10.54187
G1 X81.082 Y123.35 E10.57236
G1 X81.057 Y122.975 E10.58486
G1 X81.034 Y122.277 E10.60809
G1 X81.03 Y113.065 E10.91448
G0 F6000 X81.43 Y113.073
G1 F1200 X81.445 Y112.31 E10.93986
G1 X81.503 Y111.408 E10.96992
G1 X81.612 Y110.66 E10.99506
G1 X81.697 Y110.199 E11.01066
G1 X81.9 Y109.319 E11.04069
G1 X82.157 Y108.523 E11.06851
G1 X82.227 Y108.333 E11.07525
G1 X82.576 Y107.5 E11.10529
G1 X82.938 Y106.805 E11.13135
G1 X83.112 Y106.5 E11.14303
G1 X83.594 Y105.736 E11.17308
G1 X84.045 Y105.135 E11.19807
G1 X84.177 Y104.972 E11.20504
G1 X84.776 Y104.296 E11.23508
G1 X85.27 Y103.816 E11.25799
G1 X85.955 Y103.228 E11.28802
G1 X86.552 Y102.789 E11.31267
G1 X87.31 Y102.298 E11.3427
G1 X87.944 Y101.956 E11.36666
G1 X88.15 Y101.854 E11.37431
G1 X89.388 Y101.339 E11.41891
G1 X89.62 Y101.26 E11.42706
G1 X90.487 Y101.007 E11.4571
G1 X91.322 Y100.837 E11.48544
G1 X92.34 Y100.702 E11.51959
G1 X93.026 Y100.649 E11.54248
G1 X115.579 Y99.278 E12.29398
G1 X116.962 Y99.218 E12.34002
G1 X117.437 Y99.209 E12.35582
G1 X117.911 Y99.211 E12.37159
G1 X118.564 Y99.229 E12.39331
G1 X119.019 Y99.252 E12.40847
G1 X119.71 Y99.302 E12.43151
G1 X120.186 Y99.347 E12.44741
G1 X120.871 Y99.429 E12.47036
G1 X121.336 Y99.496 E12.48598
G1 X121.954 Y99.599 E12.50682
G1 X122.381 Y99.679 E12.52127
G1 X123.05 Y99.82 E12.54401
G1 X123.478 Y99.92 E12.55863
G1 X124.122 Y100.085 E12.58074
G1 X124.592 Y100.218 E12.59699
G1 X125.261 Y100.424 E12.62027
G1 X125.692 Y100.567 E12.63537
G1 X126.33 Y100.795 E12.65791
G1 X126.766 Y100.962 E12.67344
G1 X127.41 Y101.226 E12.69659
G1 X127.864 Y101.425 E12.71307
G1 X128.488 Y101.717 E12.73599
G1 X129.339 Y102.153 E12.76779
G1 X129.787 Y102.402 E12.78484
G1 X131.112 Y103.193 E12.83616
G1 X131.775 Y103.632 E12.86261
G1 X132.393 Y104.072 E12.88784
G1 X132.799 Y104.376 E12.90471
G1 X133.384 Y104.838 E12.9295
G1 X133.774 Y105.163 E12.94639
G1 X134.345 Y105.662 E12.97161
G1 X134.703 Y105.99 E12.98776
G1 X135.093 Y106.365 E13.00576
G1 X135.493 Y106.771 E13.02471
G1 X136.432 Y107.791 E13.07082
G1 X136.901 Y108.345 E13.09497
G1 X137.428 Y109.012 E13.12324
G1 X137.863 Y109.594 E13.14741
G1 X138.11 Y109.939 E13.16152
G1 X138.544 Y110.573 E13.18707
G1 X138.884 Y111.1 E13.20793
G1 X139.268 Y111.753 E13.23313
G1 X139.679 Y112.549 E13.26292
G1 X139.794 Y112.798 E13.27205
G1 X140.136 Y113.634 E13.30209
G1 X140.403 Y114.497 E13.33214
G1 X140.528 Y115.036 E13.35054
G1 X140.599 Y115.384 E13.36235
G1 X140.74 Y116.276 E13.39239
G1 X140.802 Y117.177 E13.42243
G1 X140.795 Y117.871 E13.44551
G1 X140.784 Y118.121 E13.45383
G1 X140.705 Y119.021 E13.48388
G1 X140.509 Y120.069 E13.51934
G1 X140.444 Y120.338 E13.52855
G1 X140.193 Y121.205 E13.55857
G1 X139.848 Y122.089 E13.59013
G1 X139.763 Y122.28 E13.59708
G1 X139.36 Y123.088 E13.62711
G1 X139.099 Y123.531 E13.64422
G1 X138.509 Y124.477 E13.6813
G1 X138.186 Y124.966 E13.70079
G1 X137.886 Y125.386 E13.71796
G1 X137.242 Y126.23 E13.75327
G1 X136.661 Y126.945 E13.78391
G1 X136.374 Y127.284 E13.79868
G1 X136.082 Y127.613 E13.81331
G1 X135.762 Y127.956 E13.82892
G1 X135.288 Y128.443 E13.85152
G1 X134.925 Y128.799 E13.86843
G1 X134.341 Y129.342 E13.89495
G1 X133.995 Y129.649 E13.91034
G1 X133.506 Y130.064 E13.93167
G1 X133.133 Y130.366 E13.94763
G1 X132.723 Y130.682 E13.96485
G1 X132.271 Y131.01 E13.98342
G1 X131.236 Y131.721 E14.02519
G1 X130.68 Y132.082 E14.04724
G1 X130.291 Y132.316 E14.06233
G1 X129.675 Y132.668 E14.08593
G1 X129.244 Y132.901 E14.10223
G1 X128.657 Y133.2 E14.12414
G1 X128.19 Y133.423 E14.14135
G1 X127.416 Y133.769 E14.16955
G1 X126.957 Y133.961 E14.1861
G1 X126.331 Y134.205 E14.20844
G1 X125.888 Y134.366 E14.22412
G1 X125.23 Y134.588 E14.24722
G1 X124.739 Y134.74 E14.26431
G1 X123.699 Y135.025 E14.30018
G1 X123.035 Y135.184 E14.32289
G1 X122.583 Y135.281 E14.33826
G1 X121.911 Y135.41 E14.36102
G1 X121.421 Y135.492 E14.37755
G1 X120.836 Y135.575 E14.3972
G1 X120.333 Y135.634 E14.41404
G1 X119.026 Y135.747 E14.45768
G1 X118.214 Y135.783 E14.48471
G1 X117.626 Y135.79 E14.50427
G1 X117.085 Y135.782 E14.52227
G1 X115.384 Y135.71 E14.57889
G1 X93.148 Y134.359 E15.31983
G1 X92.354 Y134.297 E15.34632
G1 X91.458 Y134.187 E15.37634
G1 X90.639 Y134.02 E15.40414
G1 X89.767 Y133.787 E15.43416
G1 X89.207 Y133.592 E15.45388
G1 X88.96 Y133.498 E15.46267
G1 X88.131 Y133.14 E15.49271
G1 X87.425 Y132.762 E15.51934
G1 X87.212 Y132.637 E15.52756
G1 X86.455 Y132.146 E15.55757
G1 X85.701 Y131.554 E15.58945
G1 X85.434 Y131.323 E15.6012
G1 X84.778 Y130.702 E15.63124
G1 X84.166 Y130.009 E15.66199
G1 X84 Y129.803 E15.67079
G1 X83.465 Y129.075 E15.70084
G1 X83.114 Y128.512 E15.72291
G1 X83 Y128.315 E15.73048
G1 X82.411 Y127.125 E15.77464
G1 X82.334 Y126.94 E15.7813
G1 X82.024 Y126.092 E15.81133
G1 X81.843 Y125.445 E15.83368
G1 X81.751 Y125.069 E15.84655
G1 X81.576 Y124.183 E15.87659
G1 X81.482 Y123.323 E15.90536
G1 X81.457 Y122.948 E15.91787
G1 X81.434 Y122.277 E15.9402
G1 X81.43 Y113.073 E16.24632
G1 F2700 E11.24632
;MESH:3DBenchy.stl
G0 F6000 X110.052 Y115.973
G0 X110.199 Y118.807
G1 F2700 E16.24632
G0 F6000 X109.895 Y119.176
;TYPE:WALL-OUTER
G1 F1200 X110.422 Y119.18 E16.26385
G1 X110.673 Y119.17 E16.27221
G1 X111.004 Y119.113 E16.28338
G1 X111.32 Y119.009 E16.29444
G1 X111.573 Y118.773 E16.30595
G1 X111.718 Y118.523 E16.31556
G1 X111.818 Y118.28 E16.3243
G1 X111.874 Y118.008 E16.33354
G1 X111.918 Y117.497 E16.3506
G1 X111.911 Y117.183 E16.36104
G1 X111.882 Y116.924 E16.36971
G1 X111.77 Y116.495 E16.38446
G1 X111.658 Y116.239 E16.39375
G1 X111.496 Y116.033 E16.40247
G1 X111.385 Y115.929 E16.40753
G1 X111.151 Y115.83 E16.41598
G1 X110.879 Y115.785 E16.42515
G1 X110.624 Y115.761 E16.43367
G1 X110.132 Y115.745 E16.45004
G1 X109.847 Y115.792 E16.45965
G1 X109.828 Y116.065 E16.46875
G1 X109.829 Y118.585 E16.55256
G1 X109.814 Y118.983 E16.56581
G1 X109.895 Y119.176 E16.57277
G0 F6000 X110.229 Y118.6
