;FLAVOR:Marlin
;TIME:1755
;Filament used: 0.937363m
;Layer height: 0.2
;MINX:109.701
;MINY:109.701
;MINZ:0.2
;MAXX:125.299
;MAXY:125.299
;MAXZ:25.96
;Generated with Cura_SteamEngine 5.0.0
M140 S70
M105
M190 S70
M104 S240
M105
M109 S240
M82 ;absolute extrusion mode
; Ender 3 Custom Start G-code
G92 E0 ; Reset Extruder
G28 ; Home all axes
G1 Z2.0 F3000 ; Move Z Axis up little to prevent scratching of Heat Bed
G1 X0.1 Y20 Z0.3 F5000.0 ; Move to start position
G1 X0.1 Y200.0 Z0.3 F1500.0 E15 ; Draw the first line
G1 X0.4 Y200.0 Z0.3 F5000.0 ; Move to side a little
G1 X0.4 Y20 Z0.3 F1500.0 E30 ; Draw the second line
G92 E0 ; Reset Extruder
G1 Z2.0 F3000 ; Move Z Axis up little to prevent scratching of Heat Bed
G1 X5 Y20 Z0.3 F5000.0 ; Move over to prevent blob squish
G92 E0
G92 E0
G1 F2700 E-5
;LAYER_COUNT:125
;LAYER:0
M107
;MESH:Jaguar parcel shelf stud 1.stl
G0 F6000 X116.688 Y120.647 Z0.2
;TYPE:WALL-OUTER
G1 F2700 E0
G1 F900 X116.418 Y120.564 E0.00939
G1 X116.153 Y120.459 E0.01888
G1 X115.903 Y120.329 E0.02825
G1 X115.662 Y120.18 E0.03767
G1 X115.435 Y120.01 E0.0471
G1 X115.236 Y119.831 E0.05601
G1 X115.032 Y119.616 E0.06586
G1 X114.856 Y119.39 E0.07539
G1 X114.7 Y119.15 E0.08491
G1 X114.568 Y118.901 E0.09429
G1 X114.459 Y118.641 E0.10366
G1 X114.37 Y118.373 E0.11305
G1 X114.301 Y118.082 E0.123
G1 X114.266 Y117.814 E0.13199
G1 X114.252 Y117.534 E0.14132
G1 X114.26 Y117.249 E0.1508
G1 X114.295 Y116.968 E0.16022
G1 X114.353 Y116.688 E0.16973
G1 X114.435 Y116.42 E0.17905
G1 X114.541 Y116.153 E0.1886
G1 X114.67 Y115.905 E0.1979
G1 X114.82 Y115.662 E0.2074
G1 X114.991 Y115.436 E0.21683
G1 X115.178 Y115.226 E0.22618
G1 X115.386 Y115.031 E0.23566
G1 X115.61 Y114.857 E0.24509
G1 X115.848 Y114.701 E0.25456
G1 X116.099 Y114.568 E0.26401
G1 X116.357 Y114.46 E0.27331
G1 X116.627 Y114.37 E0.28278
G1 X116.918 Y114.301 E0.29272
G1 X117.186 Y114.266 E0.30171
G1 X117.467 Y114.252 E0.31107
G1 X117.75 Y114.26 E0.32049
G1 X118.032 Y114.295 E0.32994
G1 X118.312 Y114.353 E0.33945
G1 X118.582 Y114.436 E0.34884
G1 X118.849 Y114.542 E0.3584
G1 X119.095 Y114.67 E0.36762
G1 X119.338 Y114.82 E0.37712
G1 X119.565 Y114.99 E0.38655
G1 X119.774 Y115.178 E0.3959
G1 X119.969 Y115.386 E0.40538
G1 X120.143 Y115.61 E0.41482
G1 X120.299 Y115.848 E0.42428
G1 X120.432 Y116.099 E0.43373
G1 X120.54 Y116.357 E0.44303
G1 X120.63 Y116.627 E0.4525
G1 X120.699 Y116.918 E0.46245
G1 X120.734 Y117.184 E0.47137
G1 X120.748 Y117.466 E0.48076
G1 X120.74 Y117.751 E0.49024
G1 X120.705 Y118.032 E0.49966
G1 X120.647 Y118.312 E0.50917
G1 X120.565 Y118.58 E0.51849
G1 X120.459 Y118.847 E0.52805
G1 X120.331 Y119.093 E0.53727
G1 X120.181 Y119.337 E0.5468
G1 X120.01 Y119.565 E0.55628
G1 X119.822 Y119.774 E0.56563
G1 X119.614 Y119.969 E0.57511
G1 X119.39 Y120.143 E0.58454
G1 X119.152 Y120.299 E0.59401
G1 X118.901 Y120.432 E0.60346
G1 X118.643 Y120.54 E0.61276
G1 X118.373 Y120.63 E0.62223
G1 X118.082 Y120.699 E0.63217
G1 X117.814 Y120.734 E0.64116
G1 X117.533 Y120.748 E0.65052
G1 X117.265 Y120.741 E0.65944
G1 X116.971 Y120.706 E0.66928
G1 X116.688 Y120.647 E0.6789
G0 F6000 X116.625 Y121.043
;TYPE:WALL-INNER
G1 F900 X116.316 Y120.951 E0.68962
G1 X116.02 Y120.837 E0.70017
G1 X115.733 Y120.692 E0.71087
G1 X115.467 Y120.531 E0.72121
G1 X115.202 Y120.336 E0.73215
G1 X114.966 Y120.127 E0.74264
G1 X114.745 Y119.895 E0.75329
G1 X114.55 Y119.649 E0.76373
G1 X114.376 Y119.387 E0.7742
G1 X114.223 Y119.105 E0.78487
G1 X114.096 Y118.811 E0.79552
G1 X113.995 Y118.517 E0.80586
G1 X113.913 Y118.184 E0.81726
G1 X113.871 Y117.884 E0.82734
G1 X113.852 Y117.572 E0.83774
G1 X113.859 Y117.248 E0.84851
G1 X113.895 Y116.937 E0.85893
G1 X113.957 Y116.625 E0.86951
G1 X114.047 Y116.319 E0.88012
G1 X114.163 Y116.02 E0.89078
G1 X114.307 Y115.735 E0.9014
G1 X114.473 Y115.46 E0.91209
G1 X114.665 Y115.202 E0.92278
G1 X114.872 Y114.967 E0.9332
G1 X115.104 Y114.746 E0.94386
G1 X115.355 Y114.547 E0.95451
G1 X115.62 Y114.371 E0.96509
G1 X115.899 Y114.22 E0.97564
G1 X116.192 Y114.094 E0.98625
G1 X116.496 Y113.991 E0.99693
G1 X116.815 Y113.914 E1.00784
G1 X117.116 Y113.871 E1.01795
G1 X117.429 Y113.852 E1.02838
G1 X117.742 Y113.859 E1.0388
G1 X118.063 Y113.894 E1.04954
G1 X118.381 Y113.957 E1.06032
G1 X118.689 Y114.049 E1.07101
G1 X118.991 Y114.167 E1.08179
G1 X119.269 Y114.308 E1.09216
G1 X119.542 Y114.474 E1.10279
G1 X119.797 Y114.663 E1.11335
G1 X120.034 Y114.872 E1.12386
G1 X120.257 Y115.107 E1.13463
G1 X120.453 Y115.355 E1.14514
G1 X120.629 Y115.619 E1.1557
G1 X120.781 Y115.901 E1.16635
G1 X120.905 Y116.19 E1.17681
G1 X121.009 Y116.495 E1.18753
G1 X121.087 Y116.817 E1.19855
G1 X121.13 Y117.117 E1.20863
G1 X121.148 Y117.428 E1.21899
G1 X121.142 Y117.753 E1.2298
G1 X121.105 Y118.071 E1.24045
G1 X121.042 Y118.384 E1.25107
G1 X120.952 Y118.687 E1.26158
G1 X120.833 Y118.991 E1.27244
G1 X120.692 Y119.268 E1.28278
G1 X120.674 Y119.298 E1.28394
G1 X120.528 Y119.54 E1.29334
G1 X120.336 Y119.799 E1.30407
G1 X120.127 Y120.035 E1.31455
G1 X119.894 Y120.257 E1.32526
G1 X119.617 Y120.473 E1.33694
G1 X119.38 Y120.63 E1.34639
G1 X119.066 Y120.797 E1.35822
G1 X118.771 Y120.919 E1.36884
G1 X118.506 Y121.009 E1.37815
G1 X118.186 Y121.087 E1.3891
G1 X117.881 Y121.13 E1.39935
G1 X117.571 Y121.148 E1.40968
G1 X117.258 Y121.142 E1.42009
G1 X116.937 Y121.105 E1.43084
G1 X116.625 Y121.043 E1.44142
G0 F6000 X116.582 Y121.247
G0 X117.592 Y121.547
G1 F900 X117.247 Y121.542 E1.45289
G1 X116.889 Y121.503 E1.46487
G1 X116.545 Y121.435 E1.47653
G1 X116.199 Y121.334 E1.48852
G1 X115.874 Y121.209 E1.5001
G1 X115.55 Y121.048 E1.51214
G1 X115.258 Y120.871 E1.52349
G1 X114.97 Y120.662 E1.53533
G1 X114.704 Y120.429 E1.54709
G1 X114.46 Y120.176 E1.55878
G1 X114.235 Y119.895 E1.57075
G1 X114.042 Y119.607 E1.58228
G1 X113.87 Y119.293 E1.59419
G1 X113.727 Y118.967 E1.60603
G1 X113.616 Y118.644 E1.61739
G1 X113.527 Y118.289 E1.62956
G1 X113.474 Y117.937 E1.6414
G1 X113.453 Y117.593 E1.65287
G1 X113.459 Y117.247 E1.66438
G1 X113.497 Y116.889 E1.67635
G1 X113.565 Y116.545 E1.68801
G1 X113.665 Y116.202 E1.6999
G1 X113.791 Y115.873 E1.71161
G1 X113.951 Y115.552 E1.72354
G1 X114.126 Y115.26 E1.73487
G1 X114.341 Y114.967 E1.74695
G1 X114.568 Y114.707 E1.75843
G1 X114.823 Y114.461 E1.77022
G1 X115.104 Y114.235 E1.78221
G1 X115.39 Y114.043 E1.79367
G1 X115.707 Y113.869 E1.8057
G1 X116.031 Y113.728 E1.81745
G1 X116.355 Y113.616 E1.82885
G1 X116.711 Y113.527 E1.84106
G1 X117.063 Y113.474 E1.85289
G1 X117.407 Y113.453 E1.86436
G1 X117.753 Y113.459 E1.87587
G1 X118.111 Y113.497 E1.88784
G1 X118.455 Y113.565 E1.8995
G1 X118.801 Y113.666 E1.91149
G1 X119.127 Y113.791 E1.9231
G1 X119.449 Y113.951 E1.93506
G1 X119.757 Y114.136 E1.94701
G1 X120.041 Y114.345 E1.95874
G1 X120.304 Y114.576 E1.97038
G1 X120.554 Y114.838 E1.98243
G1 X120.765 Y115.104 E1.99372
G1 X120.967 Y115.403 E2.00572
G1 X121.137 Y115.717 E2.0176
G1 X121.275 Y116.036 E2.02916
G1 X121.391 Y116.375 E2.04108
G1 X121.478 Y116.732 E2.0533
G1 X121.526 Y117.06 E2.06432
G1 X121.547 Y117.407 E2.07589
G1 X121.542 Y117.771 E2.08799
G1 X121.502 Y118.124 E2.09981
G1 X121.433 Y118.471 E2.11158
G1 X121.334 Y118.808 E2.12326
G1 X121.202 Y119.146 E2.13533
G1 X121.049 Y119.449 E2.14662
G1 X121.018 Y119.504 E2.14872
G1 X120.866 Y119.755 E2.15848
G1 X120.653 Y120.043 E2.17039
G1 X120.422 Y120.306 E2.18203
G1 X120.163 Y120.554 E2.19396
G1 X119.889 Y120.77 E2.20557
G1 X119.594 Y120.968 E2.21738
G1 X119.282 Y121.137 E2.22918
G1 X118.964 Y121.275 E2.24071
G1 X118.625 Y121.391 E2.25263
G1 X118.273 Y121.477 E2.26468
G1 X117.937 Y121.526 E2.27598
G1 X117.592 Y121.547 E2.28747
G0 F6000 X117.614 Y121.947
G1 F900 X117.237 Y121.942 E2.30001
G1 X116.841 Y121.9 E2.31326
G1 X116.464 Y121.827 E2.32603
G1 X116.082 Y121.716 E2.33926
G1 X115.727 Y121.581 E2.35189
G1 X115.366 Y121.403 E2.36528
G1 X115.048 Y121.212 E2.37762
G1 X114.731 Y120.982 E2.39064
G1 X114.437 Y120.727 E2.40359
G1 X114.169 Y120.45 E2.41641
G1 X113.92 Y120.141 E2.42961
G1 X113.708 Y119.827 E2.44221
G1 X113.517 Y119.481 E2.45535
G1 X113.359 Y119.123 E2.46837
G1 X113.236 Y118.771 E2.48077
G1 X113.138 Y118.382 E2.49411
G1 X113.078 Y117.991 E2.50727
G1 X113.053 Y117.615 E2.5198
G1 X113.059 Y117.237 E2.53238
G1 X113.1 Y116.841 E2.54562
G1 X113.173 Y116.464 E2.55839
G1 X113.282 Y116.086 E2.57147
G1 X113.419 Y115.726 E2.58429
G1 X113.596 Y115.368 E2.59757
G1 X113.785 Y115.051 E2.60984
G1 X114.021 Y114.727 E2.62318
G1 X114.269 Y114.442 E2.63574
G1 X114.549 Y114.17 E2.64872
G1 X114.858 Y113.92 E2.66194
G1 X115.17 Y113.709 E2.67447
G1 X115.519 Y113.516 E2.68774
G1 X115.876 Y113.359 E2.70071
G1 X116.228 Y113.237 E2.7131
G1 X116.618 Y113.138 E2.72648
G1 X117.009 Y113.078 E2.73964
G1 X117.386 Y113.053 E2.7522
G1 X117.763 Y113.059 E2.76475
G1 X118.159 Y113.1 E2.77799
G1 X118.536 Y113.173 E2.79076
G1 X118.919 Y113.283 E2.80401
G1 X119.273 Y113.418 E2.81661
G1 X119.632 Y113.596 E2.82994
G1 X119.951 Y113.787 E2.84231
G1 X120.269 Y114.018 E2.85538
G1 X120.562 Y114.271 E2.86826
G1 X120.83 Y114.549 E2.8811
G1 X121.08 Y114.858 E2.89432
G1 X121.29 Y115.17 E2.90683
G1 X121.484 Y115.519 E2.92011
G1 X121.64 Y115.876 E2.93307
G1 X121.763 Y116.227 E2.94544
G1 X121.861 Y116.618 E2.95884
G1 X121.922 Y117.006 E2.97191
G1 X121.946 Y117.386 E2.98457
G1 X121.941 Y117.763 E2.99711
G1 X121.9 Y118.159 E3.01035
G1 X121.827 Y118.536 E3.02312
G1 X121.718 Y118.914 E3.03621
G1 X121.581 Y119.274 E3.04902
G1 X121.405 Y119.632 E3.06229
G1 X121.361 Y119.709 E3.06524
G1 X121.204 Y119.97 E3.07537
G1 X120.97 Y120.288 E3.0885
G1 X120.717 Y120.578 E3.1013
G1 X120.432 Y120.85 E3.1144
G1 X120.133 Y121.088 E3.12711
G1 X119.808 Y121.306 E3.14013
G1 X119.466 Y121.493 E3.1531
G1 X119.118 Y121.645 E3.16573
G1 X118.744 Y121.773 E3.17887
G1 X118.36 Y121.868 E3.19203
G1 X117.991 Y121.923 E3.20444
G1 X117.614 Y121.947 E3.217
G1 F2700 E-1.783
G0 F6000 X117.432 Y123.914
G0 X117.501 Y124.69
G1 F2700 E3.217
G0 F6000 X117.501 Y125.299
;TYPE:WALL-OUTER
G1 F900 X118.052 Y125.277 E3.23534
G1 X118.417 Y125.238 E3.24755
G1 X118.854 Y125.18 E3.26222
G1 X119.521 Y125.032 E3.28494
G1 X120.068 Y124.862 E3.30399
G1 X120.4 Y124.734 E3.31583
G1 X120.779 Y124.576 E3.32948
G1 X121.358 Y124.278 E3.35114
G1 X121.973 Y123.888 E3.37536
G1 X122.507 Y123.478 E3.39775
G1 X123.005 Y123.026 E3.42012
G1 X123.449 Y122.544 E3.44192
G1 X123.889 Y121.975 E3.46584
G1 X124.255 Y121.398 E3.48857
G1 X124.565 Y120.803 E3.51088
G1 X124.818 Y120.199 E3.53266
G1 X125.032 Y119.521 E3.55631
G1 X125.18 Y118.853 E3.57907
G1 X125.27 Y118.182 E3.60159
G1 X125.299 Y117.527 E3.62339
G1 X125.279 Y116.977 E3.6417
G1 X125.237 Y116.587 E3.65474
G1 X125.181 Y116.158 E3.66913
G1 X125.034 Y115.481 E3.69218
G1 X124.868 Y114.946 E3.71081
G1 X124.735 Y114.6 E3.72314
G1 X124.588 Y114.249 E3.73579
G1 X124.253 Y113.599 E3.76011
G1 X123.889 Y113.027 E3.78266
G1 X123.489 Y112.507 E3.80448
G1 X123.016 Y111.984 E3.82794
G1 X122.513 Y111.525 E3.85059
G1 X121.975 Y111.111 E3.87317
G1 X121.406 Y110.749 E3.8956
G1 X120.828 Y110.447 E3.91729
G1 X120.167 Y110.17 E3.94112
G1 X119.506 Y109.961 E3.96418
G1 X118.963 Y109.843 E3.98266
G1 X118.688 Y109.797 E3.99194
G1 X118.098 Y109.724 E4.01171
G1 X117.555 Y109.702 E4.02978
G1 X116.928 Y109.725 E4.05065
G1 X116.574 Y109.763 E4.06249
G1 X116.146 Y109.82 E4.07686
G1 X115.502 Y109.962 E4.09879
G1 X114.88 Y110.154 E4.12044
G1 X114.203 Y110.432 E4.14478
G1 X113.601 Y110.745 E4.16735
G1 X113.039 Y111.102 E4.18949
G1 X112.487 Y111.525 E4.21262
G1 X111.987 Y111.983 E4.23518
G1 X111.527 Y112.487 E4.25787
G1 X111.117 Y113.019 E4.28021
G1 X110.747 Y113.6 E4.30312
G1 X110.435 Y114.198 E4.32556
G1 X110.17 Y114.832 E4.34841
G1 X109.969 Y115.474 E4.37079
G1 X109.825 Y116.115 E4.39264
G1 X109.73 Y116.82 E4.4163
G1 X109.701 Y117.5 E4.43893
G1 X109.725 Y118.081 E4.45827
G1 X109.762 Y118.423 E4.46972
G1 X109.816 Y118.83 E4.48337
G1 X109.967 Y119.52 E4.50686
G1 X110.138 Y120.069 E4.52599
G1 X110.266 Y120.4 E4.53779
G1 X110.43 Y120.793 E4.55196
G1 X110.736 Y121.383 E4.57406
G1 X111.11 Y121.973 E4.5973
G1 X111.525 Y122.513 E4.61995
G1 X111.983 Y123.013 E4.6425
G1 X112.478 Y123.465 E4.6648
G1 X113.028 Y123.889 E4.68789
G1 X113.6 Y124.253 E4.71044
G1 X114.199 Y124.565 E4.73291
G1 X114.826 Y124.828 E4.75552
G1 X115.477 Y125.032 E4.77821
G1 X116.144 Y125.18 E4.80094
G1 X116.821 Y125.27 E4.82365
G1 X117.501 Y125.299 E4.84629
G0 F6000 X117.501 Y124.899
;TYPE:WALL-INNER
G1 F900 X118.117 Y124.873 E4.86679
G1 X118.784 Y124.786 E4.88917
G1 X119.341 Y124.663 E4.90814
G1 X119.621 Y124.583 E4.91783
G1 X120.03 Y124.454 E4.93209
G1 X120.611 Y124.213 E4.95301
G1 X121.159 Y123.93 E4.97352
G1 X121.743 Y123.56 E4.99652
G1 X122.251 Y123.17 E5.01782
G1 X122.723 Y122.742 E5.03901
G1 X123.142 Y122.286 E5.05961
G1 X123.561 Y121.745 E5.08237
G1 X123.908 Y121.198 E5.10391
G1 X124.203 Y120.633 E5.12511
G1 X124.442 Y120.061 E5.14573
G1 X124.645 Y119.417 E5.16819
G1 X124.786 Y118.783 E5.18979
G1 X124.871 Y118.146 E5.21117
G1 X124.899 Y117.527 E5.23177
G1 X124.879 Y116.993 E5.24955
G1 X124.84 Y116.638 E5.26143
G1 X124.787 Y116.226 E5.27524
G1 X124.647 Y115.583 E5.29713
G1 X124.46 Y114.983 E5.31803
G1 X124.225 Y114.418 E5.33838
G1 X123.906 Y113.799 E5.36155
G1 X123.561 Y113.257 E5.38292
G1 X123.181 Y112.763 E5.40364
G1 X122.732 Y112.266 E5.42592
G1 X122.256 Y111.832 E5.44735
G1 X121.745 Y111.439 E5.46879
G1 X121.205 Y111.095 E5.49008
G1 X120.658 Y110.809 E5.51061
G1 X120.029 Y110.546 E5.53329
G1 X119.403 Y110.348 E5.55513
G1 X118.885 Y110.235 E5.57276
G1 X118.524 Y110.18 E5.58491
G1 X118.065 Y110.123 E5.60029
G1 X117.555 Y110.102 E5.61727
G1 X116.857 Y110.129 E5.6405
G1 X116.216 Y110.214 E5.66201
G1 X115.604 Y110.349 E5.68285
G1 X115.015 Y110.531 E5.70335
G1 X114.371 Y110.795 E5.7265
G1 X113.801 Y111.092 E5.74788
G1 X113.268 Y111.43 E5.76887
G1 X112.745 Y111.832 E5.79081
G1 X112.271 Y112.266 E5.81219
G1 X111.887 Y112.686 E5.83112
G1 X111.7 Y112.917 E5.841
G1 X111.445 Y113.249 E5.85492
G1 X111.094 Y113.8 E5.87665
G1 X110.797 Y114.368 E5.89797
G1 X110.546 Y114.969 E5.91963
G1 X110.356 Y115.578 E5.94085
G1 X110.219 Y116.185 E5.96155
G1 X110.129 Y116.855 E5.98403
G1 X110.101 Y117.5 E6.00551
G1 X110.129 Y118.145 E6.02698
G1 X110.21 Y118.761 E6.04764
G1 X110.354 Y119.417 E6.06998
G1 X110.546 Y120.03 E6.09135
G1 X110.793 Y120.624 E6.11274
G1 X111.083 Y121.183 E6.13369
G1 X111.438 Y121.744 E6.15577
G1 X111.831 Y122.255 E6.17721
G1 X112.266 Y122.729 E6.19861
G1 X112.736 Y123.159 E6.2198
G1 X113.258 Y123.561 E6.24171
G1 X113.8 Y123.906 E6.26308
G1 X114.369 Y124.203 E6.28443
G1 X114.964 Y124.452 E6.30588
G1 X115.58 Y124.645 E6.32735
G1 X116.214 Y124.786 E6.34895
G1 X116.856 Y124.871 E6.37049
G1 X117.501 Y124.899 E6.39197
G0 F6000 X117.501 Y124.499
G1 F900 X118.083 Y124.474 E6.41134
G1 X118.715 Y124.392 E6.43254
G1 X119.315 Y124.258 E6.45298
G1 X119.829 Y124.098 E6.47089
G1 X120.093 Y123.995 E6.48031
G1 X120.442 Y123.85 E6.49288
G1 X120.96 Y123.583 E6.51227
G1 X121.514 Y123.232 E6.53408
G1 X121.994 Y122.863 E6.55422
G1 X122.441 Y122.458 E6.57428
G1 X122.836 Y122.029 E6.59368
G1 X123.233 Y121.515 E6.61528
G1 X123.561 Y120.998 E6.63564
G1 X123.84 Y120.463 E6.65571
G1 X124.066 Y119.923 E6.67518
G1 X124.259 Y119.313 E6.69646
G1 X124.377 Y118.775 E6.71478
G1 X124.418 Y118.514 E6.72357
G1 X124.472 Y118.111 E6.73709
G1 X124.498 Y117.526 E6.75657
G1 X124.479 Y117.008 E6.77381
G1 X124.444 Y116.689 E6.78448
G1 X124.392 Y116.294 E6.79773
G1 X124.26 Y115.685 E6.81846
G1 X124.083 Y115.12 E6.83815
G1 X123.862 Y114.586 E6.85737
G1 X123.558 Y113.998 E6.87939
G1 X123.233 Y113.487 E6.89953
G1 X122.874 Y113.02 E6.91912
G1 X122.448 Y112.549 E6.94024
G1 X121.998 Y112.139 E6.96049
G1 X121.515 Y111.767 E6.98077
G1 X121.004 Y111.442 E7.00091
G1 X120.488 Y111.172 E7.02028
G1 X119.891 Y110.922 E7.04181
G1 X119.3 Y110.735 E7.06242
G1 X118.75 Y110.618 E7.08113
G1 X118.474 Y110.577 E7.09041
G1 X118.032 Y110.522 E7.10522
G1 X117.554 Y110.503 E7.12113
G1 X116.891 Y110.528 E7.1432
G1 X116.285 Y110.608 E7.16353
G1 X115.706 Y110.736 E7.18325
G1 X115.151 Y110.908 E7.20258
G1 X114.54 Y111.159 E7.22455
G1 X114.1 Y111.387 E7.24103
G1 X113.83 Y111.547 E7.25147
G1 X113.498 Y111.758 E7.26455
G1 X113.002 Y112.139 E7.28536
