;FLAVOR:Marlin
;TIME:3083
;Filament used: 1.83212m
;Layer height: 0.2
;MINX:111.168
;MINY:101.864
;MINZ:0.2
;MAXX:123.879
;MAXY:137.927
;MAXZ:26.52
;Generated with Cura_SteamEngine 5.0.0
M140 S70
M105
M190 S70
M104 S240
M105
M109 S240
M82 ;absolute extrusion mode
; Ender 3 Custom Start G-code
G92 E0 ; Reset Extruder
G28 ; Home all axes
G1 Z2.0 F3000 ; Move Z Axis up little to prevent scratching of Heat Bed
G1 X0.1 Y20 Z0.3 F5000.0 ; Move to start position
G1 X0.1 Y200.0 Z0.3 F1500.0 E15 ; Draw the first line
G1 X0.4 Y200.0 Z0.3 F5000.0 ; Move to side a little
G1 X0.4 Y20 Z0.3 F1500.0 E30 ; Draw the second line
G92 E0 ; Reset Extruder
G1 Z2.0 F3000 ; Move Z Axis up little to prevent scratching of Heat Bed
G1 X5 Y20 Z0.3 F5000.0 ; Move over to prevent blob squish
G92 E0
G92 E0
G1 F2700 E-5
;LAYER_COUNT:150
;LAYER:0
M107
;MESH:Jaguar parcel shelf stud 2.stl
G0 F6000 X118.264 Y137.927 Z0.2
;TYPE:WALL-OUTER
G1 F2700 E0
G1 F900 X120.684 Y137.922 E0.08049
G1 X121.108 Y137.849 E0.0948
G1 X121.499 Y137.671 E0.10909
G1 X121.706 Y137.502 E0.11798
G1 X121.879 Y137.203 E0.12947
G1 X121.911 Y136.918 E0.139
G1 X121.914 Y102.723 E1.27633
G1 X121.79 Y102.388 E1.28822
G1 X121.584 Y102.178 E1.298
G1 X121.235 Y101.981 E1.31133
G1 X120.928 Y101.906 E1.32184
G1 X120.58 Y101.864 E1.3335
G1 X118.156 Y101.865 E1.41412
G1 X117.833 Y101.925 E1.42505
G1 X117.537 Y102.018 E1.43537
G1 X117.207 Y102.234 E1.44849
G1 X117.011 Y102.488 E1.45916
G1 X116.954 Y102.769 E1.46869
G1 X116.948 Y137.052 E2.60895
G1 X117.022 Y137.293 E2.61734
G1 X117.188 Y137.523 E2.62677
G1 X117.512 Y137.749 E2.63991
G1 X117.827 Y137.874 E2.65118
G1 X118.264 Y137.927 E2.66582
G0 F6000 X118.227 Y137.519
;TYPE:WALL-INNER
G1 F900 X118.347 Y137.527 E2.66982
G1 X120.65 Y137.522 E2.74642
G1 X120.99 Y137.463 E2.7579
G1 X121.286 Y137.329 E2.7687
G1 X121.482 Y137.13 E2.77799
G1 X121.511 Y136.75 E2.79067
G1 X121.514 Y102.745 E3.92168
G1 X121.383 Y102.545 E3.92963
G1 X121.147 Y102.391 E3.93901
G1 X120.88 Y102.303 E3.94836
G1 X120.556 Y102.264 E3.95921
G1 X118.179 Y102.265 E4.03827
G1 X117.793 Y102.357 E4.05147
G1 X117.54 Y102.494 E4.06104
G1 X117.374 Y102.674 E4.06918
G1 X117.353 Y102.955 E4.07855
G1 X117.349 Y137.018 E5.21149
G1 X117.409 Y137.175 E5.21708
G1 X117.581 Y137.327 E5.22472
G1 X117.851 Y137.462 E5.23476
G1 X118.227 Y137.519 E5.24741
G0 F6000 X118.347 Y137.127
G1 F900 X120.615 Y137.122 E5.32284
G1 X120.871 Y137.077 E5.33149
G1 X121.111 Y136.955 E5.34044
G1 X121.114 Y102.842 E6.47504
G1 X120.886 Y102.712 E6.48377
G1 X120.569 Y102.669 E6.49441
G1 X120.495 Y102.664 E6.49688
G1 X118.203 Y102.665 E6.57311
G1 X117.913 Y102.739 E6.58307
G1 X117.753 Y102.84 E6.58936
G1 X117.749 Y136.952 E7.72393
G1 X117.969 Y137.08 E7.73239
G1 X118.275 Y137.122 E7.74267
G1 X118.347 Y137.127 E7.74507
G0 F6000 X118.149 Y136.704
G1 F900 X118.346 Y136.727 E7.75166
G1 X120.581 Y136.722 E7.826
G1 X120.711 Y136.699 E7.83039
G1 X120.714 Y103.089 E8.94827
G1 X120.495 Y103.064 E8.9556
G1 X118.222 Y103.065 E9.0312
G1 X118.153 Y103.083 E9.03357
G1 X118.149 Y136.704 E10.15181
G0 F6000 X118.509 Y136.365
;TYPE:SKIN
G1 F900 X120.351 Y136.362 E10.21307
G1 X120.351 Y135.443 E10.24364
G1 X120.353 Y103.425 E11.30856
G1 X118.513 Y103.425 E11.36976
G1 X118.509 Y136.365 E12.46535
G0 F6000 X119.192 Y136.163
G1 F900 X118.709 Y135.679 E12.48809
G0 F6000 X118.709 Y135.113
G1 F900 X119.757 Y136.161 E12.53739
G0 F6000 X120.151 Y135.99
G1 F900 X118.709 Y134.548 E12.60521
G0 F6000 X118.709 Y133.982
G1 F900 X120.151 Y135.425 E12.67306
G0 F6000 X120.151 Y134.859
G1 F900 X118.709 Y133.416 E12.74092
G0 F6000 X118.709 Y132.851
G1 F900 X120.151 Y134.293 E12.80874
G0 F6000 X120.151 Y133.728
G1 F900 X118.709 Y132.285 E12.87659
G0 F6000 X118.709 Y131.719
G1 F900 X120.151 Y133.162 E12.94444
G0 F6000 X120.151 Y132.596
G1 F900 X118.709 Y131.154 E13.01227
G0 F6000 X118.709 Y130.588
G1 F900 X120.151 Y132.03 E13.0801
G0 F6000 X120.151 Y131.465
G1 F900 X118.709 Y130.022 E13.14795
G0 F6000 X118.709 Y129.457
G1 F900 X120.151 Y130.899 E13.21578
G0 F6000 X120.151 Y130.333
G1 F900 X118.709 Y128.891 E13.2836
G0 F6000 X118.709 Y128.325
G1 F900 X120.151 Y129.768 E13.35146
G0 F6000 X120.151 Y129.202
G1 F900 X118.709 Y127.76 E13.41928
G0 F6000 X118.709 Y127.195
G1 F900 X120.151 Y128.636 E13.48709
G0 F6000 X120.151 Y128.071
G1 F900 X118.709 Y126.629 E13.55491
G0 F6000 X118.709 Y126.063
G1 F900 X120.151 Y127.505 E13.62274
G0 F6000 X120.151 Y126.939
G1 F900 X118.709 Y125.498 E13.69054
G0 F6000 X118.709 Y124.932
G1 F900 X120.151 Y126.374 E13.75837
G0 F6000 X120.151 Y125.808
G1 F900 X118.709 Y124.366 E13.8262
G0 F6000 X118.709 Y123.8
G1 F900 X120.151 Y125.242 E13.89403
G0 F6000 X120.151 Y124.677
G1 F900 X118.709 Y123.235 E13.96185
G0 F6000 X118.709 Y122.669
G1 F900 X120.151 Y124.111 E14.02968
G0 F6000 X120.151 Y123.545
G1 F900 X118.709 Y122.103 E14.09751
G0 F6000 X118.709 Y121.538
G1 F900 X120.151 Y122.98 E14.16534
G0 F6000 X120.151 Y122.414
G1 F900 X118.709 Y120.972 E14.23316
G0 F6000 X118.709 Y120.406
G1 F900 X120.151 Y121.848 E14.30099
G0 F6000 X120.151 Y121.282
G1 F900 X118.71 Y119.841 E14.36877
G0 F6000 X118.71 Y119.276
G1 F900 X120.151 Y120.717 E14.43655
G0 F6000 X120.151 Y120.151
G1 F900 X118.71 Y118.71 E14.50433
G0 F6000 X118.71 Y118.144
G1 F900 X120.152 Y119.586 E14.57216
G0 F6000 X120.152 Y119.02
G1 F900 X118.71 Y117.579 E14.63996
G0 F6000 X118.71 Y117.013
G1 F900 X120.152 Y118.455 E14.70779
G0 F6000 X120.152 Y117.889
G1 F900 X118.71 Y116.447 E14.77562
G0 F6000 X118.71 Y115.882
G1 F900 X120.152 Y117.323 E14.84342
G0 F6000 X120.152 Y116.758
G1 F900 X118.71 Y115.316 E14.91125
G0 F6000 X118.71 Y114.75
G1 F900 X120.152 Y116.192 E14.97907
G0 F6000 X120.152 Y115.626
G1 F900 X118.71 Y114.185 E15.04688
G0 F6000 X118.71 Y113.619
G1 F900 X120.152 Y115.061 E15.11471
G0 F6000 X120.152 Y114.495
G1 F900 X118.71 Y113.053 E15.18253
G0 F6000 X118.71 Y112.487
G1 F900 X120.152 Y113.929 E15.25036
G0 F6000 X120.152 Y113.364
G1 F900 X118.71 Y111.922 E15.31819
G0 F6000 X118.711 Y111.357
G1 F900 X120.152 Y112.798 E15.38597
G0 F6000 X120.152 Y112.232
G1 F900 X118.711 Y110.791 E15.45375
G0 F6000 X118.711 Y110.225
G1 F900 X120.152 Y111.667 E15.52155
G0 F6000 X120.152 Y111.101
G1 F900 X118.711 Y109.66 E15.58933
G0 F6000 X118.711 Y109.094
G1 F900 X120.152 Y110.535 E15.65711
G0 F6000 X120.152 Y109.969
G1 F900 X118.711 Y108.528 E15.72489
G0 F6000 X118.711 Y107.963
G1 F900 X120.152 Y109.404 E15.79267
G0 F6000 X120.152 Y108.838
G1 F900 X118.711 Y107.397 E15.86045
G0 F6000 X118.711 Y106.831
G1 F900 X120.152 Y108.272 E15.92823
G0 F6000 X120.152 Y107.707
G1 F900 X118.711 Y106.266 E15.99601
G0 F6000 X118.711 Y105.7
G1 F900 X120.152 Y107.141 E16.06379
G0 F6000 X120.152 Y106.575
G1 F900 X118.711 Y105.134 E16.13157
G0 F6000 X118.711 Y104.569
G1 F900 X120.152 Y106.01 E16.19935
G0 F6000 X120.152 Y105.444
G1 F900 X118.711 Y104.003 E16.26713
G0 F6000 X118.898 Y103.625
G1 F900 X120.152 Y104.878 E16.32609
G0 F6000 X120.152 Y104.313
G1 F900 X119.464 Y103.625 E16.35846
G0 F6000 X120.029 Y103.625
G1 F900 X120.152 Y103.747 E16.36422
G0 F6000 X120.914 Y103.747
G1 F2700 E11.36422
;MESH:NONMESH
G0 F300 X120.914 Y103.747 Z0.36
G0 F6000 X120.539 Y136.55
G0 X117.841 Y137.24
G1 F2700 E16.36422
G0 F6000 X117.575 Y137.829
;TIME_ELAPSED:42.523977
;LAYER:1
M106 S42.5
;TYPE:WALL-OUTER
;MESH:Jaguar parcel shelf stud 2.stl
G1 F1200 X117.994 Y137.908 E16.37556
G1 X120.836 Y137.907 E16.45118
G1 X121.285 Y137.829 E16.46331
G1 X121.651 Y137.662 E16.47401
G1 X121.859 Y137.495 E16.48111
G1 X122.022 Y137.264 E16.48863
G1 X122.076 Y136.974 E16.49648
G1 X122.077 Y102.832 E17.40494
G1 X122.048 Y102.591 E17.4114
G1 X121.931 Y102.378 E17.41786
G1 X121.665 Y102.139 E17.42738
G1 X121.283 Y101.962 E17.43858
G1 X120.857 Y101.884 E17.4501
G1 X118.107 Y101.879 E17.52328
G1 X117.683 Y101.929 E17.53464
G1 X117.368 Y102.039 E17.54351
G1 X117.067 Y102.234 E17.55306
G1 X116.88 Y102.457 E17.5608
G1 X116.796 Y102.703 E17.56772
G1 X116.79 Y137.019 E18.4808
G1 X116.876 Y137.307 E18.4888
G1 X117.031 Y137.503 E18.49545
G1 X117.199 Y137.654 E18.50146
G1 X117.575 Y137.829 E18.51249
G0 F7500 X118.116 Y137.508
;TYPE:WALL-INNER
G1 F1200 X120.802 Y137.507 E18.58396
G1 X121.166 Y137.444 E18.59379
G1 X121.439 Y137.319 E18.60178
G1 X121.624 Y137.134 E18.60874
G1 X121.676 Y136.974 E18.61322
G1 X121.677 Y102.832 E19.52167
G1 X121.613 Y102.63 E19.52731
G1 X121.369 Y102.443 E19.53549
G1 X121.069 Y102.33 E19.54402
G1 X120.82 Y102.284 E19.55076
G1 X118.131 Y102.279 E19.62231
G1 X117.773 Y102.321 E19.6319
G1 X117.481 Y102.442 E19.64031
G1 X117.275 Y102.609 E19.64736
G1 X117.196 Y102.769 E19.65211
G1 X117.19 Y136.987 E20.56259
G1 X117.254 Y137.164 E20.5676
G1 X117.494 Y137.35 E20.57568
G1 X117.79 Y137.462 E20.5841
G1 X118.116 Y137.508 E20.59286
G0 F7500 X118.068 Y137.108
G1 F1200 X120.767 Y137.107 E20.66467
G1 X121.047 Y137.058 E20.67224
G1 X121.269 Y136.943 E20.67889
G1 X121.276 Y136.551 E20.68932
G1 X121.277 Y102.866 E21.58561
G1 X121.039 Y102.731 E21.5929
G1 X120.783 Y102.684 E21.59982
G1 X118.155 Y102.679 E21.66975
G1 X117.863 Y102.713 E21.67757
G1 X117.606 Y102.838 E21.68517
G1 X117.596 Y103.272 E21.69672
G1 X117.59 Y136.929 E22.59227
G1 X117.822 Y137.061 E22.59938
G1 X118.068 Y137.108 E22.60604
G0 F7500 X117.991 Y136.686
G1 F1200 X118.116 Y136.708 E22.60942
G1 X120.733 Y136.707 E22.67905
G1 X120.876 Y136.682 E22.68291
G1 X120.877 Y103.109 E23.57623
G1 X120.734 Y103.084 E23.58009
G1 X118.178 Y103.079 E23.6481
G1 X117.996 Y103.101 E23.65298
G1 X117.991 Y136.686 E24.54661
G0 F7500 X118.352 Y136.347
;TYPE:SKIN
G1 F1200 X120.516 Y136.347 E24.60419
G1 X120.516 Y104.523 E25.45097
G1 X120.516 Y103.444 E25.47968
G1 X118.356 Y103.441 E25.53715
G1 X118.352 Y136.347 E26.41272
G0 F7500 X118.091 Y136.347
G0 X120.109 Y136.608
G0 X120.109 Y136.146
G1 F1200 X120.314 Y135.94 E26.42045
G0 F7500 X120.314 Y135.374
G1 F1200 X119.543 Y136.146 E26.44948
G0 F7500 X118.977 Y136.146
G1 F1200 X120.314 Y134.809 E26.49979
G0 F7500 X120.314 Y134.243
G1 F1200 X118.552 Y136.005 E26.5661
G0 F7500 X118.552 Y135.439
G1 F1200 X120.314 Y133.677 E26.6324
G0 F7500 X120.314 Y133.112
G1 F1200 X118.552 Y134.874 E26.6987
G0 F7500 X118.552 Y134.308
G1 F1200 X120.314 Y132.546 E26.76501
G0 F7500 X120.314 Y131.98
G1 F1200 X118.552 Y133.742 E26.83131
G0 F7500 X118.552 Y133.177
G1 F1200 X120.314 Y131.415 E26.89761
G0 F7500 X120.314 Y130.849
G1 F1200 X118.552 Y132.611 E26.96392
G0 F7500 X118.552 Y132.045
G1 F1200 X120.314 Y130.283 E27.03022
G0 F7500 X120.314 Y129.718
G1 F1200 X118.552 Y131.48 E27.09652
G0 F7500 X118.552 Y130.914
G1 F1200 X120.314 Y129.152 E27.16283
G0 F7500 X120.314 Y128.586
G1 F1200 X118.552 Y130.348 E27.22913
G0 F7500 X118.552 Y129.783
G1 F1200 X120.314 Y128.02 E27.29545
G0 F7500 X120.314 Y127.455
G1 F1200 X118.553 Y129.216 E27.36172
G0 F7500 X118.553 Y128.651
G1 F1200 X120.314 Y126.889 E27.428
G0 F7500 X120.314 Y126.323
G1 F1200 X118.553 Y128.085 E27.49428
G0 F7500 X118.553 Y127.519
G1 F1200 X120.314 Y125.758 E27.56055
G0 F7500 X120.314 Y125.192
G1 F1200 X118.553 Y126.953 E27.62682
G0 F7500 X118.553 Y126.388
G1 F1200 X120.314 Y124.626 E27.6931
G0 F7500 X120.314 Y124.061
G1 F1200 X118.553 Y125.822 E27.75937
G0 F7500 X118.553 Y125.256
G1 F1200 X120.314 Y123.495 E27.82563
G0 F7500 X120.314 Y122.929
G1 F1200 X118.553 Y124.691 E27.89192
G0 F7500 X118.553 Y124.125
G1 F1200 X120.314 Y122.364 E27.95818
G0 F7500 X120.314 Y121.798
G1 F1200 X118.553 Y123.559 E28.02445
G0 F7500 X118.554 Y122.993
G1 F1200 X120.314 Y121.232 E28.09069
G0 F7500 X120.314 Y120.667
G1 F1200 X118.554 Y122.427 E28.15692
G0 F7500 X118.554 Y121.862
G1 F1200 X120.314 Y120.101 E28.22317
G0 F7500 X120.314 Y119.535
G1 F1200 X118.554 Y121.296 E28.28942
G0 F7500 X118.554 Y120.73
G1 F1200 X120.314 Y118.97 E28.35564
G0 F7500 X120.314 Y118.404
G1 F1200 X118.554 Y120.165 E28.42189
G0 F7500 X118.554 Y119.599
G1 F1200 X120.314 Y117.838 E28.48814
G0 F7500 X120.314 Y117.272
G1 F1200 X118.554 Y119.033 E28.55438
G0 F7500 X118.554 Y118.467
G1 F1200 X120.314 Y116.707 E28.62061
G0 F7500 X120.314 Y116.141
G1 F1200 X118.554 Y117.902 E28.68686
G0 F7500 X118.554 Y117.336
G1 F1200 X120.314 Y115.575 E28.75311
G0 F7500 X120.314 Y115.01
G1 F1200 X118.554 Y116.77 E28.81933
G0 F7500 X118.554 Y116.204
G1 F1200 X120.314 Y114.444 E28.88556
G0 F7500 X120.314 Y113.878
G1 F1200 X118.554 Y115.638 E28.95179
G0 F7500 X118.554 Y115.073
G1 F1200 X120.314 Y113.313 E29.01802
G0 F7500 X120.314 Y112.747
G1 F1200 X118.554 Y114.507 E29.08425
G0 F7500 X118.554 Y113.941
G1 F1200 X120.314 Y112.181 E29.15047
G0 F7500 X120.314 Y111.616
G1 F1200 X118.554 Y113.376 E29.2167
G0 F7500 X118.554 Y112.81
G1 F1200 X120.314 Y111.05 E29.28293
G0 F7500 X120.314 Y110.484
G1 F1200 X118.554 Y112.244 E29.34916
G0 F7500 X118.554 Y111.679
G1 F1200 X120.314 Y109.919 E29.41539
G0 F7500 X120.314 Y109.353
G1 F1200 X118.554 Y111.113 E29.48161
G0 F7500 X118.554 Y110.547
G1 F1200 X120.314 Y108.787 E29.54784
G0 F7500 X120.314 Y108.221
G1 F1200 X118.555 Y109.981 E29.61405
G0 F7500 X118.555 Y109.415
G1 F1200 X120.314 Y107.656 E29.68024
G0 F7500 X120.314 Y107.09
G1 F1200 X118.555 Y108.849 E29.74643
G0 F7500 X118.555 Y108.284
G1 F1200 X120.314 Y106.524 E29.81264
G0 F7500 X120.314 Y105.959
G1 F1200 X118.555 Y107.718 E29.87883
G0 F7500 X118.555 Y107.152
G1 F1200 X120.314 Y105.393 E29.94502
G0 F7500 X120.314 Y104.827
G1 F1200 X118.555 Y106.587 E30.01123
G0 F7500 X118.555 Y106.021
G1 F1200 X120.314 Y104.262 E30.07742
G0 F7500 X120.314 Y103.696
G1 F1200 X118.555 Y105.455 E30.14361
G0 F7500 X118.555 Y104.89
G1 F1200 X119.802 Y103.642 E30.19055
G0 F7500 X119.238 Y103.642
G1 F1200 X118.555 Y104.324 E30.21624
G0 F7500 X118.555 Y103.758
G1 F1200 X118.673 Y103.641 E30.22066
G0 F7500 X118.674 Y102.881
G1 F2700 E25.22066
;MESH:NONMESH
G0 F300 X118.674 Y102.881 Z0.52
G0 F7500 X118.168 Y103.252
G0 X117.651 Y137.209
G1 F2700 E30.22066
G0 F7500 X117.417 Y137.813
;TIME_ELAPSED:74.561840
;LAYER:2
M106 S85
;TYPE:WALL-OUTER
;MESH:Jaguar parcel shelf stud 2.stl
G1 F1500 X117.836 Y137.892 E30.232
G1 X120.995 Y137.891 E30.31606
G1 X121.304 Y137.841 E30.32439
G1 X121.566 Y137.77 E30.33161
G1 X121.823 Y137.628 E30.33942
G1 X122.015 Y137.486 E30.34578
G1 X122.185 Y137.246 E30.3536
G1 X122.237 Y136.968 E30.36113
G1 X122.239 Y102.804 E31.27017
G1 X122.147 Y102.472 E31.27933
G1 X121.977 Y102.269 E31.28638
G1 X121.648 Y102.055 E31.29682
G1 X121.354 Y101.961 E31.30504
G1 X121.019 Y101.9 E31.3141
G1 X117.949 Y101.895 E31.39578
G1 X117.624 Y101.931 E31.40448
G1 X117.303 Y102.013 E31.4133
G1 X116.96 Y102.206 E31.42377
G1 X116.723 Y102.471 E31.43323
G1 X116.637 Y102.719 E31.44022
G1 X116.633 Y137.003 E32.35245
G1 X116.669 Y137.205 E32.35791
G1 X116.813 Y137.444 E32.36533
G1 X117.038 Y137.637 E32.37322
G1 X117.417 Y137.813 E32.38434
G0 F9000 X117.958 Y137.492
;TYPE:WALL-INNER
G1 F1500 X120.973 Y137.491 E32.46456
G1 X121.374 Y137.409 E32.47545
G1 X121.675 Y137.24 E32.48464
G1 X121.817 Y137.074 E32.49045
G1 X121.837 Y136.808 E32.49755
G1 X121.839 Y102.804 E33.40233
G1 X121.747 Y102.618 E33.40785
G1 X121.528 Y102.454 E33.41513
G1 X121.282 Y102.355 E33.42219
G1 X120.982 Y102.3 E33.4303
G1 X117.971 Y102.295 E33.51042
G1 X117.598 Y102.337 E33.52041
G1 X117.284 Y102.483 E33.52962
G1 X117.075 Y102.677 E33.53721
G1 X117.037 Y102.904 E33.54333
G1 X117.033 Y136.967 E34.44968
G1 X117.123 Y137.182 E34.45589
G1 X117.317 Y137.325 E34.4623
G1 X117.631 Y137.445 E34.47124
G1 X117.958 Y137.492 E34.48003
G0 F9000 X117.91 Y137.092
G1 F1500 X120.951 Y137.091 E34.56095
G1 X121.269 Y137.023 E34.5696
G1 X121.437 Y136.918 E34.57487
G1 X121.439 Y102.874 E35.48072
G1 X121.209 Y102.749 E35.48768
G1 X120.945 Y102.7 E35.49483
G1 X117.994 Y102.695 E35.57335
G1 X117.684 Y102.73 E35.58165
G1 X117.459 Y102.849 E35.58842
G1 X117.438 Y103.284 E35.60001
G1 X117.433 Y136.921 E36.49503
G1 X117.663 Y137.045 E36.50198
G1 X117.91 Y137.092 E36.50867
G0 F9000 X117.833 Y136.669
G1 F1500 X117.958 Y136.692 E36.51205
G1 X120.936 Y136.69 E36.59129
G1 X121.037 Y136.67 E36.59403
G1 X121.039 Y103.124 E37.48663
G1 X120.896 Y103.1 E37.49049
G1 X118.017 Y103.095 E37.56709
G1 X117.838 Y103.116 E37.57189
G1 X117.833 Y136.669 E38.46467
G0 F9000 X118.193 Y136.331
