;FLAVOR:Marlin
;TIME:2754
;Filament used: 1.25185m
;Layer height: 0.2
;MINX:100.505
;MINY:99.441
;MINZ:0.2
;MAXX:134.495
;MAXY:135.559
;MAXZ:29.88
;Generated with Cura_SteamEngine 5.0.0
M140 S50
M105
M190 S50
M104 S200
M105
M109 S200
M82 ;absolute extrusion mode
; Ender 3 Custom Start G-code
G92 E0 ; Reset Extruder
G28 ; Home all axes
G1 Z2.0 F3000 ; Move Z Axis up little to prevent scratching of Heat Bed
G1 X0.1 Y20 Z0.3 F5000.0 ; Move to start position
G1 X0.1 Y200.0 Z0.3 F1500.0 E15 ; Draw the first line
G1 X0.4 Y200.0 Z0.3 F5000.0 ; Move to side a little
G1 X0.4 Y20 Z0.3 F1500.0 E30 ; Draw the second line
G92 E0 ; Reset Extruder
G1 Z2.0 F3000 ; Move Z Axis up little to prevent scratching of Heat Bed
G1 X5 Y20 Z0.3 F5000.0 ; Move over to prevent blob squish
G92 E0
G92 E0
G1 F2700 E-5
;LAYER_COUNT:147
;LAYER:0
M107
;MESH:ender3-no-support-bltouch-mount-4a-fixed.stl
G0 F6000 X112.344 Y114.156 Z0.2
;TYPE:WALL-OUTER
G1 F2700 E0
G1 F1200 X111.889 Y113.93 E0.0169
G1 X111.759 Y113.849 E0.02199
G1 X111.385 Y113.46 E0.03994
G1 X111.35 Y113.411 E0.04194
G1 X111.106 Y112.922 E0.06012
G1 X111.087 Y112.863 E0.06218
G1 X111.004 Y112.322 E0.08039
G1 X111.004 Y112.26 E0.08245
G1 X111.087 Y111.719 E0.10065
G1 X111.106 Y111.66 E0.10271
G1 X111.35 Y111.171 E0.12089
G1 X111.385 Y111.122 E0.12289
G1 X111.763 Y110.73 E0.141
G1 X111.81 Y110.695 E0.14295
G1 X112.304 Y110.436 E0.16151
G1 X112.343 Y110.426 E0.16284
G1 X112.873 Y110.341 E0.1807
G1 X112.937 Y110.341 E0.18283
G1 X113.467 Y110.426 E0.20068
G1 X113.529 Y110.447 E0.20286
G1 X114 Y110.694 E0.22055
G1 X114.05 Y110.733 E0.22265
G1 X114.425 Y111.122 E0.24063
G1 X114.46 Y111.171 E0.24263
G1 X114.704 Y111.66 E0.26081
G1 X114.723 Y111.72 E0.2629
G1 X114.805 Y112.26 E0.28106
G1 X114.805 Y112.322 E0.28313
G1 X114.723 Y112.867 E0.30146
G1 X114.704 Y112.922 E0.30339
G1 X114.46 Y113.411 E0.32157
G1 X114.425 Y113.46 E0.32357
G1 X114.05 Y113.849 E0.34154
G1 X114 Y113.888 E0.34365
G1 X113.527 Y114.136 E0.36142
G1 X113.466 Y114.156 E0.36355
G1 X112.937 Y114.241 E0.38137
G1 X112.873 Y114.241 E0.3835
G1 X112.344 Y114.156 E0.40132
G0 F6000 X112.809 Y114.636
;TYPE:WALL-INNER
G1 F1200 X112.28 Y114.551 E0.41914
G1 X111.703 Y114.284 E0.44029
G1 X111.471 Y114.127 E0.4496
G1 X111.097 Y113.738 E0.46755
G1 X110.992 Y113.589 E0.47361
G1 X110.748 Y113.1 E0.49179
G1 X110.691 Y112.923 E0.49798
G1 X110.608 Y112.382 E0.51618
G1 X110.608 Y112.2 E0.52223
G1 X110.691 Y111.659 E0.54044
G1 X110.748 Y111.482 E0.54662
G1 X110.992 Y110.993 E0.5648
G1 X111.097 Y110.844 E0.57086
G1 X111.481 Y110.446 E0.58926
G1 X111.624 Y110.341 E0.59516
G1 X112.095 Y110.093 E0.61286
G1 X112.28 Y110.031 E0.61935
G1 X112.809 Y109.946 E0.63717
G1 X113.001 Y109.946 E0.64356
G1 X113.53 Y110.031 E0.66138
G1 X113.715 Y110.093 E0.66787
G1 X114.186 Y110.34 E0.68556
G1 X114.338 Y110.455 E0.6919
G1 X114.713 Y110.844 E0.70987
G1 X114.818 Y110.993 E0.71593
G1 X115.062 Y111.482 E0.73411
G1 X115.119 Y111.66 E0.74032
G1 X115.201 Y112.2 E0.75849
G1 X115.201 Y112.382 E0.76454
G1 X115.117 Y112.936 E0.78318
G1 X115.062 Y113.1 E0.78893
G1 X114.818 Y113.589 E0.80711
G1 X114.713 Y113.738 E0.81317
G1 X114.338 Y114.127 E0.83114
G1 X114.186 Y114.242 E0.83748
G1 X113.713 Y114.49 E0.85524
G1 X113.53 Y114.551 E0.86166
G1 X113.001 Y114.636 E0.87948
G1 X112.809 Y114.636 E0.88587
G1 F2700 E-4.11413
G0 F6000 X112.807 Y114.644
G0 X113.557 Y114.729
G0 X115.993 Y114.729
G0 X116.255 Y127.421
G0 X133.922 Y127.656
G0 X133.895 Y133.134
G0 X133.622 Y133.892
G0 X133.043 Y134.543
G0 X132.288 Y134.912
G0 X131.925 Y134.959
G0 X118.009 Y135.188
G1 F2700 E0.88587
G0 F6000 X117.654 Y135.556
;TYPE:WALL-OUTER
G1 F1200 X131.647 Y135.558 E1.35128
G1 X131.967 Y135.54 E1.36194
G1 X132.302 Y135.486 E1.37322
G1 X132.67 Y135.376 E1.386
G1 X132.994 Y135.231 E1.3978
G1 X133.261 Y135.071 E1.40816
G1 X133.549 Y134.847 E1.42029
G1 X133.738 Y134.662 E1.42909
G1 X133.947 Y134.412 E1.43993
G1 X134.107 Y134.176 E1.44941
G1 X134.271 Y133.849 E1.46158
G1 X134.39 Y133.506 E1.47365
G1 X134.465 Y133.145 E1.48591
G1 X134.494 Y132.777 E1.49819
G1 X134.494 Y128.642 E1.63572
G1 X134.494 Y127.084 E1.68754
G1 X116.793 Y127.083 E2.27628
G1 X116.687 Y127.054 E2.27993
G1 X116.608 Y126.962 E2.28397
G1 X116.593 Y126.52 E2.29868
G1 X116.593 Y99.441 E3.19933
G1 X103.313 Y99.441 E3.64102
G1 X102.965 Y99.465 E3.65263
G1 X102.616 Y99.53 E3.66443
G1 X102.25 Y99.647 E3.67721
G1 X101.926 Y99.808 E3.68925
G1 X101.619 Y100.008 E3.70143
G1 X101.342 Y100.247 E3.7136
G1 X101.099 Y100.521 E3.72578
G1 X100.893 Y100.824 E3.73797
G1 X100.729 Y101.151 E3.75014
G1 X100.61 Y101.494 E3.76221
G1 X100.535 Y101.855 E3.77447
G1 X100.516 Y102.115 E3.78314
G1 X100.506 Y102.347 E3.79087
G1 X100.505 Y126.658 E4.59946
G1 X100.529 Y127.007 E4.61109
G1 X100.594 Y127.356 E4.6229
G1 X100.711 Y127.721 E4.63565
G1 X100.872 Y128.045 E4.64768
G1 X101.07 Y128.35 E4.65977
G1 X101.309 Y128.627 E4.67194
G1 X101.583 Y128.87 E4.68412
G1 X101.886 Y129.076 E4.69631
G1 X102.215 Y129.242 E4.70857
G1 X102.558 Y129.361 E4.72064
G1 X102.919 Y129.436 E4.73291
G1 X103.179 Y129.455 E4.74158
G1 X103.411 Y129.465 E4.7493
G1 X108.102 Y129.464 E4.90532
G1 X108.569 Y129.438 E4.92088
G1 X108.845 Y129.314 E4.93094
G1 X109.502 Y128.8 E4.95869
G1 X110.1 Y128.45 E4.98173
G1 X110.802 Y128.153 E5.00709
G1 X111.457 Y127.976 E5.02965
G1 X112.186 Y127.879 E5.05411
G1 X112.959 Y127.881 E5.07982
G1 X112.988 Y127.883 E5.08079
G1 X113.674 Y127.985 E5.10386
G1 X114.393 Y128.187 E5.1287
G1 X114.509 Y128.236 E5.13289
G1 X115.088 Y128.495 E5.15398
G1 X115.667 Y128.853 E5.17662
G1 X116.258 Y129.33 E5.20188
G1 X116.279 Y129.35 E5.20285
G1 X116.759 Y129.868 E5.22634
G1 X116.776 Y129.889 E5.22724
G1 X117.181 Y130.467 E5.25071
G1 X117.501 Y131.083 E5.2738
G1 X117.511 Y131.106 E5.27463
G1 X117.767 Y131.808 E5.29948
G1 X117.912 Y132.489 E5.32264
G1 X117.916 Y132.515 E5.32352
G1 X117.97 Y133.218 E5.34697
G1 X117.97 Y133.246 E5.3479
G1 X117.924 Y134.019 E5.37365
G1 X117.793 Y134.672 E5.39581
G1 X117.547 Y135.406 E5.42155
G1 X117.559 Y135.511 E5.42507
G1 X117.654 Y135.556 E5.42856
G0 F6000 X118.053 Y135.156
;TYPE:WALL-INNER
G1 F1200 X131.673 Y135.159 E5.88157
G1 X131.985 Y135.137 E5.89197
G1 X132.285 Y135.082 E5.90212
G1 X132.599 Y134.978 E5.91312
G1 X132.877 Y134.843 E5.9234
G1 X133.14 Y134.672 E5.93383
G1 X133.376 Y134.467 E5.94423
G1 X133.585 Y134.233 E5.95466
G1 X133.761 Y133.973 E5.9651
G1 X133.901 Y133.693 E5.97552
G1 X134.003 Y133.399 E5.98587
G1 X134.068 Y133.089 E5.9964
G1 X134.094 Y132.736 E6.00817
G1 X134.094 Y128.642 E6.14434
G1 X134.094 Y127.484 E6.18286
G1 X130.97 Y127.484 E6.28676
G1 X116.793 Y127.483 E6.75829
G1 X116.537 Y127.426 E6.76701
G1 X116.277 Y127.19 E6.77869
G1 X116.193 Y126.883 E6.78928
G1 X116.193 Y99.841 E7.6887
G1 X103.327 Y99.841 E8.11662
G1 X103.015 Y99.863 E8.12703
G1 X102.714 Y99.918 E8.1372
G1 X102.401 Y100.019 E8.14814
G1 X102.125 Y100.156 E8.15839
G1 X101.86 Y100.328 E8.1689
G1 X101.624 Y100.533 E8.1793
G1 X101.415 Y100.767 E8.18973
G1 X101.239 Y101.027 E8.20017
G1 X101.098 Y101.307 E8.2106
G1 X100.996 Y101.601 E8.22095
G1 X100.932 Y101.911 E8.23148
G1 X100.906 Y102.241 E8.24249
G1 X100.905 Y126.644 E9.05414
G1 X100.927 Y126.957 E9.06457
G1 X100.982 Y127.258 E9.07475
G1 X101.083 Y127.571 E9.08569
G1 X101.22 Y127.847 E9.09594
G1 X101.39 Y128.109 E9.10632
G1 X101.595 Y128.345 E9.11672
G1 X101.829 Y128.554 E9.12716
G1 X102.089 Y128.73 E9.1376
G1 X102.372 Y128.873 E9.14815
G1 X102.665 Y128.975 E9.15846
G1 X102.975 Y129.039 E9.16899
G1 X103.305 Y129.065 E9.18
G1 X108.08 Y129.064 E9.33882
G1 X108.473 Y129.042 E9.35191
G1 X108.693 Y128.925 E9.3602
G1 X109.233 Y128.501 E9.38303
G1 X109.621 Y128.266 E9.39812
G1 X109.873 Y128.117 E9.40786
G1 X109.944 Y128.082 E9.41049
G1 X110.672 Y127.775 E9.43677
G1 X111.353 Y127.59 E9.46024
G1 X111.432 Y127.575 E9.46292
G1 X112.134 Y127.483 E9.48646
G1 X112.215 Y127.478 E9.48916
G1 X112.961 Y127.481 E9.51398
G1 X113.046 Y127.487 E9.51681
G1 X113.707 Y127.584 E9.53903
G1 X113.782 Y127.6 E9.54158
G1 X114.501 Y127.802 E9.56642
G1 X114.671 Y127.871 E9.57252
G1 X115.226 Y128.117 E9.59271
G1 X115.298 Y128.154 E9.59541
G1 X115.897 Y128.526 E9.61886
G1 X116.51 Y129.019 E9.64502
G1 X116.573 Y129.078 E9.64789
G1 X117.053 Y129.596 E9.67138
G1 X117.104 Y129.66 E9.6741
G1 X117.509 Y130.238 E9.69758
G1 X117.549 Y130.306 E9.7002
G1 X117.856 Y130.899 E9.72241
G1 X117.887 Y130.969 E9.72496
G1 X118.143 Y131.671 E9.74981
G1 X118.24 Y132.106 E9.76463
G1 X118.304 Y132.407 E9.77487
G1 X118.315 Y132.484 E9.77746
G1 X118.369 Y133.188 E9.80094
G1 X118.37 Y133.269 E9.80363
G1 X118.327 Y134.014 E9.82845
G1 X118.316 Y134.098 E9.83127
G1 X118.185 Y134.751 E9.85342
G1 X118.053 Y135.156 E9.86759
G1 F2700 E4.86759
G0 F6000 X118.061 Y135.159
G0 X126.746 Y134.957
G0 X129.37 Y133.505
G0 X130.848 Y133.745
G1 F2700 E9.86759
G0 F6000 X130.786 Y133.341
;TYPE:WALL-OUTER
G1 F1200 X130.724 Y133.341 E9.86965
G1 X130.183 Y133.257 E9.88786
G1 X130.122 Y133.238 E9.88999
G1 X129.633 Y132.988 E9.90825
G1 X129.583 Y132.951 E9.91032
G1 X129.195 Y132.563 E9.92857
G1 X129.158 Y132.513 E9.93064
G1 X128.908 Y132.024 E9.94891
G1 X128.889 Y131.963 E9.95103
G1 X128.805 Y131.422 E9.96924
G1 X128.805 Y131.36 E9.97131
G1 X128.889 Y130.819 E9.98951
G1 X128.908 Y130.758 E9.99164
G1 X129.158 Y130.269 E10.00991
G1 X129.195 Y130.219 E10.01197
G1 X129.583 Y129.831 E10.03023
G1 X129.633 Y129.794 E10.03229
G1 X130.122 Y129.544 E10.05056
G1 X130.182 Y129.525 E10.05265
G1 X130.723 Y129.44 E10.07087
G1 X130.787 Y129.44 E10.073
G1 X131.328 Y129.525 E10.09121
G1 X131.388 Y129.544 E10.0933
G1 X131.877 Y129.794 E10.11157
G1 X131.927 Y129.831 E10.11364
G1 X132.315 Y130.219 E10.13189
G1 X132.352 Y130.269 E10.13396
G1 X132.602 Y130.758 E10.15223
G1 X132.621 Y130.819 E10.15435
G1 X132.706 Y131.359 E10.17253
G1 X132.706 Y131.423 E10.17466
G1 X132.621 Y131.967 E10.19297
G1 X132.485 Y132.252 E10.20348
G1 X132.352 Y132.513 E10.21322
G1 X132.041 Y132.837 E10.22816
G1 X131.877 Y132.988 E10.23557
G1 X131.38 Y133.241 E10.25412
G1 X131.327 Y133.257 E10.25596
G1 X130.786 Y133.341 E10.27417
G0 F6000 X130.122 Y133.652
;TYPE:WALL-INNER
G1 F1200 X129.94 Y133.594 E10.28052
G1 X129.451 Y133.344 E10.29879
G1 X129.3 Y133.234 E10.305
G1 X128.912 Y132.846 E10.32326
G1 X128.802 Y132.695 E10.32947
G1 X128.552 Y132.206 E10.34774
G1 X128.494 Y132.025 E10.35406
G1 X128.409 Y131.484 E10.37227
G1 X128.41 Y131.298 E10.37846
G1 X128.493 Y130.757 E10.39666
G1 X128.552 Y130.576 E10.40299
G1 X128.802 Y130.087 E10.42126
G1 X128.912 Y129.936 E10.42747
G1 X129.3 Y129.548 E10.44572
G1 X129.451 Y129.438 E10.45194
G1 X129.94 Y129.188 E10.4702
G1 X130.12 Y129.13 E10.47649
G1 X130.661 Y129.044 E10.49471
G1 X130.849 Y129.044 E10.50097
G1 X131.39 Y129.13 E10.51919
G1 X131.57 Y129.188 E10.52548
G1 X132.059 Y129.438 E10.54374
G1 X132.21 Y129.548 E10.54996
G1 X132.598 Y129.936 E10.56821
G1 X132.708 Y130.087 E10.57442
G1 X132.958 Y130.576 E10.59269
G1 X133.017 Y130.757 E10.59902
G1 X133.101 Y131.297 E10.6172
G1 X133.101 Y131.485 E10.62345
G1 X133.016 Y132.036 E10.64199
G1 X132.841 Y132.434 E10.65645
G1 X132.708 Y132.695 E10.6662
G1 X132.469 Y132.974 E10.67841
G1 X132.179 Y133.264 E10.69205
G1 X131.892 Y133.429 E10.70307
G1 X131.548 Y133.604 E10.7159
G1 X131.388 Y133.652 E10.72146
G1 X130.848 Y133.737 E10.73964
G1 X130.662 Y133.737 E10.74583
G1 X130.122 Y133.652 E10.76401
G0 F6000 X129.807 Y133.927
;TYPE:SKIN
G1 F1200 X129.777 Y133.915 E10.76508
G1 X129.286 Y133.664 E10.78342
G1 X129.066 Y133.505 E10.79245
G1 X129.043 Y133.485 E10.79347
G1 X128.661 Y133.103 E10.81143
G1 X128.496 Y132.883 E10.82058
G1 X128.479 Y132.855 E10.82167
G1 X128.231 Y132.368 E10.83985
G1 X128.144 Y132.108 E10.84897
G1 X128.137 Y132.077 E10.85002
G1 X128.054 Y131.538 E10.86816
G1 X128.052 Y131.273 E10.87698
G1 X128.054 Y131.242 E10.87801
G1 X128.137 Y130.703 E10.89615
G1 X128.219 Y130.442 E10.90525
G1 X128.231 Y130.414 E10.90626
G1 X128.481 Y129.924 E10.92456
G1 X128.641 Y129.702 E10.93366
G1 X128.661 Y129.679 E10.93467
G1 X129.043 Y129.297 E10.95264
G1 X129.259 Y129.135 E10.96162
G1 X129.286 Y129.118 E10.96268
G1 X129.775 Y128.868 E10.98095
G1 X130.018 Y128.784 E10.9895
G1 X130.051 Y128.776 E10.99063
G1 X130.605 Y128.689 E11.00928
G1 X130.875 Y128.687 E11.01826
G1 X130.907 Y128.689 E11.01933
G1 X131.448 Y128.774 E11.03754
G1 X131.704 Y128.856 E11.04648
G1 X131.732 Y128.867 E11.04748
G1 X132.246 Y129.13 E11.06669
G1 X132.424 Y129.254 E11.0739
G1 X132.849 Y129.679 E11.09389
G1 X133.01 Y129.893 E11.1028
G1 X133.027 Y129.921 E11.10389
G1 F1203 X133.278 Y130.414 E11.12224
G1 F1230.8 X133.357 Y130.671 E11.13096
G1 F1256.5 X133.363 Y130.701 E11.13193
G1 F1297.3 X133.394 Y130.972 E11.14033
G1 F1375.4 X133.426 Y131.244 E11.14827
G1 F1420.1 X133.426 Y131.509 E11.15572
G1 X133.426 Y131.535 E11.15645
G1 F1375.4 X133.395 Y131.807 E11.1644
G1 F1297.3 X133.363 Y132.08 E11.17285
G1 F1230.8 X133.291 Y132.341 E11.18163
G1 F1200 X133.155 Y132.611 E11.19169
G1 X133.038 Y132.839 E11.20021
G1 X132.889 Y133.06 E11.20908
G1 X132.702 Y133.251 E11.21797
G1 X132.429 Y133.511 E11.23051
G1 X132.296 Y133.623 E11.23629
G1 X131.854 Y133.853 E11.25286
G1 X131.575 Y133.978 E11.26303
G1 X131.525 Y133.993 E11.26477
G1 X130.903 Y134.092 E11.28571
G1 X130.637 Y134.094 E11.29456
G1 X130.606 Y134.092 E11.29559
G1 X130.065 Y134.008 E11.3138
G1 X129.807 Y133.927 E11.3228
G1 F2700 E6.3228
G0 F6000 X129.887 Y133.68
G0 X129.37 Y133.505
G0 X121.996 Y134.956
G0 X118.3 Y134.978
G1 F2700 E11.3228
G0 F6000 X118.544 Y134.795
G1 F1200 X130.871 Y134.797 E11.7328
G1 X131.626 Y134.797 E11.75791
G1 X131.878 Y134.784 E11.7663
G1 X132.127 Y134.742 E11.7747
G1 X132.376 Y134.672 E11.7833
G1 X132.748 Y134.484 E11.79716
G1 X132.97 Y134.334 E11.80608
G1 X133.25 Y134.066 E11.81897
G1 X133.407 Y133.85 E11.82785
G1 X133.547 Y133.592 E11.83761
G1 X133.643 Y133.338 E11.84664
G1 X133.701 Y133.07 E11.85576
G1 X133.732 Y132.75 E11.86646
G1 X133.732 Y132.116 E11.88754
G1 F1230.8 X133.742 Y132.109 E11.88794
G1 F1297.3 X133.752 Y131.835 E11.89637
G1 F1375.4 X133.763 Y131.561 E11.90433
G1 F1420.1 X133.764 Y131.27 E11.91251
G1 X133.763 Y131.218 E11.91397
G1 F1375.4 X133.753 Y130.945 E11.9219
G1 F1297.3 X133.742 Y130.672 E11.93031
G1 F1233.9 X133.733 Y130.304 E11.94221
G1 F1203 X133.733 Y128.642 E11.99735
G1 F1200 X133.733 Y127.845 E12.02386
G1 X127.208 Y127.844 E12.24088
G1 X116.795 Y127.843 E12.58722
G1 F1108.5 X116.365 Y127.768 E12.60294
G1 F1010.5 X116.214 Y127.693 E12.6096
G1 F1086 X115.935 Y127.304 E12.62719
G1 F1200 X115.836 Y126.918 E12.64044
G1 X115.833 Y126.605 E12.65085
G1 X115.833 Y113.913 E13.07299
G1 F1206 X115.835 Y113.366 E13.09109
G1 F1237.1 X115.843 Y113.002 E13.10284
G1 F1300.8 X115.853 Y112.728 E13.11125
G1 F1375.4 X115.864 Y112.454 E13.11921
G1 F1420.1 X115.865 Y112.173 E13.12711
G1 X115.864 Y112.122 E13.12854
G1 F1375.4 X115.854 Y111.85 E13.13644
G1 F1300.8 X115.843 Y111.578 E13.14479
G1 F1233.9 X115.834 Y111.214 E13.15657
G1 F1206 X115.834 Y108.113 E13.25919
G1 F1203 X115.833 Y105.012 E13.36208
G1 F1200 X115.833 Y100.201 E13.52209
G1 X103.42 Y100.201 E13.93495
G1 X103.06 Y100.222 E13.94694
G1 X102.698 Y100.301 E13.95927
G1 X102.391 Y100.425 E13.97028
G1 X102.077 Y100.617 E13.98252
G1 X101.876 Y100.79 E13.99134
G1 X101.699 Y100.988 E14.00017
G1 X101.55 Y101.211 E14.00909
G1 X101.431 Y101.449 E14.01794
G1 X101.345 Y101.695 E14.02661
G1 X101.289 Y101.963 E14.03572
G1 X101.267 Y102.255 E14.04546
G1 X101.266 Y114.48 E14.45206
G1 X101.265 Y126.63 E14.85617
G1 X101.285 Y126.911 E14.86554
G1 X101.33 Y127.158 E14.87389
G1 X101.419 Y127.44 E14.88373
G1 X101.533 Y127.668 E14.89221
G1 X101.677 Y127.89 E14.90101
G1 X101.85 Y128.091 E14.90983
G1 X102.049 Y128.268 E14.91869
G1 X102.272 Y128.417 E14.92761
G1 X102.514 Y128.54 E14.93664
G1 X102.759 Y128.625 E14.94526
G1 X103.027 Y128.681 E14.95437
G1 X103.319 Y128.705 E14.96411
G1 X108.021 Y128.704 E15.1205
G1 X108.322 Y128.688 E15.13053
G1 X108.527 Y128.595 E15.13801
G1 X109.029 Y128.203 E15.1592
G1 X109.44 Y127.954 E15.17518
G1 X109.778 Y127.763 E15.18809
G1 X110.552 Y127.435 E15.21605
G1 X110.883 Y127.343 E15.22748
G1 X111.386 Y127.217 E15.24473
G1 X112.102 Y127.124 E15.26874
