;FLAVOR:Marlin
;TIME:5825
;Filament used: 5.22771m
;Layer height: 0.2
;MINX:54.2
;MINY:92.7
;MINZ:0.2
;MAXX:180.8
;MAXY:142.3
;MAXZ:2.6
;Generated with Cura_SteamEngine 5.0.0
M140 S50
M105
M190 S50
M104 S200
M105
M109 S200
M82 ;absolute extrusion mode
; Ender 3 Custom Start G-code
G92 E0 ; Reset Extruder
G28 ; Home all axes
G1 Z2.0 F3000 ; Move Z Axis up little to prevent scratching of Heat Bed
G1 X0.1 Y20 Z0.3 F5000.0 ; Move to start position
G1 X0.1 Y200.0 Z0.3 F1500.0 E15 ; Draw the first line
G1 X0.4 Y200.0 Z0.3 F5000.0 ; Move to side a little
G1 X0.4 Y20 Z0.3 F1500.0 E30 ; Draw the second line
G92 E0 ; Reset Extruder
G1 Z2.0 F3000 ; Move Z Axis up little to prevent scratching of Heat Bed
G1 X5 Y20 Z0.3 F5000.0 ; Move over to prevent blob squish
G92 E0
G92 E0
G1 F2700 E-5
;LAYER_COUNT:12
;LAYER:0
M107
;MESH:Slot.stl
G0 F6000 X54.2 Y142.3 Z0.2
;TYPE:WALL-OUTER
G1 F2700 E0
G1 F1200 X180.8 Y142.3 E4.21073
G1 X180.8 Y92.7 E5.86044
G1 X54.2 Y92.7 E10.07117
G1 X54.2 Y142.3 E11.72087
G0 F6000 X54.6 Y141.9
;TYPE:WALL-INNER
G1 F1200 X180.4 Y141.9 E15.905
G1 X180.4 Y93.1 E17.52809
G1 X54.6 Y93.1 E21.71222
G1 X54.6 Y141.9 E23.33531
G0 F6000 X54.96 Y141.54
;TYPE:SKIN
G1 F1200 X156 Y141.54 E26.69591
G1 X180.04 Y141.54 E27.49549
G1 X180.04 Y93.46 E29.09464
G1 X54.96 Y93.46 E33.25481
G1 X54.96 Y141.54 E34.85396
G0 F6000 X55.159 Y141.144
G1 F1200 X55.355 Y141.339 E34.86316
G0 F6000 X55.92 Y141.339
G1 F1200 X55.159 Y140.578 E34.89895
G0 F6000 X55.159 Y140.012
G1 F1200 X56.486 Y141.339 E34.96137
G0 F6000 X57.052 Y141.339
G1 F1200 X55.159 Y139.447 E35.05039
G0 F6000 X55.159 Y138.881
G1 F1200 X57.617 Y141.339 E35.166
G0 F6000 X58.183 Y141.339
G1 F1200 X55.159 Y138.315 E35.30824
G0 F6000 X55.159 Y137.75
G1 F1200 X58.749 Y141.339 E35.47708
G0 F6000 X59.314 Y141.339
G1 F1200 X55.159 Y137.184 E35.67252
G0 F6000 X55.159 Y136.618
G1 F1200 X59.88 Y141.339 E35.89458
G0 F6000 X60.446 Y141.339
G1 F1200 X55.159 Y136.053 E36.14324
G0 F6000 X55.159 Y135.487
G1 F1200 X61.012 Y141.339 E36.41853
G0 F6000 X61.577 Y141.339
G1 F1200 X55.159 Y134.921 E36.72041
G0 F6000 X55.159 Y134.355
G1 F1200 X62.143 Y141.339 E37.04892
G0 F6000 X62.709 Y141.339
G1 F1200 X55.159 Y133.79 E37.40402
G0 F6000 X55.159 Y133.224
G1 F1200 X63.274 Y141.339 E37.78573
G0 F6000 X63.84 Y141.339
G1 F1200 X55.159 Y132.658 E38.19405
G0 F6000 X55.159 Y132.093
G1 F1200 X64.406 Y141.339 E38.62898
G0 F6000 X64.971 Y141.339
G1 F1200 X55.159 Y131.527 E39.09051
G0 F6000 X55.159 Y130.961
G1 F1200 X65.537 Y141.339 E39.57866
G0 F6000 X66.103 Y141.339
G1 F1200 X55.159 Y130.396 E40.0934
G0 F6000 X55.159 Y129.83
G1 F1200 X66.668 Y141.339 E40.63475
G0 F6000 X67.234 Y141.339
G1 F1200 X55.159 Y129.264 E41.20272
G0 F6000 X55.159 Y128.699
G1 F1200 X67.8 Y141.339 E41.79729
G0 F6000 X68.365 Y141.339
G1 F1200 X55.159 Y128.133 E42.41846
G0 F6000 X55.159 Y127.567
G1 F1200 X68.931 Y141.339 E43.06626
G0 F6000 X69.497 Y141.339
G1 F1200 X55.159 Y127.002 E43.74065
G0 F6000 X55.159 Y126.436
G1 F1200 X70.062 Y141.339 E44.44164
G0 F6000 X70.628 Y141.339
G1 F1200 X55.159 Y125.87 E45.16925
G0 F6000 X55.159 Y125.304
G1 F1200 X71.194 Y141.339 E45.92349
G0 F6000 X71.76 Y141.339
G1 F1200 X55.159 Y124.739 E46.70433
G0 F6000 X55.159 Y124.173
G1 F1200 X72.325 Y141.339 E47.51176
G0 F6000 X72.891 Y141.339
G1 F1200 X55.159 Y123.607 E48.34582
G0 F6000 X55.159 Y123.042
G1 F1200 X73.457 Y141.339 E49.20648
G0 F6000 X74.022 Y141.339
G1 F1200 X55.159 Y122.476 E50.09374
G0 F6000 X55.159 Y121.91
G1 F1200 X74.588 Y141.339 E51.00762
G0 F6000 X75.154 Y141.339
G1 F1200 X55.159 Y121.345 E51.9481
G0 F6000 X55.159 Y120.779
G1 F1200 X75.719 Y141.339 E52.91518
G0 F6000 X76.285 Y141.339
G1 F1200 X55.159 Y120.213 E53.90888
G0 F6000 X55.159 Y119.648
G1 F1200 X76.851 Y141.339 E54.92918
G0 F6000 X77.416 Y141.339
G1 F1200 X55.159 Y119.082 E55.97608
G0 F6000 X55.159 Y118.516
G1 F1200 X77.982 Y141.339 E57.04961
G0 F6000 X78.548 Y141.339
G1 F1200 X55.159 Y117.951 E58.14973
G0 F6000 X55.159 Y117.385
G1 F1200 X79.113 Y141.339 E59.27645
G0 F6000 X79.679 Y141.339
G1 F1200 X55.159 Y116.819 E60.4298
G0 F6000 X55.159 Y116.254
G1 F1200 X80.245 Y141.339 E61.60974
G0 F6000 X80.81 Y141.339
G1 F1200 X55.159 Y115.688 E62.81629
G0 F6000 X55.159 Y115.122
G1 F1200 X81.376 Y141.339 E64.04946
G0 F6000 X81.942 Y141.339
G1 F1200 X55.159 Y114.556 E65.30925
G0 F6000 X55.159 Y113.991
G1 F1200 X82.508 Y141.339 E66.59564
G0 F6000 X83.073 Y141.339
G1 F1200 X55.159 Y113.425 E67.90863
G0 F6000 X55.159 Y112.859
G1 F1200 X83.639 Y141.339 E69.24824
G0 F6000 X84.205 Y141.339
G1 F1200 X55.159 Y112.294 E70.61445
G0 F6000 X55.159 Y111.728
G1 F1200 X84.77 Y141.339 E72.00726
G0 F6000 X85.336 Y141.339
G1 F1200 X55.159 Y111.162 E73.42669
G0 F6000 X55.159 Y110.597
G1 F1200 X85.902 Y141.339 E74.87273
G0 F6000 X86.467 Y141.339
G1 F1200 X55.159 Y110.031 E76.34536
G0 F6000 X55.159 Y109.465
G1 F1200 X87.033 Y141.339 E77.84461
G0 F6000 X87.599 Y141.339
G1 F1200 X55.159 Y108.9 E79.37047
G0 F6000 X55.159 Y108.334
G1 F1200 X88.164 Y141.339 E80.92292
G0 F6000 X88.73 Y141.339
G1 F1200 X55.159 Y107.768 E82.502
G0 F6000 X55.159 Y107.203
G1 F1200 X89.296 Y141.339 E84.10767
G0 F6000 X89.861 Y141.339
G1 F1200 X55.159 Y106.637 E85.73995
G0 F6000 X55.159 Y106.071
G1 F1200 X90.427 Y141.339 E87.39885
G0 F6000 X90.993 Y141.339
G1 F1200 X55.159 Y105.505 E89.08437
G0 F6000 X55.159 Y104.94
G1 F1200 X91.559 Y141.339 E90.79649
G0 F6000 X92.124 Y141.339
G1 F1200 X55.159 Y104.374 E92.53521
G0 F6000 X55.159 Y103.808
G1 F1200 X92.69 Y141.339 E94.30056
G0 F6000 X93.256 Y141.339
G1 F1200 X55.159 Y103.243 E96.0925
G0 F6000 X55.159 Y102.677
G1 F1200 X93.821 Y141.339 E97.91104
G0 F6000 X94.387 Y141.339
G1 F1200 X55.159 Y102.111 E99.7562
G0 F6000 X55.159 Y101.546
G1 F1200 X94.953 Y141.339 E101.62797
G0 F6000 X95.518 Y141.339
G1 F1200 X55.159 Y100.98 E103.52633
G0 F6000 X55.159 Y100.414
G1 F1200 X96.084 Y141.339 E105.45132
G0 F6000 X96.65 Y141.339
G1 F1200 X55.159 Y99.849 E107.4029
G0 F6000 X55.159 Y99.283
G1 F1200 X97.215 Y141.339 E109.38109
G0 F6000 X97.781 Y141.339
G1 F1200 X55.159 Y98.717 E111.3859
G0 F6000 X55.159 Y98.152
G1 F1200 X98.347 Y141.339 E113.41731
G0 F6000 X98.912 Y141.339
G1 F1200 X55.159 Y97.586 E115.47531
G0 F6000 X55.159 Y97.02
G1 F1200 X99.478 Y141.339 E117.55994
G0 F6000 X100.044 Y141.339
G1 F1200 X55.159 Y96.455 E119.67117
G0 F6000 X55.159 Y95.889
G1 F1200 X100.609 Y141.339 E121.809
G0 F6000 X101.175 Y141.339
G1 F1200 X55.159 Y95.323 E123.97345
G0 F6000 X55.159 Y94.757
G1 F1200 X101.741 Y141.339 E126.16453
G0 F6000 X102.307 Y141.339
G1 F1200 X55.159 Y94.192 E128.3822
G0 F6000 X55.193 Y93.659
G1 F1200 X102.872 Y141.339 E130.6249
G0 F6000 X103.438 Y141.339
G1 F1200 X55.758 Y93.659 E132.86762
G0 F6000 X56.324 Y93.659
G1 F1200 X104.004 Y141.339 E135.11034
G0 F6000 X104.569 Y141.339
G1 F1200 X56.89 Y93.659 E137.35304
G0 F6000 X57.455 Y93.659
G1 F1200 X105.135 Y141.339 E139.59576
G0 F6000 X105.701 Y141.339
G1 F1200 X58.021 Y93.659 E141.83848
G0 F6000 X58.587 Y93.659
G1 F1200 X106.266 Y141.339 E144.08118
G0 F6000 X106.832 Y141.339
G1 F1200 X59.153 Y93.659 E146.32387
G0 F6000 X59.718 Y93.659
G1 F1200 X107.398 Y141.339 E148.5666
G0 F6000 X107.963 Y141.339
G1 F1200 X60.284 Y93.659 E150.80929
G0 F6000 X60.85 Y93.659
G1 F1200 X108.529 Y141.339 E153.05199
G0 F6000 X109.095 Y141.339
G1 F1200 X61.415 Y93.659 E155.29471
G0 F6000 X61.981 Y93.659
G1 F1200 X109.66 Y141.339 E157.53741
G0 F6000 X110.226 Y141.339
G1 F1200 X62.547 Y93.659 E159.78011
G0 F6000 X63.112 Y93.659
G1 F1200 X110.792 Y141.339 E162.02283
G0 F6000 X111.358 Y141.339
G1 F1200 X63.678 Y93.659 E164.26555
G0 F6000 X64.244 Y93.659
G1 F1200 X111.923 Y141.339 E166.50825
G0 F6000 X112.489 Y141.339
G1 F1200 X64.809 Y93.659 E168.75097
G0 F6000 X65.375 Y93.659
G1 F1200 X113.055 Y141.339 E170.99369
G0 F6000 X113.62 Y141.339
G1 F1200 X65.941 Y93.659 E173.23639
G0 F6000 X66.506 Y93.659
G1 F1200 X114.186 Y141.339 E175.47911
G0 F6000 X114.752 Y141.339
G1 F1200 X67.072 Y93.659 E177.72183
G0 F6000 X67.638 Y93.659
G1 F1200 X115.317 Y141.339 E179.96453
G0 F6000 X115.883 Y141.339
G1 F1200 X68.203 Y93.659 E182.20725
G0 F6000 X68.769 Y93.659
G1 F1200 X116.449 Y141.339 E184.44997
G0 F6000 X117.014 Y141.339
G1 F1200 X69.335 Y93.659 E186.69266
G0 F6000 X69.901 Y93.659
G1 F1200 X117.58 Y141.339 E188.93536
G0 F6000 X118.146 Y141.339
G1 F1200 X70.466 Y93.659 E191.17808
G0 F6000 X71.032 Y93.659
G1 F1200 X118.711 Y141.339 E193.42078
G0 F6000 X119.277 Y141.339
G1 F1200 X71.598 Y93.659 E195.66348
G0 F6000 X72.163 Y93.659
G1 F1200 X119.843 Y141.339 E197.9062
G0 F6000 X120.408 Y141.339
G1 F1200 X72.729 Y93.659 E200.1489
G0 F6000 X73.295 Y93.659
G1 F1200 X120.974 Y141.339 E202.39159
G0 F6000 X121.54 Y141.339
G1 F1200 X73.86 Y93.659 E204.63432
G0 F6000 X74.426 Y93.659
G1 F1200 X122.106 Y141.339 E206.87704
G0 F6000 X122.671 Y141.339
G1 F1200 X74.992 Y93.659 E209.11973
G0 F6000 X75.557 Y93.659
G1 F1200 X123.237 Y141.339 E211.36245
G0 F6000 X123.803 Y141.339
G1 F1200 X76.123 Y93.659 E213.60518
G0 F6000 X76.689 Y93.659
G1 F1200 X124.368 Y141.339 E215.84787
G0 F6000 X124.934 Y141.339
G1 F1200 X77.254 Y93.659 E218.09059
G0 F6000 X77.82 Y93.659
G1 F1200 X125.5 Y141.339 E220.33332
G0 F6000 X126.065 Y141.339
G1 F1200 X78.386 Y93.659 E222.57601
G0 F6000 X78.952 Y93.659
G1 F1200 X126.631 Y141.339 E224.81871
G0 F6000 X127.197 Y141.339
G1 F1200 X79.517 Y93.659 E227.06143
G0 F6000 X80.083 Y93.659
G1 F1200 X127.762 Y141.339 E229.30413
G0 F6000 X128.328 Y141.339
G1 F1200 X80.649 Y93.659 E231.54683
G0 F6000 X81.214 Y93.659
G1 F1200 X128.894 Y141.339 E233.78955
G0 F6000 X129.459 Y141.339
G1 F1200 X81.78 Y93.659 E236.03224
G0 F6000 X82.346 Y93.659
G1 F1200 X130.025 Y141.339 E238.27494
G0 F6000 X130.591 Y141.339
G1 F1200 X82.911 Y93.659 E240.51766
G0 F6000 X83.477 Y93.659
G1 F1200 X131.156 Y141.339 E242.76036
G0 F6000 X131.722 Y141.339
G1 F1200 X84.043 Y93.659 E245.00306
G0 F6000 X84.608 Y93.659
G1 F1200 X132.288 Y141.339 E247.24578
G0 F6000 X132.854 Y141.339
G1 F1200 X85.174 Y93.659 E249.4885
G0 F6000 X85.74 Y93.659
G1 F1200 X133.419 Y141.339 E251.7312
G0 F6000 X133.985 Y141.339
G1 F1200 X86.305 Y93.659 E253.97392
G0 F6000 X86.871 Y93.659
G1 F1200 X134.551 Y141.339 E256.21664
G0 F6000 X135.116 Y141.339
G1 F1200 X87.437 Y93.659 E258.45934
G0 F6000 X88.002 Y93.659
G1 F1200 X135.682 Y141.339 E260.70206
G0 F6000 X136.248 Y141.339
G1 F1200 X88.568 Y93.659 E262.94478
G0 F6000 X89.134 Y93.659
G1 F1200 X136.813 Y141.339 E265.18748
G0 F6000 X137.379 Y141.339
G1 F1200 X89.7 Y93.659 E267.43017
G0 F6000 X90.265 Y93.659
G1 F1200 X137.945 Y141.339 E269.6729
G0 F6000 X138.51 Y141.339
G1 F1200 X90.831 Y93.659 E271.91559
G0 F6000 X91.397 Y93.659
G1 F1200 X139.076 Y141.339 E274.15829
G0 F6000 X139.642 Y141.339
G1 F1200 X91.962 Y93.659 E276.40101
G0 F6000 X92.528 Y93.659
G1 F1200 X140.207 Y141.339 E278.64371
G0 F6000 X140.773 Y141.339
G1 F1200 X93.094 Y93.659 E280.88641
G0 F6000 X93.659 Y93.659
G1 F1200 X141.339 Y141.339 E283.12913
G0 F6000 X141.905 Y141.339
G1 F1200 X94.225 Y93.659 E285.37185
G0 F6000 X94.791 Y93.659
G1 F1200 X142.47 Y141.339 E287.61455
G0 F6000 X143.036 Y141.339
G1 F1200 X95.356 Y93.659 E289.85727
G0 F6000 X95.922 Y93.659
G1 F1200 X143.602 Y141.339 E292.09999
G0 F6000 X144.167 Y141.339
G1 F1200 X96.488 Y93.659 E294.34269
G0 F6000 X97.053 Y93.659
G1 F1200 X144.733 Y141.339 E296.58541
G0 F6000 X145.299 Y141.339
G1 F1200 X97.619 Y93.659 E298.82813
G0 F6000 X98.185 Y93.659
G1 F1200 X145.864 Y141.339 E301.07083
G0 F6000 X146.43 Y141.339
G1 F1200 X98.75 Y93.659 E303.31355
G0 F6000 X99.316 Y93.659
G1 F1200 X146.996 Y141.339 E305.55627
G0 F6000 X147.561 Y141.339
G1 F1200 X99.882 Y93.659 E307.79896
G0 F6000 X100.448 Y93.659
G1 F1200 X148.127 Y141.339 E310.04166
G0 F6000 X148.693 Y141.339
G1 F1200 X101.013 Y93.659 E312.28438
G0 F6000 X101.579 Y93.659
G1 F1200 X149.258 Y141.339 E314.52708
G0 F6000 X149.824 Y141.339
G1 F1200 X102.145 Y93.659 E316.76978
G0 F6000 X102.71 Y93.659
G1 F1200 X150.39 Y141.339 E319.0125
G0 F6000 X150.955 Y141.339
G1 F1200 X103.276 Y93.659 E321.2552
G0 F6000 X103.842 Y93.659
G1 F1200 X151.521 Y141.339 E323.49789
G0 F6000 X152.087 Y141.339
G1 F1200 X104.407 Y93.659 E325.74062
G0 F6000 X104.973 Y93.659
G1 F1200 X152.653 Y141.339 E327.98334
G0 F6000 X153.218 Y141.339
G1 F1200 X105.539 Y93.659 E330.22603
G0 F6000 X106.104 Y93.659
G1 F1200 X153.784 Y141.339 E332.46875
G0 F6000 X154.35 Y141.339
G1 F1200 X106.67 Y93.659 E334.71148
G0 F6000 X107.236 Y93.659
G1 F1200 X154.915 Y141.339 E336.95417
G0 F6000 X155.481 Y141.339
G1 F1200 X107.801 Y93.659 E339.19689
G0 F6000 X108.367 Y93.659
G1 F1200 X156.047 Y141.339 E341.43962
G0 F6000 X156.612 Y141.339
G1 F1200 X108.933 Y93.659 E343.68231
G0 F6000 X109.499 Y93.659
G1 F1200 X157.178 Y141.339 E345.92501
G0 F6000 X157.744 Y141.339
G1 F1200 X110.064 Y93.659 E348.16773
G0 F6000 X110.63 Y93.659
G1 F1200 X158.309 Y141.339 E350.41043
G0 F6000 X158.875 Y141.339
G1 F1200 X111.196 Y93.659 E352.65313
G0 F6000 X111.761 Y93.659
G1 F1200 X159.441 Y141.339 E354.89585
G0 F6000 X160.006 Y141.339
G1 F1200 X112.327 Y93.659 E357.13854
G0 F6000 X112.893 Y93.659
G1 F1200 X160.572 Y141.339 E359.38124
G0 F6000 X161.138 Y141.339
G1 F1200 X113.458 Y93.659 E361.62396
G0 F6000 X114.024 Y93.659
G1 F1200 X161.704 Y141.339 E363.86668
G0 F6000 X162.269 Y141.339
G1 F1200 X114.59 Y93.659 E366.10938
G0 F6000 X115.155 Y93.659
G1 F1200 X162.835 Y141.339 E368.3521
G0 F6000 X163.401 Y141.339
G1 F1200 X115.721 Y93.659 E370.59482
G0 F6000 X116.287 Y93.659
G1 F1200 X163.966 Y141.339 E372.83752
G0 F6000 X164.532 Y141.339
G1 F1200 X116.852 Y93.659 E375.08024
G0 F6000 X117.418 Y93.659
G1 F1200 X165.098 Y141.339 E377.32296
G0 F6000 X165.663 Y141.339
G1 F1200 X117.984 Y93.659 E379.56566
G0 F6000 X118.549 Y93.659
G1 F1200 X166.229 Y141.339 E381.80838
G0 F6000 X166.795 Y141.339
G1 F1200 X119.115 Y93.659 E384.0511
G0 F6000 X119.681 Y93.659
G1 F1200 X167.36 Y141.339 E386.2938
G0 F6000 X167.926 Y141.339
G1 F1200 X120.247 Y93.659 E388.5365
G0 F6000 X120.812 Y93.659
G1 F1200 X168.492 Y141.339 E390.77922
G0 F6000 X169.057 Y141.339
G1 F1200 X121.378 Y93.659 E393.02192
G0 F6000 X121.944 Y93.659
G1 F1200 X169.623 Y141.339 E395.26461
G0 F6000 X170.189 Y141.339
G1 F1200 X122.509 Y93.659 E397.50733
G0 F6000 X123.075 Y93.659
G1 F1200 X170.754 Y141.339 E399.75003
G0 F6000 X171.32 Y141.339
G1 F1200 X123.641 Y93.659 E401.99273
G0 F6000 X124.206 Y93.659
G1 F1200 X171.886 Y141.339 E404.23545
G0 F6000 X172.452 Y141.339
G1 F1200 X124.772 Y93.659 E406.47817
G0 F6000 X125.338 Y93.659
G1 F1200 X173.017 Y141.339 E408.72087
G0 F6000 X173.583 Y141.339
G1 F1200 X125.903 Y93.659 E410.96359
G0 F6000 X126.469 Y93.659
G1 F1200 X174.149 Y141.339 E413.20631
G0 F6000 X174.714 Y141.339
G1 F1200 X127.035 Y93.659 E415.44901
G0 F6000 X127.6 Y93.659
G1 F1200 X175.28 Y141.339 E417.69173
G0 F6000 X175.846 Y141.339
G1 F1200 X128.166 Y93.659 E419.93445
G0 F6000 X128.732 Y93.659
G1 F1200 X176.411 Y141.339 E422.17715
G0 F6000 X176.977 Y141.339
G1 F1200 X129.298 Y93.659 E424.41985
G0 F6000 X129.863 Y93.659
G1 F1200 X177.543 Y141.339 E426.66257
G0 F6000 X178.108 Y141.339
G1 F1200 X130.429 Y93.659 E428.90526
G0 F6000 X130.995 Y93.659
G1 F1200 X178.674 Y141.339 E431.14796
G0 F6000 X179.24 Y141.339
G1 F1200 X131.56 Y93.659 E433.39068
G0 F6000 X132.126 Y93.659
G1 F1200 X179.805 Y141.339 E435.63338
G0 F6000 X179.839 Y140.806
G1 F1200 X132.692 Y93.659 E437.85103
G0 F6000 X133.257 Y93.659
G1 F1200 X179.839 Y140.241 E440.04211
G0 F6000 X179.839 Y139.675
G1 F1200 X133.823 Y93.659 E442.20656
G0 F6000 X134.389 Y93.659
G1 F1200 X179.839 Y139.109 E444.34439
G0 F6000 X179.839 Y138.544
G1 F1200 X134.954 Y93.659 E446.45564
G0 F6000 X135.52 Y93.659
G1 F1200 X179.839 Y137.978 E448.54027
G0 F6000 X179.839 Y137.412
G1 F1200 X136.086 Y93.659 E450.59828
G0 F6000 X136.651 Y93.659
G1 F1200 X179.839 Y136.847 E452.62971
G0 F6000 X179.839 Y136.281
G1 F1200 X137.217 Y93.659 E454.63451
G0 F6000 X137.783 Y93.659
G1 F1200 X179.839 Y135.715 E456.6127
G0 F6000 X179.839 Y135.15
G1 F1200 X138.348 Y93.659 E458.56431
G0 F6000 X138.914 Y93.659
G1 F1200 X179.839 Y134.584 E460.4893
G0 F6000 X179.839 Y134.018
G1 F1200 X139.48 Y93.659 E462.38766
G0 F6000 X140.046 Y93.659
