;FLAVOR:Marlin
;TIME:19816
;Filament used: 17.5208m
;Layer height: 0.2
;MINX:54.2
;MINY:111.35
;MINZ:0.2
;MAXX:180.8
;MAXY:123.65
;MAXZ:111.32
;Generated with Cura_SteamEngine 5.0.0
M140 S50
M105
M190 S50
M104 S200
M105
M109 S200
M82 ;absolute extrusion mode
; Ender 3 Custom Start G-code
G92 E0 ; Reset Extruder
G28 ; Home all axes
G1 Z2.0 F3000 ; Move Z Axis up little to prevent scratching of Heat Bed
G1 X0.1 Y20 Z0.3 F5000.0 ; Move to start position
G1 X0.1 Y200.0 Z0.3 F1500.0 E15 ; Draw the first line
G1 X0.4 Y200.0 Z0.3 F5000.0 ; Move to side a little
G1 X0.4 Y20 Z0.3 F1500.0 E30 ; Draw the second line
G92 E0 ; Reset Extruder
G1 Z2.0 F3000 ; Move Z Axis up little to prevent scratching of Heat Bed
G1 X5 Y20 Z0.3 F5000.0 ; Move over to prevent blob squish
G92 E0
G92 E0
G1 F2700 E-5
;LAYER_COUNT:465
;LAYER:0
M107
;MESH:Bracket.stl
G0 F6000 X54.2 Y123.65 Z0.2
;TYPE:WALL-OUTER
G1 F2700 E0
G1 F1200 X180.8 Y123.65 E4.21073
G1 X180.8 Y117.5 E4.41528
G1 X180.8 Y111.35 E4.61983
G1 X156.918 Y111.351 E5.41415
G1 F1041.2 X156.473 Y111.411 E5.43136
G1 F937.5 X156.03 Y111.4 E5.45023
G1 F939.3 X155.552 Y111.41 E5.47054
G1 F1025.6 X155.155 Y111.358 E5.48612
G1 F1179.4 X154.71 Y111.35 E5.50119
G1 F1200 X154.231 Y111.351 E5.51712
G1 X153.745 Y111.35 E5.53328
G1 X150.35 Y111.351 E5.6462
G1 X79.918 Y111.351 E7.98878
G1 F1041.2 X79.473 Y111.411 E8.00599
G1 F937.5 X79.03 Y111.4 E8.02486
G1 F939.3 X78.552 Y111.41 E8.04517
G1 F1025.6 X78.155 Y111.358 E8.06075
G1 F1179.4 X77.71 Y111.35 E8.07581
G1 F1200 X77.231 Y111.351 E8.09175
G1 X76.745 Y111.35 E8.10791
G1 X73.35 Y111.351 E8.22083
G1 X54.2 Y111.35 E8.85776
G1 X54.2 Y123.65 E9.26686
G1 F2700 E4.26686
G0 F6000 X54.58 Y123.27
G0 X54.772 Y111.922
G0 X77.312 Y111.939
G0 X76.27 Y113.751
G0 X76.857 Y115.887
G0 X77.814 Y116.456
G0 X79.066 Y116.756
G1 F2700 E9.26686
G0 F6000 X79.029 Y116.349
G1 F1200 X78.644 Y116.321 E9.2797
G1 X78.274 Y116.226 E9.2924
G1 X77.927 Y116.07 E9.30506
G1 X77.607 Y115.85 E9.31797
G1 X77.336 Y115.587 E9.33053
G1 X77.109 Y115.275 E9.34337
G1 X76.943 Y114.927 E9.35619
G1 X76.84 Y114.562 E9.36881
G1 X76.801 Y114.181 E9.38154
G1 X76.829 Y113.795 E9.39442
G1 X76.924 Y113.425 E9.40712
G1 X77.08 Y113.078 E9.41978
G1 X77.299 Y112.757 E9.4327
G1 X77.563 Y112.486 E9.44528
G1 X77.875 Y112.259 E9.45812
G1 X78.222 Y112.093 E9.47091
G1 F1039 X78.571 Y111.929 E9.48572
G1 F935.7 X78.967 Y111.901 E9.50266
G1 F944.9 X79.36 Y111.922 E9.51928
G1 F1032.3 X79.728 Y112.067 E9.53458
G1 F1179.4 X80.072 Y112.23 E9.54746
G1 F1200 X80.393 Y112.449 E9.56038
G1 X80.664 Y112.713 E9.57297
G1 X80.891 Y113.025 E9.5858
G1 X81.056 Y113.37 E9.59852
G1 X81.16 Y113.737 E9.61121
G1 X81.199 Y114.119 E9.62398
G1 X81.171 Y114.505 E9.63685
G1 X81.076 Y114.875 E9.64955
G1 X80.92 Y115.222 E9.66221
G1 X80.701 Y115.543 E9.67513
G1 X80.437 Y115.814 E9.68772
G1 X80.126 Y116.041 E9.70052
G1 X79.778 Y116.207 E9.71335
G1 X79.413 Y116.31 E9.72596
G1 X79.029 Y116.349 E9.7388
G1 F2700 E4.7388
G0 F6000 X79.066 Y116.756
G0 X80.837 Y116.207
G0 X81.758 Y114.201
G0 X81.057 Y112.314
G0 X80.701 Y111.941
G0 X154.312 Y111.939
G0 X153.27 Y113.751
G0 X153.745 Y115.48
G0 X154.756 Y116.44
G1 F2700 E9.7388
G0 F6000 X154.927 Y116.07
G1 F1200 X154.607 Y115.85 E9.75171
G1 X154.336 Y115.587 E9.76427
G1 X154.109 Y115.275 E9.77711
G1 X153.943 Y114.927 E9.78993
G1 X153.84 Y114.562 E9.80255
G1 X153.801 Y114.181 E9.81528
G1 X153.829 Y113.795 E9.82816
G1 X153.924 Y113.425 E9.84086
G1 X154.08 Y113.078 E9.85352
G1 X154.299 Y112.757 E9.86644
G1 X154.563 Y112.486 E9.87902
G1 X154.875 Y112.259 E9.89186
G1 X155.222 Y112.093 E9.90465
G1 F1039 X155.571 Y111.929 E9.91946
G1 F935.7 X155.967 Y111.901 E9.9364
G1 F944.9 X156.36 Y111.922 E9.95302
G1 F1032.3 X156.728 Y112.067 E9.96832
G1 F1179.4 X157.072 Y112.23 E9.9812
G1 F1200 X157.393 Y112.449 E9.99412
G1 X157.664 Y112.713 E10.00671
G1 X157.891 Y113.025 E10.01954
G1 X158.056 Y113.37 E10.03226
G1 X158.16 Y113.737 E10.04495
G1 X158.199 Y114.119 E10.05772
G1 X158.171 Y114.505 E10.07059
G1 X158.076 Y114.875 E10.0833
G1 X157.92 Y115.222 E10.09595
G1 X157.701 Y115.543 E10.10887
G1 X157.437 Y115.814 E10.12146
G1 X157.126 Y116.041 E10.13426
G1 X156.778 Y116.207 E10.14709
G1 X156.413 Y116.31 E10.1597
G1 X156.029 Y116.349 E10.17254
G1 X155.644 Y116.321 E10.18538
G1 X155.274 Y116.226 E10.19808
G1 X154.927 Y116.07 E10.21074
G1 F2700 E5.21074
G0 F6000 X154.756 Y116.44
G0 X153.435 Y115.164
G0 X153.427 Y113.159
G0 X154.312 Y111.939
G0 X80.701 Y111.941
G0 X81.757 Y114.065
G0 X81.077 Y115.965
G0 X79.52 Y116.705
G1 F2700 E10.21074
G0 F6000 X79.519 Y116.696
;TYPE:WALL-INNER
G1 F1200 X79.065 Y116.747 E10.22593
G1 X78.612 Y116.72 E10.24103
G1 X78.171 Y116.612 E10.25613
G1 X77.761 Y116.434 E10.27099
G1 X77.378 Y116.178 E10.28632
G1 X77.055 Y115.871 E10.30114
G1 X76.784 Y115.508 E10.3162
G1 X76.58 Y115.096 E10.33149
G1 X76.454 Y114.668 E10.34633
G1 X76.403 Y114.218 E10.3614
G1 X76.43 Y113.763 E10.37656
G1 X76.538 Y113.322 E10.39166
G1 X76.716 Y112.912 E10.40652
G1 X76.971 Y112.528 E10.42186
G1 X77.279 Y112.204 E10.43672
G1 X77.641 Y111.934 E10.45174
G1 X78.011 Y111.75 E10.46549
G1 X54.6 Y111.75 E11.24414
G1 X54.6 Y123.25 E11.62663
G1 X180.4 Y123.25 E15.81076
G1 X180.4 Y117.5 E16.002
G1 X180.4 Y111.75 E16.19325
G1 X156.987 Y111.751 E16.97197
G1 X157.239 Y111.866 E16.98118
G1 X157.622 Y112.121 E16.99649
G1 X157.945 Y112.429 E17.01133
G1 X158.216 Y112.792 E17.0264
G1 X158.419 Y113.201 E17.04158
G1 X158.546 Y113.63 E17.05646
G1 X158.597 Y114.082 E17.07159
G1 X158.57 Y114.537 E17.08675
G1 X158.462 Y114.978 E17.10186
G1 X158.284 Y115.388 E17.11672
G1 X158.029 Y115.772 E17.13205
G1 X157.721 Y116.095 E17.1469
G1 X157.36 Y116.366 E17.16191
G1 X156.947 Y116.57 E17.17723
G1 X156.519 Y116.696 E17.19207
G1 X156.065 Y116.747 E17.20727
G1 X155.612 Y116.72 E17.22236
G1 X155.171 Y116.612 E17.23746
G1 X154.761 Y116.434 E17.25233
G1 X154.378 Y116.178 E17.26765
G1 X154.055 Y115.871 E17.28247
G1 X153.784 Y115.508 E17.29754
G1 X153.58 Y115.096 E17.31283
G1 X153.454 Y114.668 E17.32767
G1 X153.403 Y114.218 E17.34273
G1 X153.43 Y113.763 E17.35789
G1 X153.538 Y113.322 E17.37299
G1 X153.716 Y112.912 E17.38786
G1 X153.971 Y112.528 E17.40319
G1 X154.279 Y112.204 E17.41806
G1 X154.641 Y111.934 E17.43308
G1 X155.011 Y111.75 E17.44682
G1 X79.987 Y111.751 E19.94213
G1 X80.239 Y111.866 E19.95134
G1 X80.622 Y112.121 E19.96665
G1 X80.945 Y112.429 E19.98149
G1 X81.216 Y112.792 E19.99656
G1 X81.419 Y113.201 E20.01175
G1 X81.546 Y113.63 E20.02663
G1 X81.597 Y114.082 E20.04176
G1 X81.57 Y114.537 E20.05692
G1 X81.462 Y114.978 E20.07202
G1 X81.284 Y115.388 E20.08688
G1 X81.029 Y115.772 E20.10221
G1 X80.721 Y116.095 E20.11706
G1 X80.36 Y116.366 E20.13207
G1 X79.947 Y116.57 E20.14739
G1 X79.519 Y116.696 E20.16223
G0 F6000 X79.476 Y117.069
;TYPE:SKIN
G1 F1200 X78.963 Y117.107 E20.17934
G1 X78.442 Y117.055 E20.19676
G1 X77.952 Y116.92 E20.21366
G1 X77.483 Y116.688 E20.23106
G1 X77.064 Y116.386 E20.24824
G1 X76.713 Y116.025 E20.26499
G1 X76.415 Y115.588 E20.28258
G1 X76.304 Y115.343 E20.29153
G1 X76.195 Y115.087 E20.30078
G1 X76.081 Y114.624 E20.31664
G1 X76.043 Y114.115 E20.33362
G1 X76.095 Y113.591 E20.35113
G1 X76.23 Y113.103 E20.36797
G1 X76.458 Y112.638 E20.3852
G1 X76.762 Y112.217 E20.40247
G1 X76.87 Y112.112 E20.40748
G1 X54.96 Y112.11 E21.13621
G1 X54.96 Y122.89 E21.49475
G1 X180.04 Y122.89 E25.65493
G1 X180.04 Y117.501 E25.83417
G1 X180.04 Y112.112 E26.01341
G1 X163.639 Y112.114 E26.55891
G1 X158.133 Y112.116 E26.74204
G1 X158.308 Y112.3 E26.75048
G1 X158.585 Y112.709 E26.76691
G1 X158.792 Y113.173 E26.78381
G1 X158.919 Y113.672 E26.80094
G1 X158.957 Y114.185 E26.81805
G1 X158.905 Y114.709 E26.83556
G1 X158.898 Y114.747 E26.83685
G1 X158.75 Y115.235 E26.85381
G1 X158.542 Y115.661 E26.86958
G1 X158.235 Y116.087 E26.88704
G1 X157.874 Y116.438 E26.90379
G1 X157.441 Y116.735 E26.92125
G1 X156.982 Y116.941 E26.93798
G1 X156.476 Y117.069 E26.95534
G1 X155.963 Y117.107 E26.97245
G1 X155.442 Y117.055 E26.98987
G1 X154.952 Y116.92 E27.00677
G1 X154.483 Y116.688 E27.02418
G1 X154.064 Y116.386 E27.04135
G1 X153.713 Y116.025 E27.0581
G1 X153.415 Y115.588 E27.07569
G1 X153.304 Y115.344 E27.08461
G1 X153.195 Y115.087 E27.09389
G1 X153.081 Y114.624 E27.10975
G1 X153.043 Y114.115 E27.12673
G1 X153.095 Y113.591 E27.14424
G1 X153.23 Y113.103 E27.16108
G1 X153.458 Y112.638 E27.17831
G1 X153.762 Y112.217 E27.19558
G1 X153.87 Y112.112 E27.20059
G1 X81.133 Y112.116 E29.61983
G1 X81.308 Y112.3 E29.62828
G1 X81.585 Y112.709 E29.64471
G1 X81.792 Y113.173 E29.66161
G1 X81.919 Y113.672 E29.67873
G1 X81.957 Y114.185 E29.69584
G1 X81.905 Y114.709 E29.71336
G1 X81.898 Y114.747 E29.71464
G1 X81.75 Y115.235 E29.7316
G1 X81.542 Y115.661 E29.74737
G1 X81.235 Y116.087 E29.76484
G1 X80.874 Y116.438 E29.78158
G1 X80.441 Y116.735 E29.79905
G1 X79.982 Y116.941 E29.81578
G1 X79.476 Y117.069 E29.83314
G1 F2700 E24.83314
G0 F6000 X79.445 Y116.811
G0 X77.573 Y116.511
G0 X76.3 Y114.713
G0 X76.638 Y112.725
G0 X77.312 Y111.939
G0 X54.772 Y111.922
G0 X54.772 Y123.078
G0 X55.372 Y123.15
G1 F2700 E29.83314
G0 F6000 X55.372 Y122.688
G1 F1200 X55.159 Y122.476 E29.84313
G0 F6000 X55.159 Y121.91
G1 F1200 X55.937 Y122.688 E29.87973
G0 F6000 X56.503 Y122.688
G1 F1200 X55.159 Y121.345 E29.94292
G0 F6000 X55.159 Y120.779
G1 F1200 X57.069 Y122.688 E30.03274
G0 F6000 X57.634 Y122.688
G1 F1200 X55.159 Y120.213 E30.14916
G0 F6000 X55.159 Y119.648
G1 F1200 X58.2 Y122.688 E30.29217
G0 F6000 X58.766 Y122.688
G1 F1200 X55.159 Y119.082 E30.46181
G0 F6000 X55.159 Y118.516
G1 F1200 X59.331 Y122.688 E30.65805
G0 F6000 X59.897 Y122.688
G1 F1200 X55.159 Y117.951 E30.88089
G0 F6000 X55.159 Y117.385
G1 F1200 X60.463 Y122.688 E31.13035
G0 F6000 X61.028 Y122.688
G1 F1200 X55.159 Y116.819 E31.40641
G0 F6000 X55.159 Y116.254
G1 F1200 X61.594 Y122.688 E31.70907
G0 F6000 X62.16 Y122.688
G1 F1200 X55.159 Y115.688 E32.03835
G0 F6000 X55.159 Y115.122
G1 F1200 X62.726 Y122.688 E32.39425
G0 F6000 X63.291 Y122.688
G1 F1200 X55.159 Y114.556 E32.77676
G0 F6000 X55.159 Y113.991
G1 F1200 X63.857 Y122.688 E33.18586
G0 F6000 X64.423 Y122.688
G1 F1200 X55.159 Y113.425 E33.62159
G0 F6000 X55.159 Y112.859
G1 F1200 X64.988 Y122.688 E34.08391
G0 F6000 X65.554 Y122.688
G1 F1200 X55.176 Y112.31 E34.57206
G0 F6000 X55.741 Y112.31
G1 F1200 X66.12 Y122.688 E35.06024
G0 F6000 X66.685 Y122.688
G1 F1200 X56.307 Y112.31 E35.54839
G0 F6000 X56.873 Y112.31
G1 F1200 X67.251 Y122.688 E36.03653
G0 F6000 X67.817 Y122.688
G1 F1200 X57.438 Y112.31 E36.52471
G0 F6000 X58.004 Y112.31
G1 F1200 X68.382 Y122.688 E37.01286
G0 F6000 X68.948 Y122.688
G1 F1200 X58.57 Y112.31 E37.50101
G0 F6000 X59.136 Y112.31
G1 F1200 X69.514 Y122.688 E37.98916
G0 F6000 X70.079 Y122.688
G1 F1200 X59.701 Y112.31 E38.4773
G0 F6000 X60.267 Y112.31
G1 F1200 X70.645 Y122.688 E38.96545
G0 F6000 X71.211 Y122.688
G1 F1200 X60.833 Y112.31 E39.4536
G0 F6000 X61.398 Y112.31
G1 F1200 X71.776 Y122.688 E39.94175
G0 F6000 X72.342 Y122.688
G1 F1200 X61.964 Y112.31 E40.4299
G0 F6000 X62.53 Y112.31
G1 F1200 X72.908 Y122.688 E40.91805
G0 F6000 X73.474 Y122.688
G1 F1200 X63.095 Y112.31 E41.40622
G0 F6000 X63.661 Y112.31
G1 F1200 X74.039 Y122.688 E41.89437
G0 F6000 X74.605 Y122.688
G1 F1200 X64.227 Y112.31 E42.38252
G0 F6000 X64.792 Y112.31
G1 F1200 X75.171 Y122.688 E42.8707
G0 F6000 X75.736 Y122.688
G1 F1200 X65.358 Y112.31 E43.35884
G0 F6000 X65.924 Y112.311
G1 F1200 X76.302 Y122.688 E43.84697
G0 F6000 X76.868 Y122.688
G1 F1200 X66.49 Y112.311 E44.3351
G0 F6000 X67.056 Y112.311
G1 F1200 X77.433 Y122.688 E44.8232
G0 F6000 X77.999 Y122.688
G1 F1200 X67.622 Y112.311 E45.3113
G0 F6000 X68.187 Y112.311
G1 F1200 X78.565 Y122.688 E45.79943
G0 F6000 X79.13 Y122.688
G1 F1200 X68.753 Y112.311 E46.28753
G0 F6000 X69.319 Y112.311
G1 F1200 X79.696 Y122.688 E46.77563
G0 F6000 X80.262 Y122.688
G1 F1200 X69.884 Y112.311 E47.26376
G0 F6000 X70.45 Y112.311
G1 F1200 X80.827 Y122.688 E47.75186
G0 F6000 X81.393 Y122.688
G1 F1200 X71.016 Y112.311 E48.23996
G0 F6000 X71.581 Y112.311
G1 F1200 X81.959 Y122.688 E48.72809
G0 F6000 X82.525 Y122.688
G1 F1200 X72.147 Y112.311 E49.21621
G0 F6000 X72.713 Y112.311
G1 F1200 X76.742 Y116.34 E49.40572
G0 F6000 X76.932 Y116.53
G1 F1200 X83.09 Y122.688 E49.69538
G0 F6000 X83.656 Y122.688
G1 F1200 X78.147 Y117.179 E49.9545
G0 F6000 X78.828 Y117.295
G1 F1200 X84.222 Y122.688 E50.2082
G0 F6000 X84.787 Y122.688
G1 F1200 X79.377 Y117.278 E50.46267
G0 F6000 X79.846 Y117.181
G1 F1200 X85.353 Y122.688 E50.7217
G0 F6000 X85.919 Y122.688
G1 F1200 X80.262 Y117.032 E50.98777
G0 F6000 X80.634 Y116.838
G1 F1200 X86.484 Y122.688 E51.26293
G0 F6000 X87.05 Y122.688
G1 F1200 X80.973 Y116.611 E51.54877
G0 F6000 X81.264 Y116.337
G1 F1200 X87.616 Y122.688 E51.84753
G0 F6000 X88.181 Y122.688
G1 F1200 X81.52 Y116.027 E52.16084
G0 F6000 X81.746 Y115.687
G1 F1200 X88.747 Y122.688 E52.49015
G0 F6000 X89.313 Y122.688
G1 F1200 X81.931 Y115.306 E52.83737
G0 F6000 X82.066 Y114.875
G1 F1200 X89.878 Y122.688 E53.20485
G0 F6000 X90.444 Y122.688
G1 F1200 X82.137 Y114.381 E53.59559
G0 F6000 X82.13 Y113.808
G1 F1200 X91.01 Y122.688 E54.01327
G0 F6000 X91.575 Y122.688
G1 F1200 X81.962 Y113.074 E54.46546
G0 F6000 X81.768 Y112.315
G1 F1200 X92.141 Y122.688 E54.95338
G0 F6000 X92.707 Y122.688
G1 F1200 X82.334 Y112.315 E55.44129
G0 F6000 X82.899 Y112.315
G1 F1200 X93.273 Y122.688 E55.92923
G0 F6000 X93.838 Y122.688
G1 F1200 X83.465 Y112.315 E56.41714
G0 F6000 X84.031 Y112.315
G1 F1200 X94.404 Y122.688 E56.90506
G0 F6000 X94.97 Y122.688
G1 F1200 X84.596 Y112.315 E57.393
G0 F6000 X85.162 Y112.315
G1 F1200 X95.535 Y122.688 E57.88091
G0 F6000 X96.101 Y122.688
G1 F1200 X85.728 Y112.315 E58.36882
G0 F6000 X86.293 Y112.315
G1 F1200 X96.667 Y122.688 E58.85676
G0 F6000 X97.232 Y122.688
G1 F1200 X86.859 Y112.315 E59.34468
G0 F6000 X87.425 Y112.315
G1 F1200 X97.798 Y122.688 E59.83259
G0 F6000 X98.364 Y122.688
G1 F1200 X87.99 Y112.315 E60.32053
G0 F6000 X88.556 Y112.315
G1 F1200 X98.929 Y122.688 E60.80844
G0 F6000 X99.495 Y122.688
G1 F1200 X89.122 Y112.315 E61.29636
G0 F6000 X89.688 Y112.315
G1 F1200 X100.061 Y122.688 E61.78427
G0 F6000 X100.626 Y122.688
G1 F1200 X90.253 Y112.315 E62.27218
G0 F6000 X90.819 Y112.315
G1 F1200 X101.192 Y122.688 E62.7601
G0 F6000 X101.758 Y122.688
G1 F1200 X91.385 Y112.315 E63.24801
G0 F6000 X91.95 Y112.315
G1 F1200 X102.324 Y122.688 E63.73595
G0 F6000 X102.889 Y122.688
G1 F1200 X92.516 Y112.315 E64.22386
G0 F6000 X93.082 Y112.315
G1 F1200 X103.455 Y122.688 E64.71178
G0 F6000 X104.021 Y122.688
G1 F1200 X93.647 Y112.315 E65.19972
G0 F6000 X94.213 Y112.315
G1 F1200 X104.586 Y122.688 E65.68763
G0 F6000 X105.152 Y122.688
G1 F1200 X94.779 Y112.315 E66.17554
G0 F6000 X95.344 Y112.315
G1 F1200 X105.718 Y122.688 E66.66348
G0 F6000 X106.283 Y122.688
G1 F1200 X95.91 Y112.315 E67.1514
G0 F6000 X96.475 Y112.314
G1 F1200 X106.849 Y122.688 E67.63936
G0 F6000 X107.415 Y122.688
G1 F1200 X97.041 Y112.314 E68.12732
G0 F6000 X97.606 Y112.314
G1 F1200 X107.98 Y122.688 E68.61528
G0 F6000 X108.546 Y122.688
G1 F1200 X98.172 Y112.314 E69.10324
G0 F6000 X98.738 Y112.314
G1 F1200 X109.112 Y122.688 E69.5912
G0 F6000 X109.677 Y122.688
G1 F1200 X99.303 Y112.314 E70.07916
G0 F6000 X99.869 Y112.314
G1 F1200 X110.243 Y122.688 E70.56712
G0 F6000 X110.809 Y122.688
G1 F1200 X100.435 Y112.314 E71.05509
G0 F6000 X101.001 Y112.314
G1 F1200 X111.374 Y122.688 E71.54302
G0 F6000 X111.94 Y122.688
G1 F1200 X101.566 Y112.314 E72.03098
G0 F6000 X102.132 Y112.314
G1 F1200 X112.506 Y122.688 E72.51895
G0 F6000 X113.072 Y122.688
G1 F1200 X102.698 Y112.314 E73.00691
G0 F6000 X103.263 Y112.314
G1 F1200 X113.637 Y122.688 E73.49487
G0 F6000 X114.203 Y122.688
G1 F1200 X103.829 Y112.314 E73.98283
G0 F6000 X104.395 Y112.314
G1 F1200 X114.769 Y122.688 E74.47079
G0 F6000 X115.334 Y122.688
G1 F1200 X104.96 Y112.314 E74.95875
G0 F6000 X105.526 Y112.314
G1 F1200 X115.9 Y122.688 E75.44671
G0 F6000 X116.466 Y122.688
G1 F1200 X106.092 Y112.314 E75.93467
G0 F6000 X106.657 Y112.314
G1 F1200 X117.031 Y122.688 E76.42263
G0 F6000 X117.598 Y122.689
G1 F1200 X107.223 Y112.314 E76.91064
G0 F6000 X107.789 Y112.314
G1 F1200 X118.163 Y122.689 E77.39863
G0 F6000 X118.729 Y122.689
