;FLAVOR:Marlin
;TIME:62063
;Filament used: 86.3138m
;Layer height: 0.2
;MINX:37.175
;MINY:37.175
;MINZ:0.2
;MAXX:182.825
;MAXY:182.825
;MAXZ:37.88
;Generated with Cura_SteamEngine 5.3.0
M82 ;absolute extrusion mode
; Ender 3 Custom Start G-code
G92 E0 ; Reset Extruder
G28 ; Home all axes
M104 S175 ; Start heating up the nozzle most of the way
M190 S60 ; Start heating the bed, wait until target temperature reached
M109 S200 ; Finish heating the nozzle
G1 Z2.0 F3000 ; Move Z Axis up little to prevent scratching of Heat Bed
G1 X0.1 Y20 Z0.3 F5000.0 ; Move to start position
G1 X0.1 Y200.0 Z0.3 F1500.0 E15 ; Draw the first line
G1 X0.4 Y200.0 Z0.3 F5000.0 ; Move to side a little
G1 X0.4 Y20 Z0.3 F1500.0 E30 ; Draw the second line
G92 E0 ; Reset Extruder
G1 Z2.0 F3000 ; Move Z Axis up little to prevent scratching of Heat Bed
G1 X5 Y20 Z0.3 F5000.0 ; Move over to prevent blob squish
G92 E0
G92 E0
G1 F1500 E-6.5
;LAYER_COUNT:159
;LAYER:0
M107
;MESH:deck_spacer-v2.stl
G0 F6000 X182.425 Y182.425 Z0.2
;TYPE:WALL-INNER
G1 F1500 E0
G1 F1200 X182.425 Y37.575 E4.81773
G1 X37.575 Y37.575 E9.63546
G1 X37.575 Y182.425 E14.45319
G1 X182.425 Y182.425 E19.27092
G0 F6000 X182.825 Y182.825
;TYPE:WALL-OUTER
G1 F1200 X182.825 Y37.175 E24.11526
G1 X37.175 Y37.175 E28.9596
G1 X37.175 Y182.825 E33.80394
G1 X182.825 Y182.825 E38.64828
G0 F6000 X182.555 Y182.555
G0 X182.325 Y182.065
G0 X182.065 Y182.065
;TYPE:SKIN
G1 F1200 X37.935 Y182.065 E43.44206
G1 X37.935 Y37.935 E48.23584
G1 X182.065 Y37.935 E53.02963
G1 X182.065 Y182.065 E57.82341
G1 F1500 E51.32341
G0 F6000 X182.325 Y182.065
G0 X182.325 Y38.745
G0 X181.864 Y38.745
G1 F1500 E57.82341
G1 F1200 X181.253 Y38.134 E57.85215
G0 F6000 X180.687 Y38.134
G1 F1200 X181.864 Y39.311 E57.90751
G0 F6000 X181.864 Y39.877
G1 F1200 X180.122 Y38.134 E57.98947
G0 F6000 X179.556 Y38.134
G1 F1200 X181.864 Y40.442 E58.09804
G0 F6000 X181.864 Y41.008
G1 F1200 X178.99 Y38.134 E58.23322
G0 F6000 X178.424 Y38.134
G1 F1200 X181.864 Y41.574 E58.39503
G0 F6000 X181.864 Y42.14
G1 F1200 X177.859 Y38.134 E58.58343
G0 F6000 X177.293 Y38.134
G1 F1200 X181.864 Y42.705 E58.79844
G0 F6000 X181.864 Y43.271
G1 F1200 X176.727 Y38.134 E59.04007
G0 F6000 X176.162 Y38.134
G1 F1200 X181.864 Y43.837 E59.3083
G0 F6000 X181.864 Y44.402
G1 F1200 X175.596 Y38.134 E59.60312
G0 F6000 X175.03 Y38.134
G1 F1200 X181.864 Y44.968 E59.92457
G0 F6000 X181.864 Y45.534
G1 F1200 X174.465 Y38.134 E60.27262
G0 F6000 X173.899 Y38.134
G1 F1200 X181.864 Y46.099 E60.64727
G0 F6000 X181.864 Y46.665
G1 F1200 X173.333 Y38.134 E61.04854
G0 F6000 X172.768 Y38.134
G1 F1200 X181.864 Y47.231 E61.47642
G0 F6000 X181.864 Y47.796
G1 F1200 X172.202 Y38.134 E61.93089
G0 F6000 X171.636 Y38.134
G1 F1200 X181.864 Y48.362 E62.41198
G0 F6000 X181.864 Y48.928
G1 F1200 X171.071 Y38.134 E62.91967
G0 F6000 X170.505 Y38.134
G1 F1200 X181.864 Y49.493 E63.45397
G0 F6000 X181.864 Y50.059
G1 F1200 X169.939 Y38.134 E64.01488
G0 F6000 X169.373 Y38.134
G1 F1200 X181.864 Y50.625 E64.60242
G0 F6000 X181.864 Y51.19
G1 F1200 X168.808 Y38.134 E65.21653
G0 F6000 X168.242 Y38.134
G1 F1200 X181.864 Y51.756 E65.85727
G0 F6000 X181.864 Y52.322
G1 F1200 X167.676 Y38.134 E66.52463
G0 F6000 X167.111 Y38.134
G1 F1200 X181.864 Y52.888 E67.21859
G0 F6000 X181.864 Y53.453
G1 F1200 X166.545 Y38.134 E67.93915
G0 F6000 X165.979 Y38.134
G1 F1200 X181.864 Y54.019 E68.68633
G0 F6000 X181.864 Y54.585
G1 F1200 X165.414 Y38.134 E69.46011
G0 F6000 X164.848 Y38.134
G1 F1200 X181.864 Y55.15 E70.26049
G0 F6000 X181.864 Y55.716
G1 F1200 X164.282 Y38.134 E71.0875
G0 F6000 X163.717 Y38.134
G1 F1200 X181.864 Y56.282 E71.9411
G0 F6000 X181.864 Y56.847
G1 F1200 X163.151 Y38.134 E72.8213
G0 F6000 X162.585 Y38.134
G1 F1200 X181.864 Y57.413 E73.72813
G0 F6000 X181.864 Y57.979
G1 F1200 X162.02 Y38.134 E74.66155
G0 F6000 X161.454 Y38.134
G1 F1200 X181.864 Y58.544 E75.62157
G0 F6000 X181.864 Y59.11
G1 F1200 X160.888 Y38.134 E76.60822
G0 F6000 X160.323 Y38.134
G1 F1200 X181.864 Y59.676 E77.62147
G0 F6000 X181.864 Y60.241
G1 F1200 X159.757 Y38.134 E78.66131
G0 F6000 X159.191 Y38.134
G1 F1200 X181.864 Y60.807 E79.72778
G0 F6000 X181.864 Y61.373
G1 F1200 X158.625 Y38.134 E80.82087
G0 F6000 X158.06 Y38.134
G1 F1200 X181.864 Y61.939 E81.94056
G0 F6000 X181.864 Y62.504
G1 F1200 X157.494 Y38.134 E83.08685
G0 F6000 X156.928 Y38.134
G1 F1200 X181.864 Y63.07 E84.25977
G0 F6000 X181.864 Y63.636
G1 F1200 X156.363 Y38.134 E85.45928
G0 F6000 X155.797 Y38.134
G1 F1200 X181.864 Y64.201 E86.68539
G0 F6000 X181.864 Y64.767
G1 F1200 X155.231 Y38.134 E87.93812
G0 F6000 X154.666 Y38.134
G1 F1200 X181.864 Y65.333 E89.21746
G0 F6000 X181.864 Y65.898
G1 F1200 X154.1 Y38.134 E90.52339
G0 F6000 X153.534 Y38.134
G1 F1200 X181.864 Y66.464 E91.85595
G0 F6000 X181.864 Y67.03
G1 F1200 X152.969 Y38.134 E93.2151
G0 F6000 X152.403 Y38.134
G1 F1200 X181.864 Y67.595 E94.60086
G0 F6000 X181.864 Y68.161
G1 F1200 X151.837 Y38.134 E96.01324
G0 F6000 X151.272 Y38.134
G1 F1200 X181.864 Y68.727 E97.45222
G0 F6000 X181.864 Y69.292
G1 F1200 X150.706 Y38.134 E98.91779
G0 F6000 X150.14 Y38.134
G1 F1200 X181.864 Y69.858 E100.40999
G0 F6000 X181.864 Y70.424
G1 F1200 X149.575 Y38.134 E101.92879
G0 F6000 X149.009 Y38.134
G1 F1200 X181.864 Y70.989 E103.47419
G0 F6000 X181.864 Y71.555
G1 F1200 X148.443 Y38.134 E105.04621
G0 F6000 X147.877 Y38.134
G1 F1200 X181.864 Y72.121 E106.64485
G0 F6000 X181.864 Y72.687
G1 F1200 X147.312 Y38.134 E108.2701
G0 F6000 X146.746 Y38.134
G1 F1200 X181.864 Y73.252 E109.92194
G0 F6000 X181.864 Y73.818
G1 F1200 X146.18 Y38.134 E111.60041
G0 F6000 X145.615 Y38.134
G1 F1200 X181.864 Y74.384 E113.30547
G0 F6000 X181.864 Y74.949
G1 F1200 X145.049 Y38.134 E115.03714
G0 F6000 X144.483 Y38.134
G1 F1200 X181.864 Y75.515 E116.79543
G0 F6000 X181.864 Y76.081
G1 F1200 X143.918 Y38.134 E118.58031
G0 F6000 X143.352 Y38.134
G1 F1200 X181.864 Y76.646 E120.3918
G0 F6000 X181.864 Y77.212
G1 F1200 X142.786 Y38.134 E122.22991
G0 F6000 X142.221 Y38.134
G1 F1200 X181.864 Y77.778 E124.09462
G0 F6000 X181.864 Y78.343
G1 F1200 X141.655 Y38.134 E125.98592
G0 F6000 X141.089 Y38.134
G1 F1200 X181.864 Y78.909 E127.90386
G0 F6000 X181.864 Y79.475
G1 F1200 X140.524 Y38.134 E129.84839
G0 F6000 X139.958 Y38.134
G1 F1200 X181.864 Y80.04 E131.81952
G0 F6000 X181.864 Y80.606
G1 F1200 X139.392 Y38.134 E133.81727
G0 F6000 X138.826 Y38.134
G1 F1200 X181.864 Y81.172 E135.84164
G0 F6000 X181.864 Y81.738
G1 F1200 X138.261 Y38.134 E137.89262
G0 F6000 X137.695 Y38.134
G1 F1200 X181.864 Y82.303 E139.97019
G0 F6000 X181.864 Y82.869
G1 F1200 X137.129 Y38.134 E142.07439
G0 F6000 X136.564 Y38.134
G1 F1200 X181.864 Y83.435 E144.20519
G0 F6000 X181.864 Y84
G1 F1200 X135.998 Y38.134 E146.36258
G0 F6000 X135.432 Y38.134
G1 F1200 X181.864 Y84.566 E148.5466
G0 F6000 X181.864 Y85.132
G1 F1200 X134.867 Y38.134 E150.75722
G0 F6000 X134.301 Y38.134
G1 F1200 X181.864 Y85.697 E152.99444
G0 F6000 X181.864 Y86.263
G1 F1200 X133.735 Y38.134 E155.25828
G0 F6000 X133.17 Y38.134
G1 F1200 X181.864 Y86.829 E157.54872
G0 F6000 X181.864 Y87.394
G1 F1200 X132.604 Y38.134 E159.86576
G0 F6000 X132.038 Y38.134
G1 F1200 X181.864 Y87.96 E162.20942
G0 F6000 X181.864 Y88.526
G1 F1200 X131.473 Y38.134 E164.57968
G0 F6000 X130.907 Y38.134
G1 F1200 X181.864 Y89.091 E166.97654
G0 F6000 X181.864 Y89.657
G1 F1200 X130.341 Y38.134 E169.40003
G0 F6000 X129.776 Y38.134
G1 F1200 X181.864 Y90.223 E171.85011
G0 F6000 X181.864 Y90.788
G1 F1200 X129.21 Y38.134 E174.32679
G0 F6000 X128.644 Y38.134
G1 F1200 X181.864 Y91.354 E176.8301
G0 F6000 X181.864 Y91.92
G1 F1200 X128.078 Y38.134 E179.36003
G0 F6000 X127.513 Y38.134
G1 F1200 X181.864 Y92.486 E181.91656
G0 F6000 X181.864 Y93.051
G1 F1200 X126.947 Y38.134 E184.49968
G0 F6000 X126.381 Y38.134
G1 F1200 X181.864 Y93.617 E187.10943
G0 F6000 X181.864 Y94.183
G1 F1200 X125.816 Y38.134 E189.74578
G0 F6000 X125.25 Y38.134
G1 F1200 X181.864 Y94.748 E192.40873
G0 F6000 X181.864 Y95.314
G1 F1200 X124.684 Y38.134 E195.0983
G0 F6000 X124.119 Y38.134
G1 F1200 X181.864 Y95.88 E197.81447
G0 F6000 X181.864 Y96.445
G1 F1200 X123.553 Y38.134 E200.55725
G0 F6000 X122.987 Y38.134
G1 F1200 X181.864 Y97.011 E203.32664
G0 F6000 X181.864 Y97.577
G1 F1200 X122.422 Y38.134 E206.12263
G0 F6000 X121.856 Y38.134
G1 F1200 X181.864 Y98.142 E208.94522
G0 F6000 X181.864 Y98.708
G1 F1200 X121.29 Y38.134 E211.79444
G0 F6000 X120.725 Y38.134
G1 F1200 X181.864 Y99.274 E214.67025
G0 F6000 X181.864 Y99.839
G1 F1200 X120.159 Y38.134 E217.57267
G0 F6000 X119.593 Y38.134
G1 F1200 X181.864 Y100.405 E220.5017
G0 F6000 X181.864 Y100.971
G1 F1200 X119.027 Y38.134 E223.45736
G0 F6000 X118.462 Y38.134
G1 F1200 X181.864 Y101.536 E226.4396
G0 F6000 X181.864 Y102.102
G1 F1200 X117.896 Y38.134 E229.44846
G0 F6000 X117.33 Y38.134
G1 F1200 X181.864 Y102.668 E232.48394
G0 F6000 X181.864 Y103.234
G1 F1200 X116.765 Y38.134 E235.54602
G0 F6000 X116.199 Y38.134
G1 F1200 X181.864 Y103.799 E238.6347
G0 F6000 X181.864 Y104.365
G1 F1200 X115.633 Y38.134 E241.75
G0 F6000 X115.068 Y38.134
G1 F1200 X181.864 Y104.931 E244.89191
G0 F6000 X181.864 Y105.496
G1 F1200 X114.502 Y38.134 E248.06041
G0 F6000 X113.936 Y38.134
G1 F1200 X181.864 Y106.062 E251.25553
G0 F6000 X181.864 Y106.628
G1 F1200 X113.371 Y38.134 E254.47726
G0 F6000 X112.805 Y38.134
G1 F1200 X181.864 Y107.193 E257.72558
G0 F6000 X181.864 Y107.759
G1 F1200 X112.239 Y38.134 E261.00053
G0 F6000 X111.674 Y38.134
G1 F1200 X181.864 Y108.325 E264.30207
G0 F6000 X181.864 Y108.89
G1 F1200 X111.108 Y38.134 E267.63022
G0 F6000 X110.542 Y38.134
G1 F1200 X181.864 Y109.456 E270.98499
G0 F6000 X181.864 Y110.022
G1 F1200 X109.977 Y38.134 E274.36636
G0 F6000 X109.411 Y38.134
G1 F1200 X181.864 Y110.587 E277.77432
G0 F6000 X181.864 Y111.153
G1 F1200 X108.845 Y38.134 E281.20891
G0 F6000 X108.279 Y38.134
G1 F1200 X181.864 Y111.719 E284.67013
G0 F6000 X181.864 Y112.285
G1 F1200 X107.714 Y38.134 E288.15794
G0 F6000 X107.148 Y38.134
G1 F1200 X181.864 Y112.85 E291.67235
G0 F6000 X181.864 Y113.416
G1 F1200 X106.582 Y38.134 E295.21338
G0 F6000 X106.017 Y38.134
G1 F1200 X181.864 Y113.982 E298.78102
G0 F6000 X181.864 Y114.547
G1 F1200 X105.451 Y38.134 E302.37525
G0 F6000 X104.885 Y38.134
G1 F1200 X181.864 Y115.113 E305.99611
G0 F6000 X181.864 Y115.679
G1 F1200 X104.32 Y38.134 E309.64356
G0 F6000 X103.754 Y38.134
G1 F1200 X181.864 Y116.244 E313.31762
G0 F6000 X181.864 Y116.81
G1 F1200 X103.188 Y38.134 E317.01829
G0 F6000 X102.623 Y38.134
G1 F1200 X181.864 Y117.376 E320.74557
G0 F6000 X181.864 Y117.941
G1 F1200 X102.057 Y38.134 E324.49945
G0 F6000 X101.491 Y38.134
G1 F1200 X181.864 Y118.507 E328.27995
G0 F6000 X181.864 Y119.073
G1 F1200 X100.926 Y38.134 E332.08705
G0 F6000 X100.36 Y38.134
G1 F1200 X181.864 Y119.638 E335.92075
G0 F6000 X181.864 Y120.204
G1 F1200 X99.794 Y38.134 E339.78107
G0 F6000 X99.229 Y38.134
G1 F1200 X181.864 Y120.77 E343.66799
G0 F6000 X181.864 Y121.335
G1 F1200 X98.663 Y38.134 E347.58151
G0 F6000 X98.097 Y38.134
G1 F1200 X181.864 Y121.901 E351.52165
G0 F6000 X181.864 Y122.467
G1 F1200 X97.531 Y38.134 E355.48842
G0 F6000 X96.966 Y38.134
G1 F1200 X181.864 Y123.033 E359.48178
G0 F6000 X181.864 Y123.598
G1 F1200 X96.4 Y38.134 E363.50175
G0 F6000 X95.834 Y38.134
G1 F1200 X181.864 Y124.164 E367.54833
G0 F6000 X181.864 Y124.73
G1 F1200 X95.269 Y38.134 E371.62152
G0 F6000 X94.703 Y38.134
G1 F1200 X181.864 Y125.295 E375.72131
G0 F6000 X181.864 Y125.861
G1 F1200 X94.137 Y38.134 E379.84772
G0 F6000 X93.572 Y38.134
G1 F1200 X181.864 Y126.427 E384.00072
G0 F6000 X181.864 Y126.992
G1 F1200 X93.006 Y38.134 E388.18033
G0 F6000 X92.44 Y38.134
G1 F1200 X181.864 Y127.558 E392.38656
G0 F6000 X181.864 Y128.124
G1 F1200 X91.875 Y38.134 E396.61939
G0 F6000 X91.309 Y38.134
G1 F1200 X181.864 Y128.689 E400.87882
G0 F6000 X181.864 Y129.255
G1 F1200 X90.743 Y38.134 E405.16487
G0 F6000 X90.178 Y38.134
G1 F1200 X181.864 Y129.821 E409.47753
G0 F6000 X181.864 Y130.386
G1 F1200 X89.612 Y38.134 E413.81678
G0 F6000 X89.046 Y38.134
G1 F1200 X181.864 Y130.952 E418.18265
G0 F6000 X181.864 Y131.518
G1 F1200 X88.48 Y38.134 E422.57515
G0 F6000 X87.915 Y38.134
G1 F1200 X181.864 Y132.084 E426.99425
G0 F6000 X181.864 Y132.649
G1 F1200 X87.349 Y38.134 E431.43994
G0 F6000 X86.783 Y38.134
G1 F1200 X181.864 Y133.215 E435.91226
G0 F6000 X181.864 Y133.781
G1 F1200 X86.218 Y38.134 E440.41118
G0 F6000 X85.652 Y38.134
G1 F1200 X181.864 Y134.346 E444.9367
G0 F6000 X181.864 Y134.912
G1 F1200 X85.086 Y38.134 E449.48884
G0 F6000 X84.521 Y38.134
G1 F1200 X181.864 Y135.478 E454.06758
G0 F6000 X181.864 Y136.043
G1 F1200 X83.955 Y38.134 E458.67291
G0 F6000 X83.389 Y38.134
G1 F1200 X181.864 Y136.609 E463.30488
G0 F6000 X181.864 Y137.175
G1 F1200 X82.824 Y38.134 E467.96344
G0 F6000 X82.258 Y38.134
G1 F1200 X181.864 Y137.74 E472.6486
G0 F6000 X181.864 Y138.306
G1 F1200 X81.692 Y38.134 E477.36038
G0 F6000 X81.127 Y38.134
G1 F1200 X181.864 Y138.872 E482.09877
G0 F6000 X181.864 Y139.437
G1 F1200 X80.561 Y38.134 E486.86375
G0 F6000 X79.995 Y38.134
G1 F1200 X181.864 Y140.003 E491.65535
G0 F6000 X181.864 Y140.569
G1 F1200 X79.43 Y38.134 E496.47356
G0 F6000 X78.864 Y38.134
G1 F1200 X181.864 Y141.134 E501.31836
G0 F6000 X181.864 Y141.7
G1 F1200 X78.298 Y38.134 E506.18979
G0 F6000 X77.732 Y38.134
G1 F1200 X181.864 Y142.266 E511.08784
G0 F6000 X181.864 Y142.832
G1 F1200 X77.167 Y38.134 E516.01249
G0 F6000 X76.601 Y38.134
G1 F1200 X181.864 Y143.397 E520.96374
G0 F6000 X181.864 Y143.963
G1 F1200 X76.035 Y38.134 E525.94161
G0 F6000 X75.47 Y38.134
G1 F1200 X181.864 Y144.529 E530.94608
G0 F6000 X181.864 Y145.094
G1 F1200 X74.904 Y38.134 E535.97715
G0 F6000 X74.338 Y38.134
G1 F1200 X181.864 Y145.66 E541.03484
G0 F6000 X181.864 Y146.226
G1 F1200 X73.773 Y38.134 E546.11914
G0 F6000 X73.207 Y38.134
G1 F1200 X181.864 Y146.791 E551.23003
G0 F6000 X181.864 Y147.357
G1 F1200 X72.641 Y38.134 E556.36754
G0 F6000 X72.076 Y38.134
G1 F1200 X181.864 Y147.923 E561.53166
G0 F6000 X181.864 Y148.488
G1 F1200 X71.51 Y38.134 E566.72237
G0 F6000 X70.944 Y38.134
G1 F1200 X181.864 Y149.054 E571.93971
G0 F6000 X181.864 Y149.62
G1 F1200 X70.379 Y38.134 E577.18365
G0 F6000 X69.813 Y38.134
G1 F1200 X181.864 Y150.185 E582.45418
G0 F6000 X181.864 Y150.751
G1 F1200 X69.247 Y38.134 E587.75134
G0 F6000 X68.681 Y38.134
G1 F1200 X181.864 Y151.317 E593.07512
G0 F6000 X181.864 Y151.883
G1 F1200 X68.116 Y38.134 E598.4255
G0 F6000 X67.55 Y38.134
G1 F1200 X181.864 Y152.448 E603.80248
G0 F6000 X181.864 Y153.014
G1 F1200 X66.984 Y38.134 E609.20609
G0 F6000 X66.419 Y38.134
G1 F1200 X181.864 Y153.58 E614.63629
G0 F6000 X181.864 Y154.145
G1 F1200 X65.853 Y38.134 E620.09309
G0 F6000 X65.287 Y38.134
G1 F1200 X181.864 Y154.711 E625.57651
G0 F6000 X181.864 Y155.277
G1 F1200 X64.722 Y38.134 E631.08654
G0 F6000 X64.156 Y38.134
G1 F1200 X181.864 Y155.842 E636.62316
G0 F6000 X181.864 Y156.408
G1 F1200 X63.59 Y38.134 E642.18641
G0 F6000 X63.025 Y38.134
G1 F1200 X181.864 Y156.974 E647.77625
G0 F6000 X181.864 Y157.539
G1 F1200 X62.459 Y38.134 E653.3927
G0 F6000 X61.893 Y38.134
G1 F1200 X181.864 Y158.105 E659.03577
G0 F6000 X181.864 Y158.671
G1 F1200 X61.328 Y38.134 E664.70543
G0 F6000 X60.762 Y38.134
G1 F1200 X181.864 Y159.236 E670.4017
G0 F6000 X181.864 Y159.802
G1 F1200 X60.196 Y38.134 E676.12459
G0 F6000 X59.631 Y38.134
G1 F1200 X181.864 Y160.368 E681.87408
G0 F6000 X181.864 Y160.933
G1 F1200 X59.065 Y38.134 E687.65017
G0 F6000 X58.499 Y38.134
G1 F1200 X181.864 Y161.499 E693.45288
G0 F6000 X181.864 Y162.065
G1 F1200 X57.933 Y38.134 E699.28221
G0 F6000 X57.368 Y38.134
G1 F1200 X181.864 Y162.631 E705.13815
G0 F6000 X181.864 Y163.196
G1 F1200 X56.802 Y38.134 E711.02068
G0 F6000 X56.236 Y38.134
G1 F1200 X181.864 Y163.762 E716.92984
G0 F6000 X181.864 Y164.328
G1 F1200 X55.671 Y38.134 E722.86559
G0 F6000 X55.105 Y38.134
G1 F1200 X181.864 Y164.893 E728.82795
G0 F6000 X181.864 Y165.459
G1 F1200 X54.539 Y38.134 E734.81692
G0 F6000 X53.974 Y38.134
G1 F1200 X181.864 Y166.025 E740.8325
G0 F6000 X181.864 Y166.59
G1 F1200 X53.408 Y38.134 E746.87468
G0 F6000 X52.842 Y38.134
G1 F1200 X181.864 Y167.156 E752.94348
G0 F6000 X181.864 Y167.722
G1 F1200 X52.277 Y38.134 E759.03888
G0 F6000 X51.711 Y38.134
