;FLAVOR:Marlin
;TIME:57705
;Filament used: 80.2809m
;Layer height: 0.2
;MINX:44.675
;MINY:44.675
;MINZ:0.2
;MAXX:190.325
;MAXY:190.325
;MAXZ:34.76
;Generated with Cura_SteamEngine 5.0.0
M140 S60
M105
M190 S60
M104 S200
M105
M109 S200
M82 ;absolute extrusion mode
; Ender 3 Custom Start G-code
G92 E0 ; Reset Extruder
G28 ; Home all axes
G1 Z2.0 F3000 ; Move Z Axis up little to prevent scratching of Heat Bed
G1 X0.1 Y20 Z0.3 F5000.0 ; Move to start position
G1 X0.1 Y200.0 Z0.3 F1500.0 E15 ; Draw the first line
G1 X0.4 Y200.0 Z0.3 F5000.0 ; Move to side a little
G1 X0.4 Y20 Z0.3 F1500.0 E30 ; Draw the second line
G92 E0 ; Reset Extruder
G1 Z2.0 F3000 ; Move Z Axis up little to prevent scratching of Heat Bed
G1 X5 Y20 Z0.3 F5000.0 ; Move over to prevent blob squish
G92 E0
G92 E0
G1 F2700 E-5
;LAYER_COUNT:146
;LAYER:0
M107
;MESH:Body1.stl
G0 F6000 X44.675 Y190.325 Z0.2
;TYPE:WALL-OUTER
G1 F2700 E0
G1 F1200 X190.325 Y190.325 E4.84434
G1 X190.325 Y117.5 E7.26651
G1 X190.325 Y44.675 E9.68868
G1 X44.675 Y44.675 E14.53302
G1 X44.675 Y190.325 E19.37735
G0 F6000 X45.075 Y189.925
;TYPE:WALL-INNER
G1 F1200 X189.925 Y189.925 E24.19509
G1 X189.925 Y117.5 E26.60395
G1 X189.925 Y45.075 E29.01282
G1 X45.075 Y45.075 E33.83055
G1 X45.075 Y189.925 E38.64828
G0 F6000 X45.435 Y189.565
;TYPE:SKIN
G1 F1200 X189.565 Y189.565 E43.44206
G1 X189.565 Y117.5 E45.83895
G1 X189.565 Y45.435 E48.23584
G1 X45.435 Y45.435 E53.02963
G1 X45.435 Y189.565 E57.82341
G0 F6000 X46.246 Y189.364
G1 F1200 X45.634 Y188.752 E57.8522
G0 F6000 X45.634 Y188.187
G1 F1200 X46.811 Y189.364 E57.90756
G0 F6000 X47.377 Y189.364
G1 F1200 X45.634 Y187.621 E57.98954
G0 F6000 X45.634 Y187.055
G1 F1200 X47.943 Y189.364 E58.09815
G0 F6000 X48.508 Y189.364
G1 F1200 X45.634 Y186.49 E58.23334
G0 F6000 X45.634 Y185.924
G1 F1200 X49.074 Y189.364 E58.39514
G0 F6000 X49.64 Y189.364
G1 F1200 X45.634 Y185.358 E58.58357
G0 F6000 X45.634 Y184.793
G1 F1200 X50.205 Y189.364 E58.79858
G0 F6000 X50.771 Y189.364
G1 F1200 X45.634 Y184.227 E59.04021
G0 F6000 X45.634 Y183.661
G1 F1200 X51.337 Y189.364 E59.30846
G0 F6000 X51.903 Y189.364
G1 F1200 X45.634 Y183.096 E59.60331
G0 F6000 X45.634 Y182.53
G1 F1200 X52.468 Y189.364 E59.92476
G0 F6000 X53.034 Y189.364
G1 F1200 X45.634 Y181.964 E60.27283
G0 F6000 X45.634 Y181.399
G1 F1200 X53.6 Y189.364 E60.64751
G0 F6000 X54.165 Y189.364
G1 F1200 X45.634 Y180.833 E61.04878
G0 F6000 X45.634 Y180.267
G1 F1200 X54.731 Y189.364 E61.47667
G0 F6000 X55.297 Y189.364
G1 F1200 X45.634 Y179.701 E61.93119
G0 F6000 X45.634 Y179.136
G1 F1200 X55.862 Y189.364 E62.41229
G0 F6000 X56.428 Y189.364
G1 F1200 X45.634 Y178.57 E62.92
G0 F6000 X45.634 Y178.004
G1 F1200 X56.994 Y189.364 E63.45434
G0 F6000 X57.559 Y189.364
G1 F1200 X45.634 Y177.439 E64.01526
G0 F6000 X45.634 Y176.873
G1 F1200 X58.125 Y189.364 E64.6028
G0 F6000 X58.691 Y189.364
G1 F1200 X45.634 Y176.307 E65.21696
G0 F6000 X45.634 Y175.742
G1 F1200 X59.256 Y189.364 E65.85769
G0 F6000 X59.822 Y189.364
G1 F1200 X45.634 Y175.176 E66.52505
G0 F6000 X45.634 Y174.61
G1 F1200 X60.388 Y189.364 E67.21904
G0 F6000 X60.954 Y189.364
G1 F1200 X45.634 Y174.045 E67.93962
G0 F6000 X45.634 Y173.479
G1 F1200 X61.519 Y189.364 E68.6868
G0 F6000 X62.085 Y189.364
G1 F1200 X45.634 Y172.913 E69.46061
G0 F6000 X45.634 Y172.348
G1 F1200 X62.651 Y189.364 E70.26101
G0 F6000 X63.216 Y189.364
G1 F1200 X45.634 Y171.782 E71.08801
G0 F6000 X45.634 Y171.216
G1 F1200 X63.782 Y189.364 E71.94164
G0 F6000 X64.348 Y189.364
G1 F1200 X45.634 Y170.651 E72.82187
G0 F6000 X45.634 Y170.085
G1 F1200 X64.913 Y189.364 E73.72869
G0 F6000 X65.479 Y189.364
G1 F1200 X45.634 Y169.519 E74.66214
G0 F6000 X45.634 Y168.953
G1 F1200 X66.045 Y189.364 E75.62221
G0 F6000 X66.61 Y189.364
G1 F1200 X45.634 Y168.388 E76.60886
G0 F6000 X45.634 Y167.822
G1 F1200 X67.176 Y189.364 E77.62213
G0 F6000 X67.742 Y189.364
G1 F1200 X45.634 Y167.256 E78.66202
G0 F6000 X45.634 Y166.691
G1 F1200 X68.307 Y189.364 E79.72849
G0 F6000 X68.873 Y189.364
G1 F1200 X45.634 Y166.125 E80.82158
G0 F6000 X45.634 Y165.559
G1 F1200 X69.439 Y189.364 E81.94129
G0 F6000 X70.004 Y189.364
G1 F1200 X45.634 Y164.994 E83.08758
G0 F6000 X45.634 Y164.428
G1 F1200 X70.57 Y189.364 E84.2605
G0 F6000 X71.136 Y189.364
G1 F1200 X45.634 Y163.862 E85.46003
G0 F6000 X45.634 Y163.297
G1 F1200 X71.702 Y189.364 E86.68617
G0 F6000 X72.267 Y189.364
G1 F1200 X45.634 Y162.731 E87.9389
G0 F6000 X45.634 Y162.165
G1 F1200 X72.833 Y189.364 E89.21826
G0 F6000 X73.399 Y189.364
G1 F1200 X45.634 Y161.6 E90.52422
G0 F6000 X45.634 Y161.034
G1 F1200 X73.964 Y189.364 E91.85677
G0 F6000 X74.53 Y189.364
G1 F1200 X45.634 Y160.468 E93.21595
G0 F6000 X45.634 Y159.903
G1 F1200 X75.096 Y189.364 E94.60173
G0 F6000 X75.661 Y189.364
G1 F1200 X45.634 Y159.337 E96.01411
G0 F6000 X45.634 Y158.771
G1 F1200 X76.227 Y189.364 E97.45311
G0 F6000 X76.793 Y189.364
G1 F1200 X45.634 Y158.205 E98.91873
G0 F6000 X45.634 Y157.64
G1 F1200 X77.358 Y189.364 E100.41093
G0 F6000 X77.924 Y189.364
G1 F1200 X45.634 Y157.074 E101.92975
G0 F6000 X45.634 Y156.508
G1 F1200 X78.49 Y189.364 E103.4752
G0 F6000 X79.055 Y189.364
G1 F1200 X45.634 Y155.943 E105.04722
G0 F6000 X45.634 Y155.377
G1 F1200 X79.621 Y189.364 E106.64587
G0 F6000 X80.187 Y189.364
G1 F1200 X45.634 Y154.811 E108.27113
G0 F6000 X45.634 Y154.246
G1 F1200 X80.753 Y189.364 E109.923
G0 F6000 X81.318 Y189.364
G1 F1200 X45.634 Y153.68 E111.60147
G0 F6000 X45.634 Y153.114
G1 F1200 X81.884 Y189.364 E113.30655
G0 F6000 X82.45 Y189.364
G1 F1200 X45.634 Y152.549 E115.03824
G0 F6000 X45.634 Y151.983
G1 F1200 X83.015 Y189.364 E116.79653
G0 F6000 X83.581 Y189.364
G1 F1200 X45.634 Y151.417 E118.58144
G0 F6000 X45.634 Y150.852
G1 F1200 X84.147 Y189.364 E120.39295
G0 F6000 X84.712 Y189.364
G1 F1200 X45.634 Y150.286 E122.23106
G0 F6000 X45.634 Y149.72
G1 F1200 X85.278 Y189.364 E124.09579
G0 F6000 X85.844 Y189.364
G1 F1200 X45.634 Y149.154 E125.98715
G0 F6000 X45.634 Y148.589
G1 F1200 X86.409 Y189.364 E127.90508
G0 F6000 X86.975 Y189.364
G1 F1200 X45.634 Y148.023 E129.84963
G0 F6000 X45.634 Y147.457
G1 F1200 X87.541 Y189.364 E131.82081
G0 F6000 X88.106 Y189.364
G1 F1200 X45.634 Y146.892 E133.81856
G0 F6000 X45.634 Y146.326
G1 F1200 X88.672 Y189.364 E135.84294
G0 F6000 X89.238 Y189.364
G1 F1200 X45.634 Y145.76 E137.89394
G0 F6000 X45.634 Y145.195
G1 F1200 X89.803 Y189.364 E139.97151
G0 F6000 X90.369 Y189.364
G1 F1200 X45.634 Y144.629 E142.07571
G0 F6000 X45.634 Y144.063
G1 F1200 X90.935 Y189.364 E144.20653
G0 F6000 X91.501 Y189.364
G1 F1200 X45.634 Y143.498 E146.36395
G0 F6000 X45.634 Y142.932
G1 F1200 X92.066 Y189.364 E148.54797
G0 F6000 X92.632 Y189.364
G1 F1200 X45.634 Y142.366 E150.75861
G0 F6000 X45.634 Y141.801
G1 F1200 X93.198 Y189.364 E152.99585
G0 F6000 X93.763 Y189.364
G1 F1200 X45.634 Y141.235 E155.25969
G0 F6000 X45.634 Y140.669
G1 F1200 X94.329 Y189.364 E157.55015
G0 F6000 X94.895 Y189.364
G1 F1200 X45.634 Y140.104 E159.86722
G0 F6000 X45.634 Y139.538
G1 F1200 X95.46 Y189.364 E162.21088
G0 F6000 X96.026 Y189.364
G1 F1200 X45.634 Y138.972 E164.58116
G0 F6000 X45.634 Y138.406
G1 F1200 X96.592 Y189.364 E166.97807
G0 F6000 X97.157 Y189.364
G1 F1200 X45.634 Y137.841 E169.40156
G0 F6000 X45.634 Y137.275
G1 F1200 X97.723 Y189.364 E171.85166
G0 F6000 X98.289 Y189.364
G1 F1200 X45.634 Y136.709 E174.32839
G0 F6000 X45.634 Y136.144
G1 F1200 X98.854 Y189.364 E176.8317
G0 F6000 X99.42 Y189.364
G1 F1200 X45.634 Y135.578 E179.36163
G0 F6000 X45.634 Y135.012
G1 F1200 X99.986 Y189.364 E181.91818
G0 F6000 X100.551 Y189.364
G1 F1200 X45.634 Y134.447 E184.50131
G0 F6000 X45.634 Y133.881
G1 F1200 X101.117 Y189.364 E187.11106
G0 F6000 X101.683 Y189.364
G1 F1200 X45.634 Y133.315 E189.74743
G0 F6000 X45.634 Y132.75
G1 F1200 X102.249 Y189.364 E192.4104
G0 F6000 X102.814 Y189.364
G1 F1200 X45.634 Y132.184 E195.09997
G0 F6000 X45.634 Y131.618
G1 F1200 X103.38 Y189.364 E197.81617
G0 F6000 X103.946 Y189.364
G1 F1200 X45.634 Y131.053 E200.55896
G0 F6000 X45.634 Y130.487
G1 F1200 X104.511 Y189.364 E203.32836
G0 F6000 X105.077 Y189.364
G1 F1200 X45.634 Y129.921 E206.12437
G0 F6000 X45.634 Y129.355
G1 F1200 X105.643 Y189.364 E208.94701
G0 F6000 X106.208 Y189.364
G1 F1200 X45.634 Y128.79 E211.79623
G0 F6000 X45.634 Y128.224
G1 F1200 X106.774 Y189.364 E214.67206
G0 F6000 X107.34 Y189.364
G1 F1200 X45.634 Y127.658 E217.57453
G0 F6000 X45.634 Y127.093
G1 F1200 X107.905 Y189.364 E220.50356
G0 F6000 X108.471 Y189.364
G1 F1200 X45.634 Y126.527 E223.45922
G0 F6000 X45.634 Y125.961
G1 F1200 X109.037 Y189.364 E226.44151
G0 F6000 X109.602 Y189.364
G1 F1200 X45.634 Y125.396 E229.45036
G0 F6000 X45.634 Y124.83
G1 F1200 X110.168 Y189.364 E232.48585
G0 F6000 X110.734 Y189.364
G1 F1200 X45.634 Y124.264 E235.54795
G0 F6000 X45.634 Y123.699
G1 F1200 X111.3 Y189.364 E238.63665
G0 F6000 X111.865 Y189.364
G1 F1200 X45.634 Y123.133 E241.75196
G0 F6000 X45.634 Y122.567
G1 F1200 X112.431 Y189.364 E244.89388
G0 F6000 X112.997 Y189.364
G1 F1200 X45.634 Y122.002 E248.06241
G0 F6000 X45.634 Y121.436
G1 F1200 X113.562 Y189.364 E251.25753
G0 F6000 X114.128 Y189.364
G1 F1200 X45.634 Y120.87 E254.47928
G0 F6000 X45.634 Y120.305
G1 F1200 X114.694 Y189.364 E257.72763
G0 F6000 X115.259 Y189.364
G1 F1200 X45.634 Y119.739 E261.00257
G0 F6000 X45.634 Y119.173
G1 F1200 X115.825 Y189.364 E264.30414
G0 F6000 X116.391 Y189.364
G1 F1200 X45.634 Y118.607 E267.63234
G0 F6000 X45.634 Y118.042
G1 F1200 X116.956 Y189.364 E270.9871
G0 F6000 X117.522 Y189.364
G1 F1200 X45.634 Y117.476 E274.3685
G0 F6000 X45.634 Y116.91
G1 F1200 X118.088 Y189.364 E277.77651
G0 F6000 X118.653 Y189.364
G1 F1200 X45.634 Y116.345 E281.2111
G0 F6000 X45.634 Y115.779
G1 F1200 X119.219 Y189.364 E284.67231
G0 F6000 X119.785 Y189.364
G1 F1200 X45.634 Y115.213 E288.16015
G0 F6000 X45.634 Y114.648
G1 F1200 X120.35 Y189.364 E291.67456
G0 F6000 X120.916 Y189.364
G1 F1200 X45.634 Y114.082 E295.21559
G0 F6000 X45.634 Y113.516
G1 F1200 X121.482 Y189.364 E298.78325
G0 F6000 X122.048 Y189.364
G1 F1200 X45.634 Y112.951 E302.37751
G0 F6000 X45.634 Y112.385
G1 F1200 X122.613 Y189.364 E305.99836
G0 F6000 X123.179 Y189.364
G1 F1200 X45.634 Y111.819 E309.64584
G0 F6000 X45.634 Y111.254
G1 F1200 X123.745 Y189.364 E313.31992
G0 F6000 X124.31 Y189.364
G1 F1200 X45.634 Y110.688 E317.0206
G0 F6000 X45.634 Y110.122
G1 F1200 X124.876 Y189.364 E320.7479
G0 F6000 X125.442 Y189.364
G1 F1200 X45.634 Y109.557 E324.5018
G0 F6000 X45.634 Y108.991
G1 F1200 X126.007 Y189.364 E328.2823
G0 F6000 X126.573 Y189.364
G1 F1200 X45.634 Y108.425 E332.08942
G0 F6000 X45.634 Y107.859
G1 F1200 X127.139 Y189.364 E335.92317
G0 F6000 X127.704 Y189.364
G1 F1200 X45.634 Y107.294 E339.78349
G0 F6000 X45.634 Y106.728
G1 F1200 X128.27 Y189.364 E343.67043
G0 F6000 X128.836 Y189.364
G1 F1200 X45.634 Y106.162 E347.584
G0 F6000 X45.634 Y105.597
G1 F1200 X129.401 Y189.364 E351.52414
G0 F6000 X129.967 Y189.364
G1 F1200 X45.634 Y105.031 E355.49091
G0 F6000 X45.634 Y104.465
G1 F1200 X130.533 Y189.364 E359.4843
G0 F6000 X131.099 Y189.364
G1 F1200 X45.634 Y103.9 E363.50429
G0 F6000 X45.634 Y103.334
G1 F1200 X131.664 Y189.364 E367.55087
G0 F6000 X132.23 Y189.364
G1 F1200 X45.634 Y102.768 E371.62408
G0 F6000 X45.634 Y102.203
G1 F1200 X132.796 Y189.364 E375.72389
G0 F6000 X133.361 Y189.364
G1 F1200 X45.634 Y101.637 E379.8503
G0 F6000 X45.634 Y101.071
G1 F1200 X133.927 Y189.364 E384.00333
G0 F6000 X134.493 Y189.364
G1 F1200 X45.634 Y100.506 E388.18297
G0 F6000 X45.634 Y99.94
G1 F1200 X135.058 Y189.364 E392.3892
G0 F6000 X135.624 Y189.364
G1 F1200 X45.634 Y99.374 E396.62205
G0 F6000 X45.634 Y98.808
G1 F1200 X136.19 Y189.364 E400.88153
G0 F6000 X136.755 Y189.364
G1 F1200 X45.634 Y98.243 E405.16758
G0 F6000 X45.634 Y97.677
G1 F1200 X137.321 Y189.364 E409.48025
G0 F6000 X137.887 Y189.364
G1 F1200 X45.634 Y97.111 E413.81955
G0 F6000 X45.634 Y96.546
G1 F1200 X138.452 Y189.364 E418.18543
G0 F6000 X139.018 Y189.364
G1 F1200 X45.634 Y95.98 E422.57792
G0 F6000 X45.634 Y95.414
G1 F1200 X139.584 Y189.364 E426.99704
G0 F6000 X140.149 Y189.364
G1 F1200 X45.634 Y94.849 E431.44274
G0 F6000 X45.634 Y94.283
G1 F1200 X140.715 Y189.364 E435.91506
G0 F6000 X141.281 Y189.364
G1 F1200 X45.634 Y93.717 E440.414
G0 F6000 X45.634 Y93.152
G1 F1200 X141.847 Y189.364 E444.93954
G0 F6000 X142.412 Y189.364
G1 F1200 X45.634 Y92.586 E449.49168
G0 F6000 X45.634 Y92.02
G1 F1200 X142.978 Y189.364 E454.07044
G0 F6000 X143.544 Y189.364
G1 F1200 X45.634 Y91.455 E458.67581
G0 F6000 X45.634 Y90.889
G1 F1200 X144.109 Y189.364 E463.30777
G0 F6000 X144.675 Y189.364
G1 F1200 X45.634 Y90.323 E467.96635
G0 F6000 X45.634 Y89.758
G1 F1200 X145.241 Y189.364 E472.65154
G0 F6000 X145.806 Y189.364
G1 F1200 X45.634 Y89.192 E477.36332
G0 F6000 X45.634 Y88.626
G1 F1200 X146.372 Y189.364 E482.10173
G0 F6000 X146.938 Y189.364
G1 F1200 X45.634 Y88.06 E486.86676
G0 F6000 X45.634 Y87.495
G1 F1200 X147.503 Y189.364 E491.65836
G0 F6000 X148.069 Y189.364
G1 F1200 X45.634 Y86.929 E496.47659
G0 F6000 X45.634 Y86.363
G1 F1200 X148.635 Y189.364 E501.32144
G0 F6000 X149.2 Y189.364
G1 F1200 X45.634 Y85.798 E506.19287
G0 F6000 X45.634 Y85.232
G1 F1200 X149.766 Y189.364 E511.09092
G0 F6000 X150.332 Y189.364
G1 F1200 X45.634 Y84.666 E516.01559
G0 F6000 X45.634 Y84.101
G1 F1200 X150.898 Y189.364 E520.96687
G0 F6000 X151.463 Y189.364
G1 F1200 X45.634 Y83.535 E525.94474
G0 F6000 X45.634 Y82.969
G1 F1200 X152.029 Y189.364 E530.94923
G0 F6000 X152.595 Y189.364
G1 F1200 X45.634 Y82.404 E535.98033
G0 F6000 X45.634 Y81.838
G1 F1200 X153.16 Y189.364 E541.03802
G0 F6000 X153.726 Y189.364
G1 F1200 X45.634 Y81.272 E546.12234
G0 F6000 X45.634 Y80.707
G1 F1200 X154.292 Y189.364 E551.23325
G0 F6000 X154.857 Y189.364
G1 F1200 X45.634 Y80.141 E556.37077
G0 F6000 X45.634 Y79.575
G1 F1200 X155.423 Y189.364 E561.5349
G0 F6000 X155.989 Y189.364
G1 F1200 X45.634 Y79.009 E566.72567
G0 F6000 X45.634 Y78.444
G1 F1200 X156.554 Y189.364 E571.943
G0 F6000 X157.12 Y189.364
G1 F1200 X45.634 Y77.878 E577.18696
G0 F6000 X45.634 Y77.312
G1 F1200 X157.686 Y189.364 E582.45754
G0 F6000 X158.251 Y189.364
G1 F1200 X45.634 Y76.747 E587.7547
G0 F6000 X45.634 Y76.181
G1 F1200 X158.817 Y189.364 E593.07848
G0 F6000 X159.383 Y189.364
G1 F1200 X45.634 Y75.615 E598.42889
G0 F6000 X45.634 Y75.05
G1 F1200 X159.948 Y189.364 E603.80587
G0 F6000 X160.514 Y189.364
G1 F1200 X45.634 Y74.484 E609.20947
G0 F6000 X45.634 Y73.918
G1 F1200 X161.08 Y189.364 E614.6397
G0 F6000 X161.646 Y189.364
G1 F1200 X45.634 Y73.353 E620.09652
G0 F6000 X45.634 Y72.787
G1 F1200 X162.211 Y189.364 E625.57995
G0 F6000 X162.777 Y189.364
G1 F1200 X45.634 Y72.221 E631.09
G0 F6000 X45.634 Y71.656
G1 F1200 X163.343 Y189.364 E636.62664
G0 F6000 X163.908 Y189.364
G1 F1200 X45.634 Y71.09 E642.18989
G0 F6000 X45.634 Y70.524
G1 F1200 X164.474 Y189.364 E647.77976
G0 F6000 X165.04 Y189.364
G1 F1200 X45.634 Y69.959 E653.39623
G0 F6000 X45.634 Y69.393
G1 F1200 X165.605 Y189.364 E659.03929
G0 F6000 X166.171 Y189.364
G1 F1200 X45.634 Y68.827 E664.70899
G0 F6000 X45.634 Y68.261
G1 F1200 X166.737 Y189.364 E670.4053
G0 F6000 X167.302 Y189.364
G1 F1200 X45.634 Y67.696 E676.12819
G0 F6000 X45.634 Y67.13
G1 F1200 X167.868 Y189.364 E681.8777
G0 F6000 X168.434 Y189.364
G1 F1200 X45.634 Y66.564 E687.65384
G0 F6000 X45.634 Y65.999
G1 F1200 X168.999 Y189.364 E693.45655
G0 F6000 X169.565 Y189.364
G1 F1200 X45.634 Y65.433 E699.28588
G0 F6000 X45.634 Y64.867
G1 F1200 X170.131 Y189.364 E705.14184
G0 F6000 X170.696 Y189.364
G1 F1200 X45.634 Y64.302 E711.02437
G0 F6000 X45.634 Y63.736
G1 F1200 X171.262 Y189.364 E716.93353
G0 F6000 X171.828 Y189.364
G1 F1200 X45.634 Y63.17 E722.86931
G0 F6000 X45.634 Y62.605
G1 F1200 X172.394 Y189.364 E728.83169
G0 F6000 X172.959 Y189.364
G1 F1200 X45.634 Y62.039 E734.82066
G0 F6000 X45.634 Y61.473
G1 F1200 X173.525 Y189.364 E740.83626
G0 F6000 X174.091 Y189.364
G1 F1200 X45.634 Y60.908 E746.87846
G0 F6000 X45.634 Y60.342
G1 F1200 X174.656 Y189.364 E752.94726
G0 F6000 X175.222 Y189.364
G1 F1200 X45.634 Y59.776 E759.04269
G0 F6000 X45.634 Y59.211
G1 F1200 X175.788 Y189.364 E765.16471
G0 F6000 X176.353 Y189.364
G1 F1200 X45.634 Y58.645 E771.31333
G0 F6000 X45.634 Y58.079
G1 F1200 X176.919 Y189.364 E777.48857
